luts/Filmmic/Filmmic.cube
TITLE "Generated by LUMIX Lab"
#LUMIXPHOTOSTYLE NAT
LUT_3D_SIZE 33
0.003922 0.003922 0.003922
0.003922 0.003922 0.000000
0.031373 0.000000 0.000000
0.054902 0.007843 0.000000
0.098039 0.007843 0.000000
0.121569 0.003922 0.000000
0.152941 0.003922 0.000000
0.188235 0.007843 0.000000
0.215686 0.007843 0.000000
0.254902 0.007843 0.000000
0.301961 0.003922 0.000000
0.333333 0.007843 0.000000
0.376471 0.011765 0.000000
0.423529 0.007843 0.000000
0.462745 0.007843 0.000000
0.501961 0.007843 0.000000
0.537255 0.003922 0.000000
0.580392 0.007843 0.000000
0.611765 0.003922 0.003922
0.654902 0.011765 0.000000
0.682353 0.007843 0.000000
0.713726 0.007843 0.000000
0.752941 0.007843 0.000000
0.776471 0.007843 0.000000
0.800000 0.015686 0.003922
0.823529 0.011765 0.000000
0.862745 0.019608 0.000000
0.886275 0.019608 0.000000
0.917647 0.015686 0.000000
0.941176 0.019608 0.000000
0.976471 0.023529 0.000000
0.996078 0.019608 0.000000
0.996078 0.019608 0.000000
0.000000 0.027451 0.000000
0.000000 0.027451 0.003922
0.035294 0.023529 0.000000
0.062745 0.027451 0.000000
0.090196 0.023529 0.000000
0.113725 0.023529 0.000000
0.145098 0.023529 0.000000
0.180392 0.027451 0.000000
0.219608 0.027451 0.000000
0.250980 0.031373 0.000000
0.305882 0.035294 0.000000
0.333333 0.035294 0.000000
0.372549 0.035294 0.000000
0.423529 0.035294 0.000000
0.462745 0.035294 0.000000
0.501961 0.035294 0.000000
0.545098 0.031373 0.000000
0.580392 0.035294 0.000000
0.607843 0.035294 0.000000
0.647059 0.031373 0.003922
0.670588 0.031373 0.000000
0.717647 0.031373 0.000000
0.741176 0.035294 0.000000
0.776471 0.035294 0.000000
0.803922 0.035294 0.000000
0.819608 0.043137 0.000000
0.862745 0.039216 0.000000
0.886275 0.039216 0.000000
0.913725 0.039216 0.000000
0.937255 0.043137 0.000000
0.972549 0.035294 0.000000
0.996078 0.039216 0.000000
1.000000 0.035294 0.000000
0.000000 0.058824 0.000000
0.000000 0.058824 0.000000
0.031373 0.054902 0.000000
0.054902 0.047059 0.000000
0.090196 0.054902 0.000000
0.113725 0.054902 0.000000
0.149020 0.054902 0.000000
0.176471 0.050980 0.000000
0.207843 0.050980 0.000000
0.243137 0.054902 0.000000
0.290196 0.054902 0.000000
0.317647 0.050980 0.000000
0.356863 0.050980 0.000000
0.400000 0.054902 0.000000
0.462745 0.054902 0.000000
0.501961 0.054902 0.000000
0.541176 0.054902 0.000000
0.584314 0.054902 0.000000
0.603922 0.054902 0.000000
0.650980 0.054902 0.000000
0.674510 0.054902 0.000000
0.709804 0.062745 0.000000
0.749020 0.062745 0.000000
0.768627 0.054902 0.000000
0.803922 0.062745 0.000000
0.827451 0.062745 0.000000
0.858824 0.058824 0.000000
0.882353 0.062745 0.000000
0.913725 0.058824 0.000000
0.937255 0.062745 0.000000
0.968627 0.058824 0.000000
0.996078 0.062745 0.000000
0.996078 0.062745 0.000000
0.000000 0.078431 0.000000
0.000000 0.078431 0.000000
0.027451 0.082353 0.000000
0.054902 0.074510 0.000000
0.090196 0.070588 0.000000
0.125490 0.074510 0.000000
0.145098 0.078431 0.000000
0.172549 0.074510 0.000000
0.211765 0.078431 0.000000
0.243137 0.074510 0.000000
0.286275 0.078431 0.000000
0.313726 0.078431 0.000000
0.352941 0.078431 0.000000
0.392157 0.078431 0.000000
0.439216 0.078431 0.000000
0.478431 0.074510 0.000000
0.517647 0.074510 0.000000
0.556863 0.074510 0.000000
0.580392 0.074510 0.003922
0.643137 0.082353 0.000000
0.674510 0.082353 0.000000
0.713726 0.082353 0.000000
0.745098 0.086275 0.000000
0.768627 0.086275 0.000000
0.811765 0.078431 0.000000
0.823529 0.086275 0.000000
0.862745 0.086275 0.003922
0.882353 0.082353 0.000000
0.913725 0.090196 0.000000
0.933333 0.082353 0.000000
0.964706 0.086275 0.000000
0.996078 0.082353 0.000000
0.996078 0.082353 0.000000
0.000000 0.113725 0.000000
0.000000 0.113725 0.000000
0.023529 0.113725 0.000000
0.047059 0.113725 0.000000
0.094118 0.101961 0.000000
0.113725 0.098039 0.000000
0.152941 0.101961 0.000000
0.176471 0.109804 0.000000
0.215686 0.105882 0.003922
0.239216 0.105882 0.003922
0.286275 0.105882 0.000000
0.317647 0.109804 0.000000
0.356863 0.109804 0.000000
0.396078 0.109804 0.000000
0.443137 0.105882 0.000000
0.470588 0.113725 0.000000
0.513726 0.109804 0.000000
0.552941 0.109804 0.000000
0.580392 0.109804 0.000000
0.623529 0.105882 0.000000
0.647059 0.109804 0.000000
0.682353 0.105882 0.000000
0.717647 0.105882 0.000000
0.741176 0.105882 0.000000
0.780392 0.105882 0.000000
0.796078 0.105882 0.000000
0.858824 0.113725 0.000000
0.882353 0.113725 0.003922
0.909804 0.113725 0.000000
0.937255 0.113725 0.000000
0.956863 0.109804 0.000000
0.992157 0.117647 0.000000
1.000000 0.117647 0.000000
0.000000 0.137255 0.000000
0.000000 0.137255 0.000000
0.019608 0.137255 0.000000
0.043137 0.129412 0.000000
0.082353 0.137255 0.000000
0.113725 0.125490 0.000000
0.156863 0.121569 0.000000
0.184314 0.125490 0.003922
0.211765 0.129412 0.000000
0.243137 0.133333 0.000000
0.282353 0.133333 0.000000
0.313726 0.133333 0.000000
0.352941 0.133333 0.000000
0.403922 0.125490 0.000000
0.435294 0.129412 0.003922
0.474510 0.129412 0.000000
0.517647 0.129412 0.000000
0.556863 0.129412 0.000000
0.580392 0.129412 0.000000
0.623529 0.133333 0.000000
0.650980 0.133333 0.000000
0.682353 0.129412 0.000000
0.709804 0.125490 0.000000
0.745098 0.129412 0.000000
0.776471 0.129412 0.000000
0.800000 0.137255 0.000000
0.823529 0.133333 0.000000
0.854902 0.129412 0.000000
0.882353 0.129412 0.000000
0.901961 0.133333 0.000000
0.933333 0.129412 0.000000
0.992157 0.145098 0.000000
1.000000 0.149020 0.000000
0.000000 0.172549 0.000000
0.000000 0.172549 0.000000
0.019608 0.172549 0.000000
0.043137 0.176471 0.000000
0.086275 0.168627 0.000000
0.113725 0.172549 0.011765
0.152941 0.164706 0.000000
0.184314 0.164706 0.000000
0.219608 0.160784 0.000000
0.254902 0.152941 0.000000
0.282353 0.168627 0.000000
0.309804 0.164706 0.000000
0.349020 0.168627 0.000000
0.396078 0.164706 0.000000
0.439216 0.168627 0.000000
0.466667 0.164706 0.000000
0.517647 0.168627 0.000000
0.549020 0.164706 0.000000
0.572549 0.168627 0.000000
0.619608 0.168627 0.000000
0.650980 0.168627 0.000000
0.682353 0.168627 0.003922
0.713726 0.168627 0.000000
0.741176 0.160784 0.000000
0.768627 0.168627 0.000000
0.792157 0.168627 0.000000
0.823529 0.168627 0.000000
0.850980 0.164706 0.000000
0.886275 0.168627 0.000000
0.909804 0.168627 0.003922
0.933333 0.168627 0.000000
0.952941 0.164706 0.000000
0.988235 0.168627 0.000000
0.000000 0.200000 0.000000
0.000000 0.203922 0.000000
0.019608 0.200000 0.000000
0.043137 0.200000 0.000000
0.082353 0.203922 0.000000
0.109804 0.196078 0.000000
0.152941 0.192157 0.000000
0.180392 0.188235 0.000000
0.219608 0.188235 0.000000
0.250980 0.188235 0.000000
0.301961 0.184314 0.000000
0.333333 0.180392 0.000000
0.360784 0.196078 0.000000
0.400000 0.196078 0.000000
0.439216 0.196078 0.000000
0.474510 0.192157 0.000000
0.517647 0.196078 0.000000
0.556863 0.196078 0.000000
0.580392 0.196078 0.000000
0.623529 0.192157 0.000000
0.650980 0.192157 0.003922
0.678431 0.192157 0.000000
0.717647 0.192157 0.000000
0.741176 0.196078 0.000000
0.772549 0.192157 0.000000
0.796078 0.192157 0.000000
0.831373 0.196078 0.000000
0.858824 0.200000 0.007843
0.886275 0.196078 0.000000
0.905882 0.192157 0.000000
0.933333 0.188235 0.000000
0.952941 0.192157 0.000000
0.988235 0.196078 0.000000
0.000000 0.243137 0.000000
0.000000 0.243137 0.000000
0.003922 0.243137 0.000000
0.035294 0.239216 0.000000
0.074510 0.239216 0.000000
0.105882 0.239216 0.000000
0.137255 0.239216 0.000000
0.188235 0.223529 0.000000
0.215686 0.219608 0.000000
0.250980 0.223529 0.000000
0.305882 0.215686 0.000000
0.341176 0.219608 0.000000
0.372549 0.207843 0.000000
0.396078 0.231373 0.000000
0.435294 0.231373 0.000000
0.474510 0.231373 0.000000
0.513726 0.231373 0.000000
0.552941 0.227451 0.000000
0.576471 0.231373 0.000000
0.623529 0.227451 0.000000
0.647059 0.231373 0.000000
0.682353 0.231373 0.000000
0.709804 0.231373 0.000000
0.741176 0.227451 0.000000
0.772549 0.231373 0.000000
0.796078 0.227451 0.000000
0.827451 0.231373 0.000000
0.850980 0.231373 0.000000
0.882353 0.231373 0.000000
0.901961 0.227451 0.000000
0.929412 0.231373 0.000000
0.956863 0.231373 0.000000
0.988235 0.223529 0.000000
0.000000 0.278431 0.000000
0.000000 0.278431 0.000000
0.003922 0.278431 0.000000
0.035294 0.278431 0.000000
0.078431 0.270588 0.000000
0.101961 0.274510 0.000000
0.137255 0.274510 0.000000
0.164706 0.274510 0.000000
0.219608 0.250980 0.000000
0.250980 0.250980 0.000000
0.301961 0.250980 0.000000
0.333333 0.250980 0.000000
0.372549 0.247059 0.000000
0.423529 0.243137 0.000000
0.439216 0.262745 0.000000
0.478431 0.262745 0.000000
0.517647 0.262745 0.003922
0.556863 0.262745 0.000000
0.580392 0.262745 0.000000
0.619608 0.262745 0.003922
0.643137 0.262745 0.000000
0.682353 0.262745 0.000000
0.713726 0.262745 0.000000
0.745098 0.258824 0.000000
0.784314 0.258824 0.000000
0.792157 0.262745 0.000000
0.823529 0.262745 0.000000
0.847059 0.262745 0.000000
0.878431 0.262745 0.000000
0.901961 0.258824 0.000000
0.933333 0.262745 0.000000
0.952941 0.258824 0.000000
0.988235 0.262745 0.000000
0.000000 0.317647 0.000000
0.000000 0.317647 0.000000
0.003922 0.313726 0.003922
0.039216 0.317647 0.003922
0.062745 0.313726 0.000000
0.094118 0.309804 0.000000
0.133333 0.309804 0.000000
0.172549 0.317647 0.000000
0.207843 0.313726 0.000000
0.250980 0.290196 0.000000
0.298039 0.294118 0.000000
0.333333 0.286275 0.000000
0.380392 0.286275 0.000000
0.423529 0.290196 0.003922
0.458824 0.286275 0.000000
0.505882 0.274510 0.000000
0.509804 0.309804 0.000000
0.541176 0.301961 0.000000
0.580392 0.309804 0.000000
0.615686 0.305882 0.000000
0.650980 0.305882 0.000000
0.686275 0.301961 0.000000
0.713726 0.309804 0.000000
0.745098 0.309804 0.000000
0.776471 0.309804 0.000000
0.792157 0.301961 0.000000
0.827451 0.301961 0.000000
0.850980 0.305882 0.003922
0.886275 0.305882 0.000000
0.905882 0.305882 0.000000
0.933333 0.313726 0.011765
0.952941 0.305882 0.000000
0.988235 0.309804 0.000000
0.000000 0.352941 0.000000
0.000000 0.356863 0.000000
0.000000 0.352941 0.000000
0.027451 0.352941 0.000000
0.066667 0.352941 0.000000
0.090196 0.352941 0.000000
0.125490 0.352941 0.000000
0.160784 0.349020 0.003922
0.200000 0.345098 0.000000
0.243137 0.321569 0.000000
0.294118 0.325490 0.000000
0.337255 0.321569 0.000000
0.376471 0.325490 0.000000
0.419608 0.325490 0.000000
0.462745 0.317647 0.000000
0.505882 0.313726 0.000000
0.545098 0.313726 0.000000
0.556863 0.333333 0.000000
0.568627 0.341176 0.000000
0.619608 0.337255 0.000000
0.643137 0.337255 0.000000
0.682353 0.337255 0.000000
0.717647 0.341176 0.000000
0.741176 0.333333 0.000000
0.776471 0.337255 0.000000
0.803922 0.341176 0.003922
0.823529 0.337255 0.000000
0.847059 0.349020 0.000000
0.878431 0.337255 0.000000
0.909804 0.333333 0.003922
0.941176 0.345098 0.003922
0.952941 0.333333 0.000000
0.984314 0.333333 0.000000
0.003922 0.388235 0.000000
0.000000 0.392157 0.000000
0.000000 0.392157 0.000000
0.023529 0.392157 0.000000
0.066667 0.392157 0.000000
0.090196 0.392157 0.000000
0.121569 0.392157 0.000000
0.156863 0.392157 0.000000
0.192157 0.380392 0.000000
0.219608 0.384314 0.000000
0.298039 0.364706 0.000000
0.333333 0.368627 0.003922
0.368627 0.356863 0.000000
0.419608 0.368627 0.003922
0.462745 0.356863 0.000000
0.501961 0.356863 0.000000
0.549020 0.356863 0.007843
0.576471 0.352941 0.000000
0.607843 0.349020 0.000000
0.619608 0.376471 0.000000
0.643137 0.376471 0.000000
0.678431 0.380392 0.000000
0.709804 0.380392 0.000000
0.749020 0.376471 0.000000
0.776471 0.376471 0.000000
0.796078 0.380392 0.000000
0.827451 0.380392 0.000000
0.850980 0.380392 0.000000
0.890196 0.384314 0.003922
0.909804 0.372549 0.003922
0.933333 0.384314 0.000000
0.956863 0.372549 0.000000
0.992157 0.380392 0.000000
0.000000 0.435294 0.000000
0.000000 0.439216 0.000000
0.003922 0.443137 0.003922
0.023529 0.439216 0.000000
0.062745 0.439216 0.000000
0.082353 0.435294 0.000000
0.121569 0.427451 0.000000
0.156863 0.431373 0.000000
0.192157 0.435294 0.000000
0.223529 0.439216 0.000000
0.262745 0.427451 0.000000
0.333333 0.407843 0.000000
0.376471 0.400000 0.000000
0.423529 0.411765 0.000000
0.458824 0.400000 0.000000
0.498039 0.396078 0.000000
0.537255 0.392157 0.000000
0.572549 0.392157 0.000000
0.607843 0.396078 0.000000
0.647059 0.388235 0.000000
0.682353 0.392157 0.000000
0.682353 0.423529 0.000000
0.713726 0.419608 0.003922
0.745098 0.419608 0.000000
0.772549 0.419608 0.000000
0.792157 0.423529 0.000000
0.827451 0.423529 0.000000
0.850980 0.427451 0.000000
0.886275 0.419608 0.000000
0.901961 0.419608 0.000000
0.929412 0.419608 0.000000
0.960784 0.415686 0.000000
0.976471 0.427451 0.000000
0.000000 0.478431 0.000000
0.000000 0.482353 0.007843
0.000000 0.486275 0.000000
0.015686 0.470588 0.000000
0.058824 0.482353 0.000000
0.094118 0.478431 0.003922
0.117647 0.478431 0.000000
0.149020 0.478431 0.000000
0.188235 0.470588 0.000000
0.215686 0.478431 0.000000
0.266667 0.478431 0.000000
0.305882 0.478431 0.000000
0.376471 0.447059 0.000000
0.419608 0.447059 0.000000
0.458824 0.443137 0.003922
0.494118 0.439216 0.000000
0.541176 0.443137 0.000000
0.572549 0.435294 0.000000
0.607843 0.435294 0.000000
0.650980 0.431373 0.000000
0.674510 0.431373 0.000000
0.709804 0.423529 0.000000
0.713726 0.462745 0.000000
0.752941 0.454902 0.000000
0.776471 0.458824 0.000000
0.800000 0.458824 0.000000
0.835294 0.462745 0.000000
0.858824 0.454902 0.000000
0.882353 0.462745 0.007843
0.905882 0.462745 0.000000
0.941176 0.466667 0.000000
0.960784 0.462745 0.003922
0.992157 0.462745 0.000000
0.000000 0.521569 0.000000
0.000000 0.521569 0.000000
0.000000 0.517647 0.000000
0.019608 0.521569 0.000000
0.054902 0.517647 0.000000
0.086275 0.513726 0.000000
0.113725 0.513726 0.000000
0.145098 0.513726 0.000000
0.184314 0.517647 0.000000
0.215686 0.509804 0.000000
0.262745 0.513726 0.000000
0.301961 0.509804 0.000000
0.372549 0.490196 0.003922
0.419608 0.482353 0.000000
0.458824 0.486275 0.000000
0.494118 0.478431 0.000000
0.541176 0.478431 0.000000
0.572549 0.478431 0.000000
0.603922 0.478431 0.000000
0.643137 0.470588 0.000000
0.670588 0.466667 0.000000
0.713726 0.466667 0.000000
0.749020 0.462745 0.000000
0.772549 0.466667 0.000000
0.764706 0.501961 0.003922
0.792157 0.501961 0.000000
0.831373 0.501961 0.000000
0.858824 0.501961 0.003922
0.882353 0.501961 0.003922
0.901961 0.494118 0.000000
0.929412 0.501961 0.000000
0.952941 0.501961 0.000000
0.996078 0.498039 0.000000
0.007843 0.560784 0.000000
0.000000 0.560784 0.000000
0.000000 0.552941 0.000000
0.019608 0.556863 0.000000
0.054902 0.552941 0.000000
0.078431 0.545098 0.000000
0.109804 0.556863 0.000000
0.141176 0.552941 0.000000
0.184314 0.552941 0.000000
0.207843 0.545098 0.000000
0.254902 0.549020 0.003922
0.286275 0.545098 0.003922
0.333333 0.549020 0.000000
0.407843 0.525490 0.000000
0.450980 0.521569 0.000000
0.494118 0.513726 0.000000
0.537255 0.517647 0.000000
0.580392 0.517647 0.000000
0.607843 0.509804 0.000000
0.650980 0.513726 0.003922
0.682353 0.505882 0.000000
0.709804 0.509804 0.000000
0.745098 0.505882 0.000000
0.776471 0.505882 0.000000
0.803922 0.501961 0.000000
0.792157 0.537255 0.000000
0.831373 0.533333 0.000000
0.847059 0.533333 0.000000
0.882353 0.537255 0.000000
0.901961 0.533333 0.000000
0.937255 0.537255 0.000000
0.952941 0.537255 0.003922
0.988235 0.537255 0.000000
0.000000 0.600000 0.000000
0.000000 0.592157 0.000000
0.000000 0.592157 0.000000
0.011765 0.592157 0.000000
0.047059 0.588235 0.000000
0.078431 0.592157 0.003922
0.109804 0.592157 0.000000
0.137255 0.588235 0.000000
0.172549 0.584314 0.000000
0.207843 0.588235 0.000000
0.258824 0.580392 0.000000
0.290196 0.584314 0.000000
0.341176 0.576471 0.000000
0.384314 0.584314 0.000000
0.462745 0.560784 0.003922
0.486275 0.564706 0.000000
0.533333 0.552941 0.000000
0.576471 0.556863 0.000000
0.603922 0.552941 0.000000
0.647059 0.549020 0.000000
0.678431 0.545098 0.003922
0.701961 0.541176 0.000000
0.741176 0.541176 0.003922
0.772549 0.537255 0.000000
0.807843 0.541176 0.003922
0.831373 0.533333 0.007843
0.866667 0.537255 0.000000
0.854902 0.576471 0.003922
0.878431 0.572549 0.000000
0.901961 0.572549 0.000000
0.933333 0.568627 0.003922
0.956863 0.572549 0.000000
0.984314 0.576471 0.000000
0.000000 0.623529 0.000000
0.000000 0.623529 0.000000
0.000000 0.619608 0.000000
0.011765 0.627451 0.000000
0.043137 0.623529 0.000000
0.074510 0.623529 0.000000
0.105882 0.623529 0.003922
0.133333 0.619608 0.000000
0.172549 0.619608 0.000000
0.203922 0.619608 0.000000
0.243137 0.619608 0.000000
0.286275 0.611765 0.000000
0.329412 0.619608 0.000000
0.372549 0.615686 0.000000
0.458824 0.592157 0.003922
0.490196 0.584314 0.000000
0.533333 0.580392 0.000000
0.572549 0.580392 0.000000
0.607843 0.584314 0.000000
0.650980 0.580392 0.000000
0.682353 0.580392 0.000000
0.705882 0.572549 0.000000
0.741176 0.576471 0.000000
0.776471 0.572549 0.000000
0.803922 0.568627 0.000000
0.823529 0.572549 0.000000
0.858824 0.568627 0.000000
0.890196 0.564706 0.000000
0.882353 0.603922 0.000000
0.901961 0.600000 0.000000
0.937255 0.603922 0.000000
0.956863 0.600000 0.000000
0.984314 0.603922 0.000000
0.000000 0.670588 0.000000
0.000000 0.666667 0.000000
0.000000 0.666667 0.000000
0.000000 0.666667 0.000000
0.039216 0.666667 0.000000
0.070588 0.662745 0.000000
0.098039 0.662745 0.000000
0.129412 0.658824 0.000000
0.172549 0.662745 0.003922
0.196078 0.658824 0.000000
0.250980 0.654902 0.003922
0.282353 0.654902 0.000000
0.329412 0.658824 0.000000
0.376471 0.654902 0.000000
0.419608 0.658824 0.000000
0.494118 0.627451 0.000000
0.533333 0.627451 0.000000
0.580392 0.627451 0.000000
0.603922 0.619608 0.000000
0.643137 0.627451 0.000000
0.670588 0.627451 0.000000
0.713726 0.615686 0.000000
0.745098 0.627451 0.000000
0.764706 0.615686 0.000000
0.803922 0.615686 0.000000
0.827451 0.611765 0.000000
0.866667 0.611765 0.000000
0.886275 0.607843 0.000000
0.921569 0.603922 0.000000
0.945098 0.603922 0.000000
0.937255 0.639216 0.003922
0.952941 0.639216 0.000000
0.992157 0.643137 0.000000
0.000000 0.694118 0.000000
0.000000 0.694118 0.000000
0.000000 0.694118 0.000000
0.000000 0.694118 0.000000
0.039216 0.694118 0.000000
0.062745 0.694118 0.000000
0.098039 0.690196 0.000000
0.121569 0.690196 0.000000
0.160784 0.690196 0.000000
0.196078 0.686275 0.003922
0.247059 0.686275 0.000000
0.278431 0.690196 0.000000
0.325490 0.686275 0.000000
0.372549 0.682353 0.000000
0.411765 0.682353 0.000000
0.462745 0.682353 0.000000
0.537255 0.658824 0.000000
0.572549 0.654902 0.000000
0.603922 0.658824 0.000000
0.639216 0.654902 0.000000
0.670588 0.650980 0.000000
0.713726 0.654902 0.000000
0.737255 0.647059 0.000000
0.768627 0.647059 0.000000
0.807843 0.635294 0.000000
0.819608 0.635294 0.000000
0.858824 0.635294 0.000000
0.886275 0.635294 0.000000
0.913725 0.643137 0.000000
0.941176 0.635294 0.000000
0.972549 0.639216 0.000000
0.952941 0.670588 0.000000
0.992157 0.666667 0.000000
0.000000 0.729412 0.000000
0.000000 0.729412 0.000000
0.000000 0.733333 0.000000
0.000000 0.729412 0.000000
0.035294 0.725490 0.000000
0.062745 0.721569 0.000000
0.094118 0.725490 0.000000
0.125490 0.721569 0.000000
0.160784 0.725490 0.000000
0.188235 0.721569 0.000000
0.243137 0.721569 0.007843
0.274510 0.721569 0.000000
0.313726 0.717647 0.000000
0.356863 0.717647 0.000000
0.411765 0.717647 0.000000
0.447059 0.713726 0.000000
0.494118 0.717647 0.007843
0.572549 0.682353 0.000000
0.603922 0.686275 0.000000
0.639216 0.678431 0.000000
0.666667 0.686275 0.003922
0.705882 0.686275 0.000000
0.733333 0.678431 0.000000
0.768627 0.674510 0.000000
0.796078 0.670588 0.000000
0.827451 0.670588 0.000000
0.858824 0.670588 0.000000
0.882353 0.670588 0.000000
0.913725 0.666667 0.000000
0.937255 0.670588 0.000000
0.968627 0.666667 0.000000
1.000000 0.658824 0.003922
1.000000 0.658824 0.000000
0.000000 0.764706 0.000000
0.000000 0.764706 0.000000
0.000000 0.756863 0.000000
0.000000 0.756863 0.000000
0.035294 0.756863 0.000000
0.054902 0.760784 0.000000
0.090196 0.752941 0.000000
0.117647 0.756863 0.000000
0.152941 0.756863 0.000000
0.188235 0.756863 0.000000
0.231373 0.752941 0.000000
0.266667 0.756863 0.000000
0.309804 0.749020 0.000000
0.356863 0.752941 0.007843
0.403922 0.752941 0.000000
0.443137 0.749020 0.000000
0.494118 0.749020 0.000000
0.572549 0.721569 0.000000
0.600000 0.717647 0.000000
0.639216 0.713726 0.000000
0.666667 0.713726 0.000000
0.705882 0.713726 0.000000
0.741176 0.709804 0.000000
0.772549 0.705882 0.000000
0.803922 0.709804 0.000000
0.831373 0.701961 0.000000
0.858824 0.709804 0.000000
0.882353 0.709804 0.000000
0.913725 0.705882 0.007843
0.945098 0.698039 0.000000
0.976471 0.698039 0.000000
1.000000 0.698039 0.000000
0.996078 0.690196 0.003922
0.000000 0.784314 0.003922
0.000000 0.792157 0.000000
0.000000 0.792157 0.000000
0.000000 0.788235 0.000000
0.027451 0.784314 0.000000
0.054902 0.784314 0.000000
0.086275 0.788235 0.000000
0.113725 0.780392 0.000000
0.152941 0.780392 0.000000
0.184314 0.784314 0.000000
0.231373 0.780392 0.000000
0.262745 0.784314 0.003922
0.309804 0.772549 0.000000
0.352941 0.780392 0.000000
0.400000 0.776471 0.000000
0.450980 0.780392 0.003922
0.486275 0.780392 0.000000
0.525490 0.776471 0.003922
0.600000 0.745098 0.000000
0.643137 0.749020 0.000000
0.670588 0.745098 0.000000
0.709804 0.745098 0.003922
0.741176 0.745098 0.000000
0.764706 0.745098 0.000000
0.800000 0.741176 0.000000
0.827451 0.737255 0.000000
0.858824 0.737255 0.000000
0.886275 0.741176 0.000000
0.913725 0.737255 0.000000
0.941176 0.733333 0.000000
0.968627 0.725490 0.000000
1.000000 0.725490 0.000000
1.000000 0.725490 0.000000
0.000000 0.819608 0.000000
0.003922 0.815686 0.000000
0.000000 0.819608 0.000000
0.000000 0.819608 0.000000
0.027451 0.811765 0.000000
0.054902 0.815686 0.003922
0.086275 0.815686 0.000000
0.117647 0.811765 0.000000
0.156863 0.815686 0.000000
0.184314 0.811765 0.000000
0.223529 0.811765 0.000000
0.258824 0.807843 0.000000
0.301961 0.811765 0.000000
0.349020 0.811765 0.000000
0.392157 0.807843 0.000000
0.439216 0.807843 0.007843
0.482353 0.811765 0.003922
0.521569 0.807843 0.000000
0.560784 0.807843 0.000000
0.635294 0.768627 0.000000
0.678431 0.780392 0.000000
0.705882 0.768627 0.000000
0.741176 0.772549 0.003922
0.768627 0.776471 0.000000
0.800000 0.764706 0.000000
0.823529 0.768627 0.000000
0.862745 0.768627 0.000000
0.886275 0.768627 0.000000
0.909804 0.768627 0.000000
0.933333 0.772549 0.000000
0.980392 0.768627 0.000000
0.996078 0.768627 0.000000
0.996078 0.760784 0.000000
0.003922 0.850980 0.000000
0.000000 0.835294 0.000000
0.000000 0.839216 0.000000
0.000000 0.839216 0.000000
0.023529 0.843137 0.000000
0.050980 0.839216 0.000000
0.082353 0.839216 0.000000
0.113725 0.839216 0.000000
0.145098 0.839216 0.000000
0.176471 0.839216 0.000000
0.219608 0.843137 0.000000
0.254902 0.839216 0.000000
0.294118 0.839216 0.000000
0.349020 0.839216 0.000000
0.380392 0.831373 0.000000
0.419608 0.839216 0.000000
0.474510 0.839216 0.000000
0.517647 0.835294 0.000000
0.549020 0.831373 0.000000
0.643137 0.803922 0.000000
0.670588 0.800000 0.000000
0.709804 0.800000 0.000000
0.737255 0.796078 0.000000
0.768627 0.796078 0.000000
0.803922 0.803922 0.003922
0.827451 0.792157 0.003922
0.862745 0.796078 0.000000
0.882353 0.792157 0.000000
0.909804 0.788235 0.000000
0.937255 0.788235 0.000000
0.964706 0.788235 0.000000
0.996078 0.788235 0.000000
0.984314 0.784314 0.000000
0.000000 0.874510 0.000000
0.000000 0.874510 0.000000
0.000000 0.874510 0.000000
0.000000 0.874510 0.000000
0.019608 0.874510 0.000000
0.047059 0.870588 0.000000
0.082353 0.874510 0.003922
0.109804 0.882353 0.003922
0.149020 0.870588 0.000000
0.176471 0.866667 0.000000
0.215686 0.870588 0.000000
0.254902 0.870588 0.000000
0.290196 0.862745 0.000000
0.333333 0.870588 0.000000
0.376471 0.862745 0.000000
0.423529 0.870588 0.000000
0.474510 0.866667 0.000000
0.505882 0.866667 0.000000
0.541176 0.862745 0.000000
0.592157 0.866667 0.000000
0.623529 0.866667 0.000000
0.709804 0.839216 0.003922
0.741176 0.835294 0.003922
0.764706 0.831373 0.000000
0.803922 0.831373 0.000000
0.823529 0.827451 0.000000
0.858824 0.823529 0.000000
0.886275 0.823529 0.000000
