luts/Filmmic/Filmmic.cube
TITLE "Generated by LUMIX Lab"
#LUMIXPHOTOSTYLE NAT
LUT_3D_SIZE 5
0.003922 0.003922 0.003922
0.215686 0.007843 0.000000
0.537255 0.003922 0.000000
0.800000 0.015686 0.003922
0.996078 0.019608 0.000000
0.000000 0.243137 0.000000
0.215686 0.219608 0.000000
0.513726 0.231373 0.000000
0.772549 0.231373 0.000000
0.988235 0.223529 0.000000
0.007843 0.560784 0.000000
0.184314 0.552941 0.000000
0.537255 0.517647 0.000000
0.803922 0.501961 0.000000
0.988235 0.537255 0.000000
0.000000 0.819608 0.000000
0.156863 0.815686 0.000000
0.482353 0.811765 0.003922
0.800000 0.764706 0.000000
0.996078 0.760784 0.000000
0.000000 1.000000 0.003922
0.129412 1.000000 0.000000
0.450980 0.996078 0.000000
0.756863 0.996078 0.000000
0.996078 0.976471 0.000000
0.003922 0.000000 0.207843
0.219608 0.000000 0.207843
0.549020 0.000000 0.192157
0.807843 0.011765 0.184314
1.000000 0.007843 0.172549
0.000000 0.250980 0.203922
0.207843 0.227451 0.188235
0.533333 0.235294 0.196078
0.788235 0.243137 0.176471
1.000000 0.247059 0.172549
0.000000 0.580392 0.133333
0.168627 0.549020 0.160784
0.525490 0.529412 0.176471
0.768627 0.533333 0.200000
0.992157 0.537255 0.196078
0.000000 0.811765 0.145098
0.152941 0.815686 0.137255
0.474510 0.803922 0.129412
0.800000 0.772549 0.164706
0.996078 0.764706 0.168627
0.000000 0.996078 0.125490
0.125490 1.000000 0.117647
0.454902 1.000000 0.117647
0.749020 1.000000 0.098039
1.000000 0.984314 0.137255
0.000000 0.000000 0.478431
0.211765 0.000000 0.482353
0.545098 0.000000 0.505882
0.815686 0.000000 0.509804
1.000000 0.003922 0.474510
0.003922 0.239216 0.482353
0.211765 0.243137 0.482353
0.529412 0.223529 0.501961
0.803922 0.239216 0.474510
1.000000 0.239216 0.462745
0.003922 0.568627 0.513726
0.129412 0.556863 0.482353
0.509804 0.533333 0.470588
0.772549 0.533333 0.478431
1.000000 0.541176 0.458824
0.000000 0.847059 0.443137
0.070588 0.835294 0.419608
0.478431 0.803922 0.443137
0.780392 0.788235 0.454902
0.988235 0.796078 0.482353
0.000000 1.000000 0.380392
0.121569 1.000000 0.423529
0.458824 1.000000 0.415686
0.749020 1.000000 0.403922
0.996078 0.992157 0.427451
0.000000 0.000000 0.752941
0.215686 0.007843 0.760784
0.556863 0.000000 0.796078
0.815686 0.000000 0.792157
0.992157 0.000000 0.780392
0.000000 0.239216 0.752941
0.211765 0.235294 0.752941
0.509804 0.239216 0.752941
0.800000 0.219608 0.776471
1.000000 0.219608 0.780392
0.000000 0.564706 0.858824
0.215686 0.533333 0.756863
0.517647 0.533333 0.764706
0.780392 0.533333 0.764706
1.000000 0.537255 0.756863
0.000000 0.835294 0.803922
0.066667 0.823529 0.796078
0.419608 0.811765 0.764706
0.772549 0.796078 0.749020
0.996078 0.800000 0.749020
0.007843 0.996078 0.756863
0.023529 0.992157 0.729412
0.352941 1.000000 0.713726
0.749020 0.996078 0.725490
0.996078 1.000000 0.741176
0.000000 0.007843 0.976471
0.211765 0.003922 0.984314
0.517647 0.003922 0.984314
0.811765 0.000000 1.000000
1.000000 0.000000 0.992157
0.000000 0.239216 0.972549
0.211765 0.239216 0.984314
0.517647 0.239216 0.984314
0.803922 0.223529 1.000000
0.996078 0.219608 1.000000
0.000000 0.537255 0.980392
0.207843 0.537255 0.980392
0.513726 0.533333 0.980392
0.772549 0.537255 0.976471
1.000000 0.529412 1.000000
0.003922 0.831373 1.000000
0.058824 0.815686 1.000000
0.513726 0.800000 0.984314
0.764706 0.800000 0.984314
0.996078 0.792157 0.996078
0.000000 1.000000 1.000000
0.015686 0.996078 0.996078
0.356863 1.000000 1.000000
0.713726 0.996078 0.996078
0.992157 1.000000 0.980392
