luts/Filmmic/Filmmic.cube
TITLE "Generated by LUMIX Lab"
#LUMIXPHOTOSTYLE NAT
LUT_3D_SIZE 9
0.003922 0.003922 0.003922
0.098039 0.007843 0.000000
0.215686 0.007843 0.000000
0.376471 0.011765 0.000000
0.537255 0.003922 0.000000
0.682353 0.007843 0.000000
0.800000 0.015686 0.003922
0.917647 0.015686 0.000000
0.996078 0.019608 0.000000
0.000000 0.113725 0.000000
0.094118 0.101961 0.000000
0.215686 0.105882 0.003922
0.356863 0.109804 0.000000
0.513726 0.109804 0.000000
0.647059 0.109804 0.000000
0.780392 0.105882 0.000000
0.909804 0.113725 0.000000
1.000000 0.117647 0.000000
0.000000 0.243137 0.000000
0.074510 0.239216 0.000000
0.215686 0.219608 0.000000
0.372549 0.207843 0.000000
0.513726 0.231373 0.000000
0.647059 0.231373 0.000000
0.772549 0.231373 0.000000
0.882353 0.231373 0.000000
0.988235 0.223529 0.000000
0.003922 0.388235 0.000000
0.066667 0.392157 0.000000
0.192157 0.380392 0.000000
0.368627 0.356863 0.000000
0.549020 0.356863 0.007843
0.643137 0.376471 0.000000
0.776471 0.376471 0.000000
0.890196 0.384314 0.003922
0.992157 0.380392 0.000000
0.007843 0.560784 0.000000
0.054902 0.552941 0.000000
0.184314 0.552941 0.000000
0.333333 0.549020 0.000000
0.537255 0.517647 0.000000
0.682353 0.505882 0.000000
0.803922 0.501961 0.000000
0.882353 0.537255 0.000000
0.988235 0.537255 0.000000
0.000000 0.694118 0.000000
0.039216 0.694118 0.000000
0.160784 0.690196 0.000000
0.325490 0.686275 0.000000
0.537255 0.658824 0.000000
0.670588 0.650980 0.000000
0.807843 0.635294 0.000000
0.913725 0.643137 0.000000
0.992157 0.666667 0.000000
0.000000 0.819608 0.000000
0.027451 0.811765 0.000000
0.156863 0.815686 0.000000
0.301961 0.811765 0.000000
0.482353 0.811765 0.003922
0.678431 0.780392 0.000000
0.800000 0.764706 0.000000
0.909804 0.768627 0.000000
0.996078 0.760784 0.000000
0.000000 0.933333 0.000000
0.011765 0.933333 0.003922
0.141176 0.929412 0.000000
0.282353 0.929412 0.000000
0.458824 0.933333 0.000000
0.623529 0.913725 0.000000
0.792157 0.890196 0.000000
0.909804 0.882353 0.000000
0.996078 0.874510 0.000000
0.000000 1.000000 0.003922
0.003922 1.000000 0.000000
0.129412 1.000000 0.000000
0.278431 0.996078 0.000000
0.450980 0.996078 0.000000
0.603922 1.000000 0.000000
0.756863 0.996078 0.000000
0.909804 0.984314 0.000000
0.996078 0.976471 0.000000
0.003922 0.000000 0.078431
0.090196 0.000000 0.066667
0.223529 0.000000 0.078431
0.380392 0.003922 0.066667
0.552941 0.007843 0.066667
0.674510 0.007843 0.054902
0.811765 0.011765 0.062745
0.917647 0.007843 0.047059
1.000000 0.011765 0.054902
0.000000 0.113725 0.074510
0.086275 0.105882 0.074510
0.211765 0.109804 0.074510
0.368627 0.109804 0.070588
0.545098 0.121569 0.066667
0.674510 0.117647 0.062745
0.800000 0.113725 0.054902
0.913725 0.113725 0.054902
0.996078 0.113725 0.050980
0.000000 0.239216 0.062745
0.078431 0.239216 0.066667
0.211765 0.223529 0.070588
0.349020 0.223529 0.086275
0.517647 0.227451 0.066667
0.658824 0.227451 0.074510
0.772549 0.231373 0.070588
0.874510 0.227451 0.062745
0.980392 0.239216 0.066667
0.000000 0.392157 0.054902
0.058824 0.392157 0.050980
0.192157 0.392157 0.043137
0.364706 0.368627 0.058824
0.533333 0.360784 0.066667
0.650980 0.376471 0.078431
0.772549 0.372549 0.074510
0.882353 0.372549 0.074510
0.996078 0.380392 0.070588
0.000000 0.560784 0.039216
0.054902 0.556863 0.043137
0.180392 0.545098 0.039216
0.341176 0.549020 0.039216
0.529412 0.513726 0.039216
0.666667 0.517647 0.050980
0.776471 0.537255 0.074510
0.890196 0.529412 0.078431
0.996078 0.529412 0.074510
0.000000 0.694118 0.047059
0.035294 0.694118 0.031373
0.164706 0.690196 0.027451
0.325490 0.682353 0.019608
0.505882 0.678431 0.015686
0.670588 0.650980 0.039216
0.803922 0.643137 0.039216
0.917647 0.635294 0.054902
0.992157 0.666667 0.078431
0.000000 0.819608 0.007843
0.031373 0.815686 0.007843
0.160784 0.807843 0.007843
0.305882 0.803922 0.000000
0.478431 0.807843 0.007843
0.662745 0.784314 0.035294
0.792157 0.768627 0.039216
0.913725 0.764706 0.039216
1.000000 0.760784 0.043137
0.000000 0.933333 0.003922
0.015686 0.937255 0.000000
0.137255 0.929412 0.003922
0.282353 0.917647 0.000000
0.462745 0.929412 0.003922
0.627451 0.917647 0.003922
0.796078 0.890196 0.027451
0.901961 0.886275 0.019608
0.988235 0.882353 0.031373
0.000000 1.000000 0.003922
0.003922 1.000000 0.000000
0.129412 1.000000 0.000000
0.274510 1.000000 0.000000
0.450980 0.996078 0.003922
0.607843 1.000000 0.000000
0.756863 0.996078 0.003922
0.913725 0.976471 0.015686
0.996078 0.972549 0.015686
0.003922 0.000000 0.207843
0.086275 0.003922 0.188235
0.219608 0.000000 0.207843
0.380392 0.003922 0.207843
0.549020 0.000000 0.192157
0.686275 0.003922 0.188235
0.807843 0.011765 0.184314
0.921569 0.007843 0.180392
1.000000 0.007843 0.172549
0.000000 0.105882 0.196078
0.090196 0.105882 0.196078
0.223529 0.098039 0.188235
0.372549 0.109804 0.192157
0.541176 0.109804 0.192157
0.674510 0.113725 0.184314
0.807843 0.113725 0.176471
0.917647 0.117647 0.176471
0.996078 0.117647 0.172549
0.000000 0.250980 0.203922
0.054902 0.243137 0.196078
0.207843 0.227451 0.188235
0.360784 0.235294 0.200000
0.533333 0.235294 0.196078
0.670588 0.239216 0.180392
0.788235 0.243137 0.176471
0.905882 0.243137 0.168627
1.000000 0.247059 0.172549
0.000000 0.411765 0.176471
0.054902 0.396078 0.176471
0.192157 0.392157 0.184314
0.356863 0.372549 0.188235
0.513726 0.380392 0.196078
0.643137 0.372549 0.188235
0.760784 0.372549 0.192157
0.882353 0.376471 0.196078
0.992157 0.376471 0.192157
0.000000 0.580392 0.133333
0.047059 0.556863 0.164706
0.168627 0.549020 0.160784
0.333333 0.545098 0.160784
0.525490 0.529412 0.176471
0.662745 0.513726 0.172549
0.768627 0.533333 0.200000
0.878431 0.533333 0.196078
0.992157 0.537255 0.196078
0.000000 0.690196 0.149020
0.039216 0.690196 0.156863
0.164706 0.686275 0.149020
0.309804 0.678431 0.152941
0.505882 0.678431 0.149020
0.658824 0.658824 0.164706
0.796078 0.647059 0.164706
0.886275 0.674510 0.196078
0.992157 0.670588 0.196078
0.000000 0.811765 0.145098
0.015686 0.815686 0.145098
0.152941 0.815686 0.137255
0.298039 0.807843 0.133333
0.474510 0.803922 0.129412
0.631373 0.807843 0.121569
0.800000 0.772549 0.164706
0.901961 0.776471 0.152941
0.996078 0.764706 0.168627
0.000000 0.937255 0.133333
0.015686 0.933333 0.121569
0.129412 0.929412 0.125490
0.282353 0.925490 0.121569
0.462745 0.921569 0.113725
0.631373 0.917647 0.121569
0.792157 0.890196 0.141176
0.901961 0.890196 0.141176
1.000000 0.882353 0.145098
0.000000 0.996078 0.125490
0.000000 1.000000 0.109804
0.125490 1.000000 0.117647
0.274510 0.996078 0.117647
0.454902 1.000000 0.117647
0.615686 0.996078 0.098039
0.749020 1.000000 0.098039
0.894118 0.984314 0.129412
1.000000 0.984314 0.137255
0.003922 0.000000 0.337255
0.094118 0.000000 0.329412
0.219608 0.000000 0.349020
0.376471 0.003922 0.349020
0.549020 0.000000 0.341176
0.682353 0.000000 0.333333
0.819608 0.000000 0.321569
0.921569 0.007843 0.317647
0.996078 0.003922 0.305882
0.000000 0.105882 0.337255
0.082353 0.109804 0.329412
0.207843 0.105882 0.337255
0.368627 0.101961 0.341176
0.552941 0.105882 0.325490
0.674510 0.105882 0.321569
0.807843 0.117647 0.325490
0.913725 0.105882 0.301961
1.000000 0.113725 0.317647
0.000000 0.247059 0.388235
0.082353 0.231373 0.337255
0.215686 0.239216 0.333333
0.360784 0.235294 0.333333
0.537255 0.239216 0.325490
0.674510 0.243137 0.325490
0.800000 0.247059 0.317647
0.909804 0.243137 0.301961
1.000000 0.247059 0.294118
0.000000 0.407843 0.356863
0.023529 0.400000 0.337255
0.164706 0.396078 0.333333
0.356863 0.372549 0.321569
0.517647 0.376471 0.329412
0.658824 0.380392 0.317647
0.800000 0.392157 0.309804
0.905882 0.392157 0.305882
1.000000 0.388235 0.298039
0.003922 0.584314 0.309804
0.000000 0.564706 0.294118
0.180392 0.549020 0.305882
0.333333 0.537255 0.298039
0.513726 0.533333 0.317647
0.639216 0.529412 0.325490
0.768627 0.541176 0.337255
0.882353 0.549020 0.321569
0.984314 0.541176 0.329412
0.000000 0.721569 0.278431
0.003922 0.717647 0.270588
0.149020 0.682353 0.298039
0.313726 0.682353 0.290196
0.498039 0.678431 0.286275
0.654902 0.658824 0.298039
0.788235 0.658824 0.301961
0.878431 0.670588 0.325490
0.996078 0.666667 0.333333
0.000000 0.847059 0.250980
0.027451 0.819608 0.294118
0.145098 0.811765 0.278431
0.294118 0.803922 0.262745
0.478431 0.803922 0.254902
0.627451 0.803922 0.258824
0.784314 0.776471 0.286275
0.901961 0.776471 0.294118
0.992157 0.792157 0.325490
0.000000 0.929412 0.278431
0.007843 0.929412 0.266667
0.129412 0.929412 0.250980
0.282353 0.925490 0.262745
0.454902 0.921569 0.262745
0.615686 0.921569 0.243137
0.768627 0.909804 0.243137
0.894118 0.890196 0.278431
1.000000 0.890196 0.282353
0.000000 0.996078 0.258824
0.000000 0.996078 0.258824
0.125490 1.000000 0.250980
0.274510 1.000000 0.250980
0.450980 1.000000 0.231373
0.615686 1.000000 0.243137
0.749020 1.000000 0.239216
0.898039 0.992157 0.270588
0.996078 0.988235 0.270588
0.000000 0.000000 0.478431
0.086275 0.000000 0.478431
0.211765 0.000000 0.482353
0.380392 0.000000 0.509804
0.545098 0.000000 0.505882
0.686275 0.000000 0.509804
0.815686 0.000000 0.509804
0.925490 0.000000 0.478431
1.000000 0.003922 0.474510
0.000000 0.105882 0.478431
0.086275 0.105882 0.478431
0.211765 0.109804 0.482353
0.372549 0.101961 0.505882
0.541176 0.105882 0.494118
0.678431 0.094118 0.509804
0.803922 0.109804 0.478431
0.917647 0.113725 0.470588
0.996078 0.105882 0.474510
0.003922 0.239216 0.482353
0.090196 0.239216 0.486275
0.211765 0.243137 0.482353
0.349020 0.239216 0.482353
0.529412 0.223529 0.501961
0.670588 0.239216 0.478431
0.803922 0.239216 0.474510
0.913725 0.243137 0.470588
1.000000 0.239216 0.462745
0.000000 0.403922 0.556863
0.019608 0.396078 0.545098
0.207843 0.380392 0.478431
0.356863 0.376471 0.478431
0.525490 0.376471 0.482353
0.658824 0.384314 0.482353
0.788235 0.392157 0.470588
0.905882 0.380392 0.462745
0.996078 0.388235 0.458824
0.003922 0.568627 0.513726
0.000000 0.568627 0.501961
0.129412 0.556863 0.482353
0.298039 0.545098 0.478431
0.509804 0.533333 0.470588
0.650980 0.541176 0.482353
0.772549 0.533333 0.478431
0.901961 0.545098 0.466667
1.000000 0.541176 0.458824
0.000000 0.713726 0.478431
0.000000 0.705882 0.470588
0.101961 0.705882 0.454902
0.317647 0.682353 0.462745
0.494118 0.678431 0.458824
0.654902 0.666667 0.450980
0.780392 0.670588 0.478431
0.882353 0.670588 0.482353
0.996078 0.666667 0.478431
0.000000 0.847059 0.443137
0.007843 0.831373 0.427451
0.070588 0.835294 0.419608
0.301961 0.807843 0.447059
0.478431 0.803922 0.443137
0.635294 0.796078 0.435294
0.780392 0.788235 0.454902
0.898039 0.780392 0.450980
0.988235 0.796078 0.482353
0.000000 0.968627 0.403922
0.000000 0.960784 0.392157
0.137255 0.925490 0.439216
0.278431 0.921569 0.423529
0.466667 0.913725 0.419608
0.615686 0.917647 0.415686
0.760784 0.913725 0.415686
0.890196 0.894118 0.439216
1.000000 0.894118 0.450980
0.000000 1.000000 0.380392
0.000000 1.000000 0.423529
0.121569 1.000000 0.423529
0.270588 1.000000 0.423529
0.458824 1.000000 0.415686
0.603922 1.000000 0.396078
0.749020 1.000000 0.403922
0.890196 0.996078 0.427451
0.996078 0.992157 0.427451
0.000000 0.003922 0.623529
0.090196 0.003922 0.627451
0.211765 0.000000 0.623529
0.356863 0.000000 0.619608
0.545098 0.000000 0.647059
0.682353 0.000000 0.650980
0.815686 0.000000 0.643137
0.929412 0.000000 0.650980
0.996078 0.000000 0.647059
0.000000 0.105882 0.619608
0.090196 0.113725 0.631373
0.203922 0.113725 0.623529
0.360784 0.113725 0.627451
0.537255 0.105882 0.650980
0.674510 0.094118 0.658824
0.803922 0.094118 0.647059
0.917647 0.090196 0.647059
1.000000 0.109804 0.615686
0.000000 0.239216 0.619608
0.094118 0.235294 0.619608
0.211765 0.235294 0.627451
0.352941 0.235294 0.627451
0.525490 0.231373 0.639216
0.670588 0.235294 0.639216
0.803922 0.219608 0.627451
0.913725 0.231373 0.619608
0.996078 0.235294 0.619608
0.000000 0.380392 0.619608
0.094118 0.384314 0.623529
0.203922 0.376471 0.615686
0.352941 0.376471 0.627451
0.509804 0.376471 0.627451
0.658824 0.372549 0.635294
0.788235 0.372549 0.615686
0.913725 0.380392 0.623529
1.000000 0.384314 0.615686
0.000000 0.568627 0.682353
0.000000 0.556863 0.690196
0.137255 0.552941 0.670588
0.356863 0.529412 0.619608
0.521569 0.533333 0.623529
0.654902 0.529412 0.627451
0.780392 0.541176 0.627451
0.894118 0.537255 0.611765
0.996078 0.545098 0.611765
0.000000 0.713726 0.670588
0.000000 0.705882 0.647059
0.098039 0.698039 0.643137
0.270588 0.686275 0.631373
0.466667 0.682353 0.615686
0.650980 0.674510 0.619608
0.776471 0.662745 0.623529
0.882353 0.670588 0.623529
1.000000 0.674510 0.615686
0.000000 0.839216 0.631373
0.007843 0.843137 0.623529
0.070588 0.827451 0.607843
0.215686 0.823529 0.603922
0.478431 0.807843 0.619608
0.631373 0.796078 0.592157
0.772549 0.788235 0.603922
0.886275 0.796078 0.615686
1.000000 0.788235 0.623529
0.000000 0.956863 0.600000
0.000000 0.952941 0.584314
0.039216 0.949020 0.564706
0.192157 0.945098 0.572549
0.462745 0.917647 0.592157
0.611765 0.917647 0.576471
0.756863 0.913725 0.580392
0.894118 0.901961 0.592157
1.000000 0.898039 0.603922
0.000000 0.996078 0.564706
0.003922 1.000000 0.568627
0.007843 1.000000 0.549020
0.266667 1.000000 0.596078
0.450980 0.996078 0.576471
0.607843 1.000000 0.576471
0.749020 0.996078 0.584314
0.874510 0.996078 0.580392
1.000000 0.996078 0.572549
0.000000 0.000000 0.752941
0.082353 0.000000 0.752941
0.215686 0.007843 0.760784
0.352941 0.003922 0.749020
0.556863 0.000000 0.796078
0.682353 0.000000 0.792157
0.815686 0.000000 0.792157
0.929412 0.000000 0.792157
0.992157 0.000000 0.780392
0.000000 0.113725 0.749020
0.090196 0.109804 0.756863
0.207843 0.109804 0.756863
0.356863 0.109804 0.749020
0.517647 0.113725 0.760784
0.674510 0.101961 0.780392
0.811765 0.094118 0.784314
0.917647 0.098039 0.784314
0.996078 0.094118 0.780392
0.000000 0.239216 0.752941
0.086275 0.239216 0.752941
0.211765 0.235294 0.752941
0.356863 0.243137 0.760784
0.509804 0.239216 0.752941
0.666667 0.223529 0.772549
0.800000 0.219608 0.776471
0.917647 0.219608 0.776471
1.000000 0.219608 0.780392
0.000000 0.380392 0.752941
0.086275 0.380392 0.760784
0.211765 0.368627 0.756863
0.352941 0.380392 0.752941
0.509804 0.380392 0.752941
0.658824 0.372549 0.776471
0.796078 0.368627 0.772549
0.898039 0.372549 0.768627
0.996078 0.380392 0.752941
0.000000 0.564706 0.858824
0.086275 0.537255 0.752941
0.215686 0.533333 0.756863
0.345098 0.529412 0.749020
0.517647 0.533333 0.764706
0.643137 0.537255 0.752941
0.780392 0.533333 0.764706
0.898039 0.529412 0.780392
1.000000 0.537255 0.756863
0.000000 0.705882 0.827451
0.000000 0.698039 0.831373
0.094118 0.686275 0.807843
0.254902 0.682353 0.803922
0.517647 0.674510 0.760784
0.643137 0.666667 0.752941
0.780392 0.662745 0.749020
0.890196 0.674510 0.752941
1.000000 0.674510 0.752941
0.000000 0.835294 0.803922
0.000000 0.835294 0.788235
0.066667 0.823529 0.796078
0.215686 0.819608 0.772549
0.419608 0.811765 0.764706
0.607843 0.803922 0.752941
0.772549 0.796078 0.749020
0.874510 0.796078 0.745098
0.996078 0.800000 0.749020
0.000000 0.956863 0.772549
0.000000 0.956863 0.768627
0.039216 0.945098 0.756863
0.180392 0.941176 0.749020
0.380392 0.929412 0.737255
0.611765 0.917647 0.745098
0.764706 0.909804 0.733333
0.886275 0.905882 0.741176
0.988235 0.909804 0.756863
0.007843 0.996078 0.756863
0.000000 0.996078 0.745098
0.023529 0.992157 0.729412
0.156863 1.000000 0.721569
0.352941 1.000000 0.713726
0.607843 0.996078 0.729412
0.749020 0.996078 0.725490
0.874510 0.996078 0.713726
0.996078 1.000000 0.741176
0.000000 0.000000 0.862745
0.098039 0.003922 0.866667
0.211765 0.007843 0.870588
0.352941 0.003922 0.866667
0.513726 0.000000 0.862745
0.682353 0.000000 0.909804
0.807843 0.000000 0.909804
0.917647 0.000000 0.913725
1.000000 0.000000 0.909804
0.000000 0.109804 0.870588
0.086275 0.109804 0.870588
0.223529 0.109804 0.870588
0.352941 0.109804 0.866667
0.521569 0.117647 0.874510
0.674510 0.094118 0.909804
0.815686 0.094118 0.901961
0.917647 0.094118 0.905882
1.000000 0.090196 0.909804
0.000000 0.235294 0.862745
0.098039 0.231373 0.870588
0.207843 0.235294 0.870588
0.352941 0.243137 0.874510
0.509804 0.239216 0.854902
0.658824 0.239216 0.874510
0.792157 0.219608 0.898039
0.909804 0.219608 0.905882
1.000000 0.215686 0.898039
0.000000 0.376471 0.862745
0.090196 0.376471 0.866667
0.207843 0.376471 0.870588
0.352941 0.376471 0.870588
0.509804 0.376471 0.870588
0.643137 0.376471 0.866667
0.788235 0.364706 0.890196
0.905882 0.364706 0.894118
1.000000 0.360784 0.890196
0.000000 0.537255 0.866667
0.094118 0.533333 0.870588
0.211765 0.541176 0.878431
0.349020 0.533333 0.862745
0.521569 0.533333 0.858824
0.643137 0.533333 0.870588
0.772549 0.525490 0.890196
0.901961 0.521569 0.886275
1.000000 0.525490 0.882353
0.000000 0.701961 0.984314
0.000000 0.690196 0.976471
0.211765 0.674510 0.870588
0.349020 0.670588 0.874510
0.517647 0.666667 0.866667
0.647059 0.670588 0.866667
0.768627 0.674510 0.870588
0.886275 0.666667 0.874510
1.000000 0.658824 0.878431
0.003922 0.831373 0.952941
0.007843 0.823529 0.949020
0.070588 0.811765 0.929412
0.223529 0.807843 0.921569
0.411765 0.811765 0.913725
0.658824 0.800000 0.878431
0.776471 0.796078 0.866667
0.886275 0.792157 0.878431
0.996078 0.800000 0.882353
0.000000 0.949020 0.917647
0.000000 0.949020 0.909804
0.039216 0.937255 0.909804
0.184314 0.937255 0.901961
0.380392 0.925490 0.890196
0.552941 0.929412 0.874510
0.725490 0.913725 0.874510
0.874510 0.905882 0.862745
0.996078 0.898039 0.866667
0.000000 1.000000 0.898039
0.000000 1.000000 0.890196
0.007843 1.000000 0.874510
0.152941 1.000000 0.862745
0.341176 1.000000 0.854902
0.533333 1.000000 0.858824
0.741176 0.996078 0.862745
0.866667 1.000000 0.858824
0.996078 0.996078 0.862745
0.000000 0.007843 0.976471
0.086275 0.007843 0.984314
0.211765 0.003922 0.984314
0.352941 0.007843 0.980392
0.517647 0.003922 0.984314
0.650980 0.003922 0.980392
0.811765 0.000000 1.000000
0.921569 0.000000 1.000000
1.000000 0.000000 0.992157
0.003922 0.113725 0.976471
0.090196 0.113725 0.984314
0.207843 0.113725 0.984314
0.356863 0.109804 0.988235
0.513726 0.113725 0.984314
0.647059 0.113725 0.984314
0.807843 0.094118 0.992157
0.917647 0.098039 1.000000
1.000000 0.090196 1.000000
0.000000 0.239216 0.972549
0.090196 0.235294 0.980392
0.211765 0.239216 0.984314
0.349020 0.235294 0.980392
0.517647 0.239216 0.984314
0.647059 0.239216 0.980392
0.803922 0.223529 1.000000
0.913725 0.219608 1.000000
0.996078 0.219608 1.000000
0.000000 0.376471 0.976471
0.082353 0.380392 0.976471
0.200000 0.380392 0.976471
0.349020 0.376471 0.980392
0.509804 0.380392 0.980392
0.643137 0.380392 0.988235
0.764706 0.376471 0.980392
0.901961 0.368627 0.996078
1.000000 0.368627 1.000000
0.000000 0.537255 0.980392
0.090196 0.537255 0.980392
0.207843 0.537255 0.980392
0.349020 0.537255 0.984314
0.513726 0.533333 0.980392
0.647059 0.533333 0.980392
0.772549 0.537255 0.976471
0.901961 0.525490 1.000000
1.000000 0.529412 1.000000
0.000000 0.670588 0.984314
0.086275 0.670588 0.984314
0.207843 0.666667 0.984314
0.352941 0.670588 0.984314
0.509804 0.670588 0.984314
0.643137 0.670588 0.980392
0.772549 0.670588 0.980392
0.894118 0.658824 0.996078
1.000000 0.662745 0.996078
0.003922 0.831373 1.000000
0.000000 0.819608 0.996078
0.058824 0.815686 1.000000
0.352941 0.796078 0.976471
0.513726 0.800000 0.984314
0.643137 0.796078 0.980392
0.764706 0.800000 0.984314
0.882353 0.800000 0.976471
0.996078 0.792157 0.996078
0.000000 0.949020 0.996078
0.000000 0.937255 1.000000
0.035294 0.933333 1.000000
0.188235 0.929412 1.000000
0.376471 0.921569 0.996078
0.564706 0.909804 1.000000
0.768627 0.905882 0.984314
0.874510 0.909804 0.984314
0.996078 0.901961 0.988235
0.000000 1.000000 1.000000
0.000000 1.000000 1.000000
0.015686 0.996078 0.996078
0.160784 1.000000 0.996078
0.356863 1.000000 1.000000
0.537255 1.000000 0.992157
0.713726 0.996078 0.996078
0.850980 0.996078 0.980392
0.992157 1.000000 0.980392
