luts/backlight.cube
TITLE "Generated by Resolve"
#LUMIXPHOTOSTYLE NAT
LUT_3D_SIZE 33
0 0.0422675 0.096376
0 0.0415351 0.0941939
0 0.0386511 0.0923476
0.0211337 0.0370184 0.0879988
0.0603189 0.0343938 0.0839857
0.0962539 0.0329442 0.0815137
0.130602 0.0339361 0.0789654
0.161318 0.0345922 0.0766613
0.190524 0.0363012 0.0747539
0.219516 0.0381933 0.0731365
0.248783 0.0403754 0.0715801
0.277852 0.0421759 0.0699626
0.306523 0.0438087 0.0680858
0.335561 0.0459449 0.0663767
0.365316 0.0480812 0.0649119
0.395926 0.049958 0.0634928
0.427207 0.0512703 0.0614939
0.457252 0.0532235 0.0562142
0.489403 0.0545815 0.0550088
0.521187 0.055848 0.0528115
0.554482 0.0567788 0.050782
0.588037 0.0579995 0.0490578
0.620554 0.0583658 0.0470588
0.653193 0.0595865 0.0448157
0.683101 0.0605783 0.0424353
0.712413 0.0622416 0.0407111
0.741573 0.0630655 0.0382696
0.770123 0.0639048 0.0356146
0.798276 0.0653239 0.034226
0.825086 0.0675517 0.0324407
0.849729 0.0702831 0.0310674
0.872648 0.0727245 0.0298619
0.89482 0.0753948 0.0291295
0 0.0771496 0.099733
0 0.0721294 0.105638
0 0.0703441 0.103319
0.0335546 0.0678416 0.0990463
0.0686198 0.0683604 0.0940108
0.106554 0.0673075 0.0898299
0.139574 0.0674449 0.0866865
0.171145 0.0689708 0.0848554
0.20148 0.0708019 0.0834974
0.23125 0.0734264 0.0822461
0.261311 0.0757763 0.0808728
0.289815 0.0780652 0.078172
0.318776 0.0799268 0.0761425
0.347631 0.0817426 0.07393
0.377859 0.0839246 0.0726177
0.409323 0.0857557 0.0707561
0.441077 0.0878157 0.0687419
0.472816 0.0892805 0.066453
0.503578 0.0903639 0.0638743
0.535317 0.091371 0.0615854
0.568063 0.0923629 0.0593576
0.601923 0.0935988 0.0571908
0.634775 0.0940719 0.0553597
0.666941 0.0946059 0.0528115
0.695994 0.0950942 0.0502937
0.724971 0.0964218 0.0482338
0.752697 0.0979782 0.0467536
0.77818 0.0996414 0.0452583
0.802594 0.102449 0.0441901
0.825879 0.10515 0.0430915
0.848417 0.108431 0.0424659
0.869535 0.111971 0.0420691
0.889113 0.116289 0.0422827
0 0.114305 0.104753
0 0.108751 0.10248
0.011017 0.10248 0.115297
0.0449226 0.0994125 0.112184
0.0777752 0.0986801 0.104997
0.1131 0.0962844 0.0975204
0.14815 0.0963607 0.0948348
0.178073 0.099382 0.0918898
0.206241 0.102754 0.0888685
0.235798 0.105791 0.0869764
0.266346 0.10811 0.0854505
0.297261 0.111055 0.0841688
0.327504 0.113375 0.0826276
0.357351 0.115236 0.080827
0.387976 0.116823 0.079118
0.420142 0.119265 0.0772717
0.453391 0.122194 0.0760204
0.485603 0.124163 0.0744793
0.517784 0.125795 0.0727703
0.551339 0.127047 0.0709087
0.585641 0.128023 0.0683909
0.619989 0.128969 0.0658579
0.651804 0.129671 0.0634165
0.680446 0.130694 0.0611429
0.707652 0.132738 0.0598306
0.732998 0.134386 0.0586557
0.75816 0.136934 0.057496
0.781796 0.139605 0.0564431
0.804028 0.143038 0.0559701
0.824842 0.146975 0.0560159
0.843702 0.151049 0.0561837
0.863035 0.155993 0.0570077
0.881895 0.160662 0.0575113
0 0.152224 0.109758
0 0.146685 0.105684
0.021088 0.136034 0.10695
0.0607156 0.128832 0.123934
0.0838178 0.130068 0.118593
0.118288 0.128679 0.107881
0.153246 0.126009 0.103563
0.182757 0.124849 0.0992599
0.212482 0.126375 0.0966964
0.242267 0.130373 0.0943465
0.271199 0.134234 0.0916609
0.298848 0.137484 0.0887617
0.328222 0.140963 0.086244
0.360082 0.145144 0.0849317
0.393072 0.148638 0.0836042
0.427192 0.151873 0.0821088
0.460945 0.154665 0.0810407
0.495628 0.157122 0.079469
0.530175 0.159686 0.077821
0.565011 0.162249 0.0767834
0.597925 0.163851 0.0755169
0.628962 0.165148 0.0739147
0.658824 0.166964 0.0725567
0.685725 0.169421 0.0715496
0.711406 0.172229 0.0708629
0.735485 0.174792 0.0704051
0.757473 0.178073 0.0702983
0.779187 0.182528 0.0710155
0.800015 0.187152 0.0716106
0.820951 0.191989 0.0723278
0.840894 0.196765 0.0733501
0.858457 0.203128 0.0748913
0.876432 0.209659 0.0769665
0 0.19028 0.113558
0 0.184115 0.108873
0.0203555 0.172457 0.107576
0.0645151 0.164508 0.104204
0.0992599 0.157321 0.126772
0.121477 0.158419 0.122057
0.153445 0.157229 0.112215
0.187778 0.155627 0.107347
0.219089 0.153323 0.106294
0.24596 0.153643 0.10277
0.272053 0.155016 0.0982071
0.301793 0.15848 0.0955215
0.334081 0.163348 0.0938582
0.365316 0.168093 0.0918135
0.396124 0.17319 0.0888838
0.42977 0.178622 0.0867933
0.464195 0.184085 0.0856184
0.498924 0.190005 0.0852064
0.532662 0.194659 0.084535
0.566873 0.198291 0.0842756
0.599619 0.201785 0.0840314
0.630304 0.204425 0.0831922
0.659007 0.207462 0.082887
0.683955 0.210941 0.0836957
0.707027 0.214328 0.0842145
0.730755 0.218433 0.0848554
0.753933 0.222797 0.0857862
0.775174 0.227924 0.0870527
0.795254 0.233341 0.0890974
0.815152 0.2392 0.0910506
0.836332 0.245518 0.0927901
0.858701 0.251804 0.0944686
0.881254 0.258503 0.0958877
0 0.227756 0.115557
0 0.221866 0.110445
0.0168154 0.210437 0.1084
0.0616312 0.200641 0.104417
0.103593 0.19266 0.0998398
0.136034 0.184329 0.12842
0.157107 0.186099 0.125292
0.185641 0.185504 0.116823
0.217731 0.184604 0.110811
0.250614 0.182101 0.109819
0.280995 0.181643 0.108354
0.306966 0.181872 0.104509
0.333608 0.183261 0.100023
0.363363 0.186618 0.096849
0.396933 0.192569 0.095964
0.43212 0.199283 0.0957198
0.465232 0.206989 0.0957504
0.496132 0.213916 0.0944381
0.527947 0.221637 0.0942092
0.559228 0.228717 0.0943618
0.59144 0.236057 0.0954299
0.622751 0.242313 0.0963149
0.652689 0.248066 0.0973068
0.679652 0.253361 0.0983444
0.703914 0.258808 0.0999924
0.727108 0.264988 0.102434
0.750027 0.270176 0.104158
0.774029 0.276081 0.105745
0.798657 0.282368 0.107332
0.822736 0.288579 0.108522
0.846677 0.295476 0.110506
0.87068 0.303456 0.113207
0.895155 0.31223 0.116548
0 0.266117 0.116991
0 0.258381 0.110491
0.00978103 0.246891 0.107729
0.0548409 0.236942 0.104326
0.0997635 0.227863 0.0971695
0.139834 0.221271 0.0945602
0.170489 0.211994 0.129671
0.189578 0.213825 0.127062
0.215457 0.214405 0.120165
0.245975 0.213825 0.114672
0.278279 0.21265 0.110506
0.310445 0.210758 0.111208
0.337881 0.210269 0.109285
0.364462 0.211841 0.107301
0.390829 0.212924 0.104158
0.419791 0.216007 0.101976
0.451621 0.222019 0.102159
0.486412 0.231617 0.104479
0.5205 0.241657 0.10695
0.553674 0.251225 0.108812
0.584604 0.259998 0.109728
0.613672 0.268681 0.111101
0.641718 0.277409 0.112566
0.67126 0.286946 0.115145
0.698329 0.294911 0.116609
0.726635 0.30338 0.118502
0.755642 0.312795 0.121141
0.782361 0.320897 0.123262
0.809873 0.330602 0.126802
0.835996 0.33959 0.130175
0.861906 0.349111 0.13341
0.886854 0.358679 0.137072
0.910918 0.367498 0.140444
0 0.302052 0.116518
0 0.295171 0.110567
0.00274662 0.28394 0.106828
0.047837 0.27364 0.103243
0.0923323 0.264225 0.0940566
0.13492 0.255116 0.0899062
0.17322 0.250233 0.0880446
0.202106 0.239918 0.130877
0.220066 0.242084 0.130236
0.24303 0.24239 0.125002
0.271946 0.242664 0.120043
0.301961 0.242344 0.115358
0.334142 0.241276 0.114275
0.363577 0.240314 0.115541
0.390158 0.241276 0.115175
0.416327 0.242817 0.113817
0.443641 0.245319 0.113069
0.471473 0.248722 0.113146
0.500755 0.254871 0.114397
0.533776 0.264454 0.11754
0.571481 0.276997 0.122164
0.608026 0.28925 0.125841
0.642725 0.300481 0.128222
0.674022 0.310811 0.129793
0.701656 0.320729 0.13106
0.729717 0.331319 0.133104
0.758633 0.34255 0.135622
0.788174 0.355337 0.140047
0.817029 0.368063 0.144686
0.845289 0.380011 0.149233
0.872816 0.392584 0.154314
0.898543 0.40351 0.158892
0.923613 0.413962 0.162844
0 0.339635 0.115526
0 0.332189 0.10927
0 0.321584 0.105409
0.040177 0.30985 0.101762
0.0851911 0.299825 0.0932479
0.128786 0.290166 0.0874037
0.169345 0.282872 0.085359
0.205173 0.278202 0.0865339
0.23035 0.267308 0.134112
0.248356 0.269993 0.135531
0.269841 0.27071 0.131579
0.29633 0.271412 0.127718
0.324941 0.271855 0.124178
0.354391 0.272419 0.121172
0.385504 0.272023 0.122271
0.414572 0.272847 0.124727
0.440131 0.274342 0.125048
0.467842 0.277028 0.125231
0.495094 0.279576 0.124987
0.52372 0.283299 0.125032
0.556207 0.28925 0.125704
0.591989 0.298833 0.128527
0.631632 0.312352 0.133501
0.671412 0.327901 0.139849
0.705425 0.342596 0.145373
0.738048 0.357107 0.150362
0.76762 0.370092 0.15404
0.7953 0.382498 0.157305
0.822904 0.395346 0.161089
0.850004 0.408103 0.165133
0.876463 0.420523 0.169726
0.903899 0.433921 0.17499
0.9299 0.446632 0.180682
0 0.376623 0.113939
0 0.368185 0.108553
0 0.356649 0.104463
0.0351263 0.345174 0.102617
0.081117 0.334142 0.0951247
0.123812 0.324498 0.0869764
0.165499 0.315953 0.0849165
0.202731 0.310872 0.0845197
0.235981 0.306325 0.0909133
0.259159 0.29546 0.140536
0.276204 0.298329 0.143511
0.296635 0.299901 0.141329
0.320836 0.301091 0.13814
0.348272 0.302647 0.135943
0.376654 0.304173 0.13254
0.406989 0.304921 0.130495
0.439872 0.30631 0.132265
0.470115 0.307683 0.133822
0.498009 0.309957 0.134401
0.525933 0.31281 0.134646
0.555779 0.316243 0.134951
0.586038 0.319844 0.135424
0.619135 0.326863 0.137194
0.654612 0.336721 0.14078
0.691539 0.350988 0.147127
0.729183 0.369162 0.155673
0.766033 0.387625 0.164324
0.799832 0.405188 0.172152
0.83003 0.419837 0.178225
0.857725 0.433707 0.183078
0.882948 0.445808 0.18645
0.90837 0.45864 0.190524
0.932784 0.47126 0.194736
0 0.410224 0.113695
0 0.401694 0.109285
0 0.389838 0.106279
0.0350195 0.377783 0.104616
0.0818494 0.36614 0.0984054
0.123507 0.357641 0.0898146
0.164187 0.34902 0.0865492
0.201877 0.342977 0.0864881
0.235172 0.339727 0.0879835
0.267613 0.334951 0.100374
0.289158 0.325124 0.150408
0.30547 0.32845 0.154482
0.325734 0.33106 0.152834
0.348424 0.332433 0.149126
0.376165 0.335149 0.146517
0.406455 0.337835 0.143938
0.436591 0.339834 0.140658
0.468681 0.34165 0.139971
0.500755 0.343572 0.142123
0.53225 0.346868 0.144991
0.56202 0.349798 0.14609
0.591745 0.353063 0.146777
0.621469 0.356832 0.147524
0.651759 0.361227 0.148547
0.683589 0.369024 0.151522
0.715282 0.379858 0.156344
0.749874 0.394369 0.162737
0.786084 0.412467 0.172457
0.821515 0.430961 0.182101
0.855131 0.449363 0.191608
0.885527 0.466728 0.199649
0.913573 0.482353 0.206241
0.93872 0.495979 0.211093
0 0.439841 0.115785
0 0.431617 0.112779
0 0.420417 0.11017
0.0402228 0.409674 0.109316
0.0876326 0.398093 0.103807
0.127306 0.389441 0.095079
0.166766 0.382239 0.0906996
0.203403 0.37702 0.0897383
0.236179 0.373571 0.0903487
0.267628 0.371313 0.0905776
0.299351 0.365881 0.108034
0.320974 0.357733 0.15967
0.337728 0.362081 0.165408
0.358633 0.36611 0.164538
0.380484 0.367773 0.161593
0.408698 0.371176 0.159533
0.439307 0.374746 0.157687
0.471214 0.378439 0.155062
0.502617 0.381399 0.152956
0.535836 0.384253 0.154192
0.569314 0.386877 0.156909
0.601434 0.390875 0.159457
0.632319 0.394888 0.161791
0.661036 0.398413 0.162692
0.688716 0.402823 0.163653
0.715114 0.407126 0.165362
0.743252 0.41445 0.167865
0.773175 0.424292 0.172305
0.804959 0.437446 0.17879
0.83769 0.453361 0.18703
0.87129 0.471839 0.197024
0.903273 0.491112 0.207477
0.934417 0.510414 0.217655
0 0.468818 0.119585
0 0.460105 0.117067
0.00239567 0.449668 0.116136
0.0492409 0.439216 0.114519
0.0947127 0.429725 0.108919
0.131746 0.423484 0.0998703
0.168353 0.417365 0.093904
0.204074 0.412009 0.0915236
0.237766 0.408621 0.0922103
0.27013 0.406409 0.0930648
0.302251 0.405997 0.094255
0.335058 0.400946 0.118791
0.357214 0.39501 0.172564
0.37496 0.400076 0.18027
0.39765 0.405783 0.180987
0.419959 0.407797 0.178347
0.447242 0.411643 0.176608
0.478019 0.415549 0.175036
0.510292 0.419715 0.172946
0.542657 0.423651 0.171069
0.576257 0.427024 0.170443
0.60914 0.42916 0.171618
0.641489 0.43238 0.174487
0.670115 0.435355 0.176181
0.696117 0.438987 0.177249
0.722164 0.443076 0.178576
0.747646 0.446799 0.179675
0.772625 0.451255 0.180697
0.79884 0.458091 0.183017
0.826535 0.467674 0.187488
0.854994 0.479057 0.193149
0.88452 0.493355 0.200351
0.915663 0.510872 0.209949
0 0.49865 0.125444
0 0.491783 0.122438
0.00830091 0.482704 0.120684
0.0551919 0.47454 0.119768
0.100771 0.465324 0.114015
0.138048 0.459541 0.10634
0.172763 0.454185 0.0991989
0.207828 0.449348 0.0960098
0.24213 0.446082 0.0960403
0.275608 0.444465 0.0977646
0.308324 0.443656 0.0986343
0.340185 0.443992 0.100572
0.37554 0.439689 0.134463
0.39884 0.435691 0.189868
0.41799 0.441459 0.19968
0.441489 0.447379 0.200702
0.463127 0.450126 0.198672
0.489189 0.453483 0.196262
0.519554 0.457832 0.194934
0.552438 0.462196 0.193042
0.583856 0.465187 0.189899
0.61593 0.468666 0.187945
0.646998 0.470909 0.187472
0.676112 0.473716 0.188113
0.70161 0.476158 0.18909
0.727581 0.479454 0.190921
0.752865 0.482658 0.191836
0.777554 0.486275 0.192981
0.802518 0.491188 0.194842
0.825818 0.495491 0.195682
0.849836 0.50103 0.197803
0.875212 0.509316 0.201556
0.901152 0.519966 0.20618
0 0.533989 0.129824
0 0.528084 0.127489
0.0156252 0.519768 0.126635
0.0623331 0.511894 0.125948
0.1084 0.503624 0.121248
0.147021 0.498711 0.114672
0.181094 0.494804 0.106981
0.216648 0.490608 0.103624
0.249836 0.487785 0.102785
0.283116 0.485634 0.104036
0.316701 0.484962 0.105821
0.34963 0.485695 0.10779
0.382605 0.486625 0.11014
0.419211 0.48159 0.150988
0.443458 0.47808 0.209125
0.462791 0.484016 0.220874
0.484962 0.489921 0.221988
0.507301 0.493004 0.220325
0.530983 0.494682 0.216846
0.560525 0.498466 0.215061
0.592874 0.503227 0.213306
0.623209 0.50634 0.209796
0.652644 0.509071 0.206409
0.679408 0.511391 0.203525
0.705425 0.513573 0.201755
0.731151 0.515969 0.202029
0.755627 0.51873 0.20264
0.779934 0.522454 0.203571
0.804013 0.52607 0.204776
0.827817 0.530205 0.206119
0.851194 0.534234 0.208057
0.873549 0.538613 0.209339
0.895842 0.543954 0.210925
0 0.573877 0.13666
0 0.568444 0.134997
0.0261234 0.561135 0.134966
0.0724193 0.553368 0.134279
0.120089 0.546654 0.130861
0.160296 0.542535 0.125719
0.19411 0.539147 0.118196
0.228367 0.535546 0.113695
0.260288 0.532403 0.112062
0.2934 0.530083 0.112367
0.32694 0.528496 0.114
0.359503 0.528405 0.115648
0.392279 0.528191 0.11725
0.425147 0.528786 0.120058
0.463981 0.523629 0.169345
0.486778 0.519814 0.228733
0.505501 0.525704 0.241794
0.528344 0.531838 0.243091
0.551064 0.535821 0.24181
0.573343 0.536736 0.237675
0.599802 0.539361 0.234516
0.62916 0.543069 0.231968
0.65832 0.546456 0.228824
0.68426 0.549065 0.224506
0.709224 0.550912 0.220325
0.733745 0.553231 0.21709
0.75761 0.555764 0.214786
0.780896 0.558526 0.214038
0.80383 0.561898 0.214374
0.827497 0.566262 0.215717
0.850431 0.570489 0.216861
0.873335 0.574258 0.218296
0.895384 0.578195 0.219867
0 0.617258 0.145449
0 0.613016 0.144533
0.0391089 0.606912 0.145113
0.087892 0.600702 0.146029
0.134676 0.593683 0.142565
0.174792 0.589303 0.137896
0.208667 0.586206 0.130785
0.241093 0.583215 0.125139
0.272114 0.579431 0.12256
0.303868 0.576364 0.121843
0.336202 0.573983 0.122438
0.368597 0.572106 0.123095
0.40119 0.571145 0.124224
0.433799 0.571145 0.12604
0.467796 0.571298 0.130709
0.505974 0.565042 0.186572
0.529763 0.562463 0.248432
0.548089 0.567483 0.262516
0.569802 0.573327 0.263722
0.592065 0.577401 0.262608
0.611734 0.577203 0.25745
0.636683 0.579934 0.254246
0.662608 0.583062 0.250751
0.68777 0.585351 0.246571
0.712688 0.587182 0.241581
0.737118 0.589578 0.236789
0.761379 0.592233 0.233051
0.783627 0.594247 0.229313
0.805768 0.597635 0.227283
0.827436 0.60145 0.226459
0.849256 0.605982 0.226322
0.871397 0.610407 0.227573
0.893004 0.614282 0.228428
0 0.661646 0.15581
0.00535592 0.658549 0.15552
0.053254 0.652705 0.156344
0.10164 0.646845 0.157
0.148989 0.640238 0.154467
0.188815 0.635569 0.149599
0.223804 0.632868 0.143511
0.254398 0.630259 0.137057
0.283833 0.626215 0.13312
0.313741 0.621973 0.130816
0.345785 0.619165 0.130724
0.377035 0.615625 0.130907
0.409339 0.613855 0.131594
0.441901 0.612604 0.132631
0.475395 0.612741 0.134127
0.508751 0.611811 0.141253
0.54815 0.605951 0.203754
0.571008 0.602655 0.267399
0.588663 0.607736 0.282277
0.609812 0.613809 0.28397
0.629847 0.616922 0.282109
0.648096 0.616968 0.277348
0.66775 0.617639 0.272435
0.692042 0.620325 0.26865
0.716152 0.622568 0.264759
0.740703 0.624979 0.259907
0.764309 0.626688 0.254505
0.786877 0.629007 0.249363
0.808469 0.631571 0.245136
0.83032 0.635233 0.242115
0.851377 0.639551 0.240558
0.871626 0.643534 0.239948
0.891798 0.647593 0.239338
0 0.703578 0.167147
0.0182345 0.699992 0.166812
0.0656138 0.694163 0.167163
0.113725 0.68809 0.167758
0.162402 0.682795 0.165682
0.20235 0.678584 0.161624
0.23714 0.675181 0.155612
0.267109 0.672908 0.148531
0.295491 0.669673 0.143801
0.324117 0.665263 0.140414
0.354498 0.661387 0.138872
0.385397 0.657649 0.138582
0.417365 0.654444 0.138521
0.449729 0.652811 0.139391
0.48191 0.651286 0.140002
0.514168 0.650248 0.141329
0.548562 0.648539 0.151415
0.587076 0.642603 0.220783
0.60943 0.640162 0.285283
0.625696 0.644373 0.30074
0.644739 0.649424 0.302235
0.663401 0.653422 0.301823
0.679454 0.653071 0.296315
0.697536 0.652979 0.290196
0.719463 0.654902 0.286091
0.742779 0.657252 0.281895
0.766583 0.659678 0.277134
0.789563 0.661585 0.272251
0.811963 0.663615 0.267018
0.832975 0.665751 0.262119
0.85417 0.669245 0.258625
0.875029 0.673396 0.256596
0.894606 0.677134 0.254719
0 0.742702 0.17789
0.0303197 0.739391 0.177371
0.0780194 0.734127 0.178302
0.125612 0.72755 0.178485
0.173037 0.72105 0.176104
0.213184 0.716945 0.172061
0.248585 0.713176 0.166964
0.278279 0.710628 0.159579
0.30576 0.707897 0.153948
0.334051 0.704021 0.150118
0.363333 0.699641 0.147372
0.393545 0.695735 0.14612
0.424414 0.691371 0.145449
0.456992 0.688991 0.145968
0.48896 0.68661 0.146334
0.521782 0.685435 0.147204
0.553948 0.684413 0.148516
0.588312 0.681743 0.163943
0.624659 0.675853 0.237644
0.644587 0.673609 0.302678
0.659297 0.677699 0.320394
0.676463 0.682414 0.321721
0.694453 0.68603 0.320714
0.710506 0.685939 0.315511
0.726543 0.685039 0.308614
0.74641 0.686366 0.303502
0.7691 0.688655 0.299351
0.790814 0.690532 0.294408
0.813245 0.692638 0.28925
0.834852 0.694347 0.284245
0.856214 0.696956 0.279515
0.877241 0.700694 0.276005
0.897612 0.704372 0.272801
0.00108339 0.781659 0.188922
0.0426032 0.777768 0.188373
0.0886702 0.77229 0.188952
0.135454 0.765347 0.188952
0.181888 0.758328 0.18616
0.22356 0.754421 0.182742
0.259251 0.7505 0.177966
0.288762 0.747341 0.170779
0.315328 0.744762 0.164111
0.342535 0.741131 0.159182
0.371893 0.737133 0.156298
0.40116 0.732265 0.15378
0.432471 0.728786 0.153414
0.463828 0.725307 0.153017
0.4963 0.722408 0.152956
0.528923 0.720592 0.153597
0.560525 0.718578 0.153826
0.592905 0.717678 0.155291
0.625971 0.714168 0.175677
0.657618 0.707973 0.253849
0.676234 0.705989 0.320363
0.689921 0.70927 0.338766
0.706386 0.713893 0.340246
0.724193 0.717769 0.339895
0.73959 0.718074 0.335195
0.753857 0.716487 0.327184
0.771481 0.716655 0.320455
0.792676 0.718746 0.316243
0.814084 0.720913 0.311818
0.835645 0.722957 0.306188
0.856519 0.724437 0.300587
0.877821 0.727459 0.296132
0.898878 0.731411 0.292866
0.0132601 0.818921 0.200366
0.0534371 0.81471 0.19942
0.098497 0.808988 0.199603
0.145068 0.80206 0.199634
0.191592 0.795148 0.197375
0.232349 0.790127 0.19321
0.267903 0.785855 0.187991
0.298619 0.782406 0.181552
0.325521 0.780255 0.17496
0.351247 0.776593 0.168658
0.380072 0.772824 0.16524
0.409522 0.768582 0.162509
0.440009 0.764416 0.160754
0.471061 0.760433 0.160281
0.503548 0.757168 0.159869
0.535439 0.754406 0.159976
0.567987 0.752956 0.160769
0.59971 0.751415 0.161379
0.629648 0.750103 0.16257
0.659068 0.745418 0.188251
0.688518 0.738705 0.270939
0.706523 0.736629 0.337758
0.719509 0.739834 0.358129
0.735653 0.744747 0.360113
0.751537 0.747616 0.359075
0.766537 0.748394 0.35465
0.780255 0.746624 0.345983
0.796109 0.74609 0.33843
0.815335 0.747555 0.33315
0.836316 0.749706 0.328359
0.856748 0.751492 0.32314
0.877485 0.753994 0.317952
0.89836 0.756756 0.313222
0.0239414 0.854795 0.211582
0.0640116 0.850202 0.210513
0.108568 0.844709 0.210422
0.153796 0.837522 0.210346
0.199008 0.830427 0.20827
0.241016 0.824811 0.203967
0.276844 0.820005 0.198398
0.308812 0.816617 0.193225
0.334936 0.81387 0.185595
0.360922 0.811276 0.179171
0.388098 0.806882 0.174121
0.417151 0.802884 0.170748
0.44715 0.798596 0.168551
0.477745 0.794171 0.166995
0.510414 0.791058 0.166751
0.543175 0.787961 0.167086
0.574823 0.785626 0.167193
0.605859 0.783825 0.167498
0.63537 0.78201 0.168063
0.662318 0.781018 0.169833
0.691203 0.775296 0.202213
0.718334 0.76791 0.287266
0.735317 0.766232 0.35584
0.747295 0.768719 0.378256
0.762203 0.773098 0.380179
0.777813 0.77615 0.379126
0.792203 0.777096 0.374395
0.804746 0.775158 0.364904
0.818967 0.773556 0.3561
0.837156 0.774914 0.350072
0.857069 0.77731 0.34548
0.877226 0.779217 0.340124
0.89691 0.781079 0.33434
0.0345922 0.88954 0.222965
0.0743114 0.885023 0.221927
0.117021 0.878859 0.221103
0.161151 0.871595 0.220645
0.205783 0.864927 0.219272
0.248859 0.858289 0.214603
0.285435 0.853849 0.209506
0.317052 0.849332 0.203433
0.344564 0.846601 0.196582
0.369787 0.843854 0.189609
0.396689 0.840452 0.183749
0.42501 0.836316 0.179736
0.454261 0.831571 0.176349
0.484901 0.82768 0.174731
0.516533 0.823438 0.173449
0.549157 0.820203 0.173373
0.580285 0.817121 0.173342
0.611109 0.814801 0.173404
0.640757 0.813565 0.173999
0.666667 0.811734 0.174548
0.693462 0.810498 0.177203
0.721294 0.80354 0.215763
0.745739 0.795743 0.302296
0.761883 0.79382 0.373465
0.773388 0.796048 0.39884
0.786679 0.799802 0.399786
0.802243 0.803067 0.399725
0.816709 0.804364 0.395377
0.828229 0.802625 0.385657
0.841642 0.80058 0.374685
0.857954 0.801099 0.367346
0.876081 0.802609 0.361334
0.896605 0.805539 0.35729
0.0443275 0.922637 0.234028
0.0831769 0.917723 0.232471
0.125246 0.911742 0.231479
0.170123 0.905165 0.231556
0.213458 0.898146 0.230137
0.25655 0.891188 0.225864
0.292653 0.885649 0.220142
0.325383 0.881392 0.214511
0.353384 0.877775 0.207416
0.378958 0.875273 0.200412
0.405249 0.872358 0.193881
0.432517 0.867994 0.188495
0.461723 0.863416 0.184985
0.491234 0.85922 0.182254
0.522255 0.85449 0.180285
0.55494 0.85098 0.179904
0.585824 0.847684 0.179522
0.616724 0.845319 0.17995
0.644633 0.842817 0.179721
0.670924 0.841291 0.180056
0.697368 0.839536 0.18085
0.723186 0.838163 0.184665
0.750713 0.831037 0.230732
0.77229 0.822095 0.319265
0.786603 0.819837 0.391623
0.79794 0.822095 0.418448
0.810834 0.825467 0.419348
0.825086 0.828458 0.419242
0.838727 0.829618 0.414862
0.850523 0.828214 0.405417
0.863218 0.826719 0.395163
0.877989 0.826413 0.38584
0.89575 0.827741 0.379263
0.0536202 0.954864 0.244892
0.0925002 0.950301 0.243732
0.133715 0.944045 0.242069
0.176761 0.937072 0.241886
0.219089 0.929656 0.240299
0.262516 0.922362 0.236194
0.299565 0.916869 0.230945
0.333013 0.912261 0.224948
0.361975 0.908309 0.218372
0.387823 0.905394 0.211246
0.413352 0.902358 0.203754
0.439765 0.898451 0.197436
0.468528 0.894118 0.193423
0.496925 0.889082 0.189609
0.528603 0.885237 0.187762
0.559899 0.880903 0.186145
0.590906 0.877501 0.185779
0.620798 0.874037 0.185351
0.648432 0.871717 0.185428
0.674495 0.86949 0.185595
0.700755 0.868086 0.186221
0.726177 0.866072 0.186831
0.751431 0.864561 0.19263
0.777325 0.856367 0.245594
0.796628 0.847333 0.33463
0.809934 0.844678 0.409339
0.820935 0.84654 0.436759
0.832914 0.849607 0.437858
0.846876 0.852811 0.437613
0.860227 0.854047 0.433951
0.871855 0.853025 0.425559
0.883421 0.850965 0.414191
0.897414 0.850095 0.404425
0.0622721 0.986389 0.255787
0.100069 0.981582 0.254002
0.140246 0.975036 0.252277
0.182132 0.968032 0.251759
0.224674 0.960861 0.250645
0.268009 0.953124 0.246784
0.305577 0.947188 0.241215
0.338796 0.941939 0.234638
0.369192 0.937636 0.228519
0.39646 0.934829 0.221866
0.420874 0.931334 0.213199
0.447486 0.928328 0.207065
0.47425 0.92369 0.20174
0.503365 0.919081 0.197818
0.533379 0.914275 0.1944
0.564599 0.910246 0.192432
0.594568 0.90573 0.191226
0.624567 0.902678 0.190875
0.651637 0.89984 0.190951
0.677867 0.897566 0.191302
0.703258 0.895171 0.190768
0.728664 0.893339 0.191257
0.753094 0.891783 0.192142
0.77789 0.889448 0.201038
0.802792 0.881117 0.259754
0.819913 0.871122 0.349538
0.83241 0.868345 0.426352
0.843091 0.870054 0.454887
0.854231 0.873014 0.456168
0.867689 0.875868 0.455558
0.880415 0.876967 0.452094
0.892256 0.876738 0.444526
0.903273 0.874632 0.433661
0.0694743 1 0.265476
0.106386 1 0.263188
0.145937 1 0.261662
0.18793 0.998245 0.261433
0.229892 0.990814 0.260243
0.270176 0.983093 0.256687
