luts/backlight.cube
TITLE "Generated by Resolve"
#LUMIXPHOTOSTYLE NAT
LUT_3D_SIZE 9
0 0.0422675 0.096376
0.0603189 0.0343938 0.0839857
0.190524 0.0363012 0.0747539
0.306523 0.0438087 0.0680858
0.427207 0.0512703 0.0614939
0.554482 0.0567788 0.050782
0.683101 0.0605783 0.0424353
0.798276 0.0653239 0.034226
0.89482 0.0753948 0.0291295
0 0.19028 0.113558
0.0992599 0.157321 0.126772
0.219089 0.153323 0.106294
0.334081 0.163348 0.0938582
0.464195 0.184085 0.0856184
0.599619 0.201785 0.0840314
0.707027 0.214328 0.0842145
0.795254 0.233341 0.0890974
0.881254 0.258503 0.0958877
0 0.339635 0.115526
0.0851911 0.299825 0.0932479
0.23035 0.267308 0.134112
0.324941 0.271855 0.124178
0.440131 0.274342 0.125048
0.556207 0.28925 0.125704
0.705425 0.342596 0.145373
0.822904 0.395346 0.161089
0.9299 0.446632 0.180682
0 0.468818 0.119585
0.0947127 0.429725 0.108919
0.237766 0.408621 0.0922103
0.357214 0.39501 0.172564
0.447242 0.411643 0.176608
0.576257 0.427024 0.170443
0.696117 0.438987 0.177249
0.79884 0.458091 0.183017
0.915663 0.510872 0.209949
0 0.617258 0.145449
0.134676 0.593683 0.142565
0.272114 0.579431 0.12256
0.40119 0.571145 0.124224
0.529763 0.562463 0.248432
0.611734 0.577203 0.25745
0.712688 0.587182 0.241581
0.805768 0.597635 0.227283
0.893004 0.614282 0.228428
0.00108339 0.781659 0.188922
0.181888 0.758328 0.18616
0.315328 0.744762 0.164111
0.432471 0.728786 0.153414
0.560525 0.718578 0.153826
0.676234 0.705989 0.320363
0.73959 0.718074 0.335195
0.814084 0.720913 0.311818
0.898878 0.731411 0.292866
0.0443275 0.922637 0.234028
0.213458 0.898146 0.230137
0.353384 0.877775 0.207416
0.461723 0.863416 0.184985
0.585824 0.847684 0.179522
0.697368 0.839536 0.18085
0.786603 0.819837 0.391623
0.838727 0.829618 0.414862
0.89575 0.827741 0.379263
0.0750134 1 0.274479
0.233295 1 0.268711
0.380072 0.993881 0.247395
0.485115 0.979431 0.217762
0.601358 0.961379 0.202899
0.707637 0.947753 0.200656
0.803067 0.939803 0.201953
0.874128 0.912978 0.458595
0.918868 0.920775 0.486976
0.0842145 1 0.30071
0.234012 1 0.293675
0.383825 1 0.275288
0.497398 1 0.246418
0.603632 1 0.221759
0.70515 1 0.213504
0.797879 1 0.208835
0.87921 1 0.20972
0.935988 0.982681 0.496757
0 0.0460975 0.154116
0.0974289 0.0281376 0.144396
0.232471 0.026566 0.135149
0.349386 0.0324712 0.119493
0.475761 0.0376135 0.10811
0.610849 0.0420691 0.0987869
0.734844 0.0461891 0.0880446
0.858198 0.04477 0.0976883
0.954589 0.053254 0.102739
0 0.188067 0.181247
0.11194 0.161135 0.164126
0.238315 0.155779 0.14374
0.358038 0.159442 0.131884
0.487968 0.16788 0.122911
0.616556 0.17998 0.117983
0.717479 0.193164 0.114778
0.801511 0.212146 0.11664
0.890196 0.234287 0.119066
0 0.339574 0.190723
0.0902876 0.298085 0.161685
0.238788 0.26717 0.180346
0.346929 0.268971 0.168536
0.471977 0.29189 0.177874
0.618585 0.343023 0.193835
0.759793 0.399359 0.220249
0.864576 0.434256 0.23389
0.956451 0.465766 0.244953
0 0.469139 0.197925
0.10396 0.429831 0.17467
0.243107 0.410254 0.157748
0.367956 0.398383 0.225452
0.47361 0.417029 0.225422
0.604013 0.431785 0.227008
0.726085 0.455924 0.239796
0.877333 0.544961 0.297551
0.981933 0.607065 0.324224
0 0.62826 0.229953
0.150408 0.604776 0.218143
0.289738 0.587564 0.20441
0.413016 0.577173 0.197589
0.541497 0.565957 0.308736
0.631281 0.582284 0.313649
0.733364 0.592355 0.295064
0.822187 0.601328 0.287678
0.914748 0.617716 0.294926
0.0189059 0.791897 0.281102
0.196597 0.770474 0.268681
0.338003 0.749203 0.257527
0.443366 0.734478 0.232013
0.572641 0.722087 0.232532
0.68455 0.708324 0.389929
0.747723 0.71754 0.396765
0.832547 0.725246 0.370809
0.909636 0.732784 0.346731
0.0602121 0.93135 0.330541
0.225589 0.908492 0.314595
0.377081 0.883543 0.305119
0.48072 0.871595 0.277546
0.595926 0.852354 0.260868
0.703471 0.839841 0.261128
0.79263 0.820737 0.468727
0.844007 0.828519 0.482612
0.909468 0.830213 0.449012
0.0867933 1 0.373983
0.236912 1 0.356298
0.400534 0.997101 0.343465
0.509606 0.983474 0.318761
0.613138 0.966796 0.289876
0.714092 0.949599 0.282521
0.808148 0.939269 0.283146
0.877623 0.912505 0.536599
0.922896 0.919036 0.557671
0.0932784 1 0.405554
0.234684 1 0.385275
0.401709 1 0.371954
0.51957 1 0.346716
0.61706 1 0.312184
0.710597 1 0.294392
0.80116 1 0.288579
0.881086 1 0.285405
0.937011 0.979324 0.569833
0 0.04654 0.223896
0.116762 0.0272068 0.219135
0.251286 0.0267643 0.215305
0.379538 0.0241398 0.208865
0.51545 0.0249485 0.202716
0.651225 0.0295567 0.188861
0.772824 0.0339513 0.173541
0.878904 0.0418708 0.16083
0.965225 0.0555428 0.151583
0 0.189822 0.261616
0.121492 0.159838 0.249485
0.268818 0.144442 0.234485
0.399741 0.139284 0.217441
0.530236 0.147662 0.196429
0.657008 0.16054 0.186404
0.752529 0.176959 0.177523
0.836393 0.197421 0.175967
0.937087 0.213092 0.199268
0 0.331991 0.283558
0.105257 0.290806 0.251225
0.247028 0.267216 0.232059
0.366384 0.271244 0.220295
0.487938 0.290135 0.217517
0.624018 0.318303 0.223545
0.747051 0.355062 0.235721
0.850584 0.387808 0.244633
0.943053 0.417853 0.253468
0 0.462852 0.29189
0.110292 0.42858 0.261952
0.251667 0.406851 0.247227
0.378363 0.401328 0.285054
0.497673 0.420081 0.282475
0.664927 0.470832 0.321645
0.810162 0.550546 0.369207
0.932021 0.618265 0.418631
1 0.651133 0.43682
0 0.634241 0.333898
0.164828 0.612467 0.316609
0.300038 0.5897 0.301549
0.419821 0.580163 0.2869
0.551568 0.56817 0.373556
0.652415 0.58584 0.372641
0.750332 0.596948 0.359518
0.858259 0.622827 0.377157
1 0.720119 0.474067
0.0350195 0.797086 0.393301
0.214771 0.780163 0.377905
0.346044 0.756024 0.358648
0.459632 0.737484 0.338109
0.581704 0.723781 0.325277
0.691554 0.70901 0.464103
0.760815 0.719448 0.465248
0.847135 0.727535 0.437125
0.920378 0.7337 0.418143
0.075639 0.935302 0.457053
0.243519 0.916457 0.437171
0.385245 0.893919 0.418128
0.503441 0.872953 0.399191
0.603845 0.854826 0.359564
0.709468 0.839551 0.35671
0.79794 0.821027 0.546624
0.849699 0.826215 0.550317
0.923583 0.831296 0.517555
0.0998703 1 0.509209
0.251621 1 0.486595
0.404746 1 0.462211
0.532509 0.986954 0.449775
0.629068 0.972534 0.40943
0.718837 0.951217 0.382757
0.810681 0.936843 0.381872
0.881727 0.91223 0.612039
0.926055 0.916396 0.621607
0.103838 1 0.543511
0.244602 1 0.518639
0.402457 1 0.48954
0.537209 1 0.477287
0.635493 1 0.444099
0.716564 1 0.401923
0.803433 1 0.386664
0.882795 1 0.381765
0.93962 0.977752 0.639033
0 0.0471809 0.312459
0.127535 0.0276341 0.309178
0.267216 0.0271153 0.311559
0.39472 0.0250248 0.307027
0.535317 0.0205997 0.303746
0.678721 0.0187381 0.297826
0.802563 0.0193637 0.295186
0.902464 0.0286564 0.285222
0.986481 0.0446632 0.270512
0 0.191714 0.367926
0.132265 0.158312 0.355749
0.282231 0.143221 0.350622
0.415671 0.135775 0.333837
0.555062 0.133104 0.320577
0.680323 0.143389 0.311696
0.774884 0.162676 0.298802
0.86453 0.184573 0.286442
0.954376 0.211048 0.280644
0 0.327016 0.393576
0.119722 0.287175 0.361303
0.254215 0.264164 0.348821
0.387625 0.256626 0.328374
0.522133 0.266163 0.320989
0.657115 0.294133 0.314183
0.775082 0.331945 0.316152
0.87715 0.36585 0.322423
0.968887 0.395651 0.328435
0 0.457267 0.3991
0.135409 0.425589 0.370291
0.258518 0.410605 0.35523
0.389853 0.404608 0.348013
0.534417 0.427573 0.355444
0.675181 0.468421 0.371847
0.796902 0.513008 0.394476
0.901259 0.556115 0.416693
0.990967 0.587686 0.428367
0.0183108 0.636896 0.462394
0.185138 0.614557 0.439765
0.300908 0.5953 0.417258
0.425208 0.578317 0.400641
0.560525 0.569757 0.446296
0.668956 0.587503 0.441184
0.813764 0.649393 0.499382
0.941115 0.725399 0.568521
1 0.781613 0.622431
0.0527199 0.79794 0.528313
0.228031 0.783688 0.512001
0.352148 0.763638 0.49041
0.465064 0.73814 0.462974
0.585657 0.722591 0.440513
0.697688 0.709041 0.539696
0.7776 0.72163 0.535058
0.858564 0.729091 0.512703
0.957412 0.752239 0.534615
0.084535 0.937041 0.594751
0.260716 0.920424 0.578424
0.395056 0.903471 0.559747
0.50692 0.877043 0.52932
0.616266 0.853315 0.500038
0.712093 0.837125 0.476188
0.802518 0.820798 0.619257
0.859648 0.827222 0.617639
0.935012 0.831891 0.585016
0.108125 1 0.647395
0.271946 1 0.62739
0.414496 1 0.604898
0.536019 0.995682 0.583047
0.642741 0.970153 0.558923
0.720897 0.949813 0.509682
0.811643 0.932891 0.501701
0.886076 0.912261 0.676997
0.930541 0.913985 0.67718
0.111818 1 0.676097
0.258946 1 0.656184
0.411749 1 0.628138
0.538369 1 0.607965
0.652781 1 0.594858
0.728222 1 0.546609
0.804578 1 0.507759
0.881025 1 0.49604
0.942794 0.977218 0.701366
0 0.046891 0.41442
0.137484 0.0279088 0.413809
0.27924 0.0232548 0.425391
0.409827 0.0263981 0.418997
0.549783 0.0211795 0.419272
0.692851 0.0145724 0.418006
0.818173 0.0125124 0.414908
0.919264 0.0195926 0.409293
0.998611 0.0358282 0.400412
0 0.189807 0.49601
0.143023 0.158053 0.485435
0.286015 0.14052 0.479271
0.436271 0.140352 0.475563
0.568856 0.137728 0.454765
0.689479 0.140429 0.436133
0.787228 0.155138 0.422339
0.883513 0.173709 0.423056
0.975082 0.201724 0.426764
0 0.325368 0.524865
0.139849 0.292439 0.496986
0.265705 0.267109 0.478431
0.405844 0.263035 0.46566
0.538445 0.268849 0.449729
0.677653 0.285771 0.452842
0.798337 0.317479 0.467491
0.898558 0.349859 0.474754
0.991638 0.380194 0.47248
0.00723278 0.45623 0.522835
0.164202 0.434836 0.502358
0.281331 0.421118 0.490349
0.402609 0.407996 0.488014
0.555566 0.416037 0.484581
0.69369 0.439368 0.493721
0.807462 0.475807 0.498756
0.907057 0.516228 0.503578
0.998169 0.548287 0.508751
0.0586862 0.638117 0.593515
0.215747 0.625208 0.581231
0.324956 0.604974 0.560204
0.434653 0.582177 0.535286
0.570657 0.571694 0.52311
0.700313 0.595773 0.530129
0.814221 0.63711 0.551751
0.91751 0.677897 0.578668
1 0.711421 0.599344
0.090959 0.797528 0.662272
0.258152 0.785565 0.650172
0.366674 0.767559 0.628809
0.469276 0.741787 0.596704
0.58941 0.719097 0.570718
0.703563 0.709148 0.612894
0.790478 0.721782 0.604578
0.922545 0.782971 0.669215
1 0.853635 0.730663
0.112535 0.936019 0.71957
0.278859 0.920974 0.702831
0.404196 0.908461 0.68838
0.516518 0.883101 0.660777
0.618738 0.852964 0.627314
0.712657 0.834363 0.599023
0.807477 0.820844 0.683116
0.873976 0.828519 0.677012
0.944961 0.831403 0.654231
0.12163 1 0.761975
0.28333 1 0.741543
0.427176 1 0.72784
0.548379 1 0.70837
0.643534 0.973541 0.675319
0.728527 0.94696 0.645762
0.810285 0.928115 0.619455
0.890318 0.912444 0.737469
0.940276 0.914473 0.732952
0.118212 1 0.786404
0.270741 1 0.767544
0.426566 1 0.746365
0.55108 1 0.729854
0.65478 1 0.707424
0.73872 1 0.680735
0.802487 1 0.629328
0.877836 1 0.611856
0.947051 0.977401 0.760525
0 0.0464332 0.535317
0.146777 0.0279393 0.538949
0.28455 0.0211948 0.550973
0.431464 0.0218967 0.566262
0.564446 0.0225376 0.554192
0.708614 0.016083 0.560601
0.829175 0.0126497 0.562127
0.926406 0.0185245 0.551385
1 0.0341039 0.534554
0 0.186709 0.630564
0.154131 0.158206 0.625925
0.295918 0.141451 0.624231
0.444755 0.134707 0.622904
0.584939 0.147494 0.599527
0.703655 0.151827 0.579278
0.79971 0.159747 0.5626
0.898451 0.175616 0.560784
0.995727 0.200275 0.570153
0 0.324712 0.660548
0.15082 0.294392 0.636912
0.279896 0.273579 0.612909
0.411688 0.26566 0.595834
0.57084 0.287556 0.604562
0.703792 0.305013 0.605051
0.818158 0.324865 0.61413
0.918807 0.349813 0.623728
1 0.374472 0.633005
0.0304417 0.454002 0.643458
0.192004 0.4495 0.642008
0.31223 0.443854 0.644511
0.422919 0.420386 0.631403
0.587076 0.434638 0.646387
0.715267 0.451514 0.64387
0.825391 0.471015 0.650752
0.924636 0.499809 0.662745
1 0.528054 0.665583
0.0969558 0.644022 0.717311
0.248188 0.640269 0.714748
0.357931 0.622309 0.698024
0.464286 0.597711 0.677028
0.582162 0.574517 0.665293
0.713054 0.583383 0.662501
0.823865 0.606455 0.670451
0.921065 0.639109 0.674632
1 0.67126 0.674372
0.128435 0.797314 0.772412
0.280491 0.791104 0.767376
0.395346 0.778241 0.75494
0.4981 0.750896 0.726299
0.60145 0.723018 0.696239
0.710872 0.709545 0.679622
0.816983 0.729778 0.684306
0.915434 0.763439 0.701579
1 0.795911 0.721126
0.145266 0.93254 0.824414
0.307622 0.91957 0.812131
0.429496 0.911223 0.803738
0.532677 0.886625 0.775998
0.623362 0.856428 0.740276
0.71632 0.831235 0.712871
0.811933 0.820325 0.743297
0.885344 0.828565 0.733883
1 0.889372 0.797513
0.152636 1 0.867079
0.312291 1 0.847883
0.439612 1 0.835431
0.557244 1 0.817899
0.652216 0.980072 0.787396
0.73196 0.947646 0.75227
0.810773 0.926604 0.722713
0.894743 0.91249 0.794491
0.953948 0.915801 0.786068
0.13901 1 0.888136
0.289342 1 0.867491
0.432898 1 0.849561
0.563668 1 0.838697
0.664469 1 0.817365
0.739834 1 0.781247
0.809323 1 0.745754
0.87715 0.996201 0.71194
0.9514 0.977676 0.816281
0 0.046128 0.661158
0.156207 0.0276188 0.667048
0.292103 0.0199588 0.679438
0.435904 0.012253 0.695247
0.586358 0.0168917 0.701946
0.72221 0.0168765 0.702144
0.840375 0.0169985 0.705287
0.933852 0.0253758 0.696941
1 0.0401617 0.679225
0 0.184085 0.751766
0.162707 0.155901 0.749416
0.303761 0.140505 0.750591
0.444587 0.129351 0.741207
0.602197 0.145678 0.740459
0.712596 0.161746 0.708904
0.818036 0.173098 0.703563
0.917388 0.187854 0.70695
1 0.211154 0.713573
0 0.322103 0.772305
0.157687 0.291814 0.754147
0.292607 0.278874 0.730953
0.425437 0.273487 0.721248
0.590021 0.293385 0.740337
0.733028 0.327459 0.747707
0.848264 0.350347 0.758068
0.944137 0.367132 0.763531
1 0.383032 0.763149
0.0491798 0.457847 0.754986
0.211582 0.46302 0.766491
0.325429 0.450797 0.766537
0.444923 0.434211 0.757031
0.59469 0.438376 0.759808
0.749874 0.475959 0.786297
0.856962 0.496513 0.789639
0.948943 0.512856 0.793149
1 0.528069 0.791028
0.117006 0.642023 0.817136
0.265614 0.642802 0.817929
0.386908 0.640253 0.817517
0.499229 0.623774 0.809079
0.601633 0.587228 0.786358
0.739467 0.601114 0.799023
0.845411 0.619974 0.798062
0.938521 0.636042 0.802029
1 0.6551 0.808087
0.163516 0.802777 0.878035
0.30602 0.799649 0.87631
0.427619 0.792798 0.86978
0.534066 0.766949 0.844526
0.630076 0.737972 0.817975
0.719051 0.711986 0.801846
0.830365 0.720088 0.800473
0.926192 0.736263 0.805417
1 0.761425 0.80618
0.180255 0.931945 0.921492
0.325551 0.922408 0.912932
0.450477 0.916671 0.907988
0.564248 0.897154 0.888273
0.649729 0.865888 0.855543
0.726955 0.835615 0.82327
0.817853 0.819455 0.803616
0.910475 0.836255 0.80592
1 0.862226 0.816678
0.179095 1 0.957931
0.336034 1 0.940764
0.462119 1 0.933745
0.581262 1 0.920455
0.665949 0.984009 0.891569
0.736553 0.951171 0.854139
0.814801 0.924147 0.825803
0.898726 0.911742 0.849363
0.965057 0.915099 0.837064
0.168048 1 0.982483
0.323262 1 0.961501
0.453681 1 0.948074
0.574731 1 0.93724
0.671077 1 0.917189
0.747723 1 0.883543
0.813123 1 0.843641
0.878553 0.997147 0.809033
0.95523 0.977203 0.869017
1.5259e-05 0.0454871 0.770947
0.166186 0.0277104 0.778744
0.300847 0.0186007 0.791928
0.44062 0.00758373 0.804379
0.605097 0.00910964 0.828565
0.739086 0.0125734 0.827619
0.847227 0.0200504 0.82005
0.938613 0.0324407 0.811429
1 0.0503395 0.797498
0 0.182223 0.863462
0.170718 0.153445 0.86331
0.310613 0.138842 0.861799
0.449302 0.129061 0.848569
0.600137 0.137346 0.842573
0.725948 0.161913 0.826123
0.829892 0.181292 0.816907
0.934844 0.201648 0.827955
1 0.227466 0.841794
0 0.319463 0.875685
0.166918 0.289998 0.855482
0.302647 0.281559 0.836759
0.438193 0.279667 0.831525
0.590509 0.289509 0.838712
0.759213 0.335836 0.876997
0.867567 0.365927 0.875273
0.968627 0.387915 0.886824
1 0.402625 0.890562
0.0661784 0.464347 0.862608
0.223651 0.468437 0.873106
0.331914 0.45037 0.871122
0.465476 0.446754 0.869871
0.614038 0.451728 0.872312
0.767193 0.484886 0.903319
0.884443 0.519554 0.912413
0.981598 0.540932 0.921401
1 0.549416 0.918074
0.134905 0.643183 0.91075
0.279881 0.648722 0.917494
0.407202 0.654551 0.927275
0.509941 0.628214 0.915114
0.623392 0.602502 0.8981
0.743755 0.604761 0.897978
0.877485 0.644251 0.925521
0.971878 0.663874 0.929519
1 0.669795 0.926299
0.182773 0.801465 0.968002
0.318624 0.798001 0.965118
0.443366 0.794858 0.962203
0.56585 0.784604 0.953918
0.662501 0.763287 0.939956
0.736294 0.724193 0.911269
0.848737 0.731395 0.917281
0.949111 0.752239 0.923064
1 0.759106 0.92047
0.215244 0.937087 1
0.347906 0.928878 1
0.474372 0.923949 1
0.596429 0.910246 0.994446
0.680369 0.880903 0.96379
0.753246 0.850568 0.934615
0.825055 0.822339 0.914534
0.924453 0.82919 0.9131
1 0.839307 0.913725
0.210407 1 1
0.35198 1 1
0.476951 1 1
0.602655 1 1
0.692653 0.994064 0.996338
0.76202 0.961212 0.961791
0.825299 0.929229 0.927382
0.902861 0.909957 0.904936
0.990951 0.920394 0.901076
0.187396 1 1
0.344335 1 1
0.469535 1 1
0.593393 1 1
0.6878 1 1
0.757153 1 0.979065
0.815427 1 0.937636
0.881407 0.995499 0.904646
0.957382 0.974929 0.919615
0.012604 0.0451972 0.873793
0.176287 0.0278935 0.883833
0.31017 0.0178225 0.897932
0.450141 0.00596628 0.910018
0.613672 0.0012665 0.937499
0.757107 0.00727855 0.948577
0.85655 0.0209812 0.928893
0.941817 0.0384375 0.911971
1 0.059144 0.899763
0.00534066 0.180819 0.970886
0.179248 0.152071 0.973953
0.317845 0.137942 0.967697
0.454292 0.130022 0.947829
0.595697 0.132662 0.930755
0.737575 0.159808 0.93463
0.846357 0.184512 0.927611
0.948165 0.213306 0.934066
1 0.242283 0.952224
0.00781262 0.315923 0.975998
0.178103 0.289952 0.948089
0.311986 0.28336 0.936187
0.448936 0.283452 0.932631
0.602564 0.295445 0.939971
0.760189 0.330724 0.972137
0.887541 0.370947 0.988632
0.983108 0.400275 0.99086
1 0.419562 1
0.0826429 0.469963 0.964691
0.228962 0.468147 0.972534
0.341604 0.452445 0.970733
0.480797 0.454322 0.972778
0.629068 0.461082 0.97612
0.759167 0.475135 0.987045
0.908064 0.52871 1
1 0.556603 1
1 0.571847 1
0.14992 0.648692 1
0.290913 0.654902 1
0.416205 0.657664 1
0.514763 0.626932 1
0.64268 0.615885 1
0.759319 0.618189 1
0.880629 0.641459 1
0.997879 0.685191 1
1 0.69958 1
0.196918 0.799954 1
0.330144 0.798077 1
0.45684 0.799481 1
0.58616 0.798383 1
0.671061 0.767681 1
0.755871 0.738872 1
0.855817 0.737697 1
0.976577 0.772519 1
1 0.788128 1
0.231769 0.934173 1
0.360372 0.926726 1
0.484581 0.920439 1
0.611948 0.913542 1
0.70956 0.900206 1
0.783856 0.876005 1
0.841352 0.834638 1
0.934203 0.832837 1
1 0.857389 1
0.243748 1 1
0.372534 1 1
0.49659 1 1
0.624475 1 1
0.719905 1 1
0.790021 0.976699 1
0.849928 0.945068 1
0.910323 0.912902 1
1 0.91548 1
0.217655 1 1
0.358877 1 1
0.480476 1 1
0.603342 1 1
0.70135 1 1
0.776669 1 1
0.834333 1 1
0.88954 0.997726 1
0.960586 0.970977 0.97528
