luts/backlight.cube
TITLE "Generated by Resolve"
#LUMIXPHOTOSTYLE NAT
LUT_3D_SIZE 5
0 0.0422675 0.096376
0.190524 0.0363012 0.0747539
0.427207 0.0512703 0.0614939
0.683101 0.0605783 0.0424353
0.89482 0.0753948 0.0291295
0 0.339635 0.115526
0.23035 0.267308 0.134112
0.440131 0.274342 0.125048
0.705425 0.342596 0.145373
0.9299 0.446632 0.180682
0 0.617258 0.145449
0.272114 0.579431 0.12256
0.529763 0.562463 0.248432
0.712688 0.587182 0.241581
0.893004 0.614282 0.228428
0.0443275 0.922637 0.234028
0.353384 0.877775 0.207416
0.585824 0.847684 0.179522
0.786603 0.819837 0.391623
0.89575 0.827741 0.379263
0.0842145 1 0.30071
0.383825 1 0.275288
0.603632 1 0.221759
0.797879 1 0.208835
0.935988 0.982681 0.496757
0 0.04654 0.223896
0.251286 0.0267643 0.215305
0.51545 0.0249485 0.202716
0.772824 0.0339513 0.173541
0.965225 0.0555428 0.151583
0 0.331991 0.283558
0.247028 0.267216 0.232059
0.487938 0.290135 0.217517
0.747051 0.355062 0.235721
0.943053 0.417853 0.253468
0 0.634241 0.333898
0.300038 0.5897 0.301549
0.551568 0.56817 0.373556
0.750332 0.596948 0.359518
1 0.720119 0.474067
0.075639 0.935302 0.457053
0.385245 0.893919 0.418128
0.603845 0.854826 0.359564
0.79794 0.821027 0.546624
0.923583 0.831296 0.517555
0.103838 1 0.543511
0.402457 1 0.48954
0.635493 1 0.444099
0.803433 1 0.386664
0.93962 0.977752 0.639033
0 0.046891 0.41442
0.27924 0.0232548 0.425391
0.549783 0.0211795 0.419272
0.818173 0.0125124 0.414908
0.998611 0.0358282 0.400412
0 0.325368 0.524865
0.265705 0.267109 0.478431
0.538445 0.268849 0.449729
0.798337 0.317479 0.467491
0.991638 0.380194 0.47248
0.0586862 0.638117 0.593515
0.324956 0.604974 0.560204
0.570657 0.571694 0.52311
0.814221 0.63711 0.551751
1 0.711421 0.599344
0.112535 0.936019 0.71957
0.404196 0.908461 0.68838
0.618738 0.852964 0.627314
0.807477 0.820844 0.683116
0.944961 0.831403 0.654231
0.118212 1 0.786404
0.426566 1 0.746365
0.65478 1 0.707424
0.802487 1 0.629328
0.947051 0.977401 0.760525
0 0.046128 0.661158
0.292103 0.0199588 0.679438
0.586358 0.0168917 0.701946
0.840375 0.0169985 0.705287
1 0.0401617 0.679225
0 0.322103 0.772305
0.292607 0.278874 0.730953
0.590021 0.293385 0.740337
0.848264 0.350347 0.758068
1 0.383032 0.763149
0.117006 0.642023 0.817136
0.386908 0.640253 0.817517
0.601633 0.587228 0.786358
0.845411 0.619974 0.798062
1 0.6551 0.808087
0.180255 0.931945 0.921492
0.450477 0.916671 0.907988
0.649729 0.865888 0.855543
0.817853 0.819455 0.803616
1 0.862226 0.816678
0.168048 1 0.982483
0.453681 1 0.948074
0.671077 1 0.917189
0.813123 1 0.843641
0.95523 0.977203 0.869017
0.012604 0.0451972 0.873793
0.31017 0.0178225 0.897932
0.613672 0.0012665 0.937499
0.85655 0.0209812 0.928893
1 0.059144 0.899763
0.00781262 0.315923 0.975998
0.311986 0.28336 0.936187
0.602564 0.295445 0.939971
0.887541 0.370947 0.988632
1 0.419562 1
0.14992 0.648692 1
0.416205 0.657664 1
0.64268 0.615885 1
0.880629 0.641459 1
1 0.69958 1
0.231769 0.934173 1
0.484581 0.920439 1
0.70956 0.900206 1
0.841352 0.834638 1
1 0.857389 1
0.217655 1 1
0.480476 1 1
0.70135 1 1
0.834333 1 1
0.960586 0.970977 0.97528
