luts/smoky-color.cube
TITLE "Generated by Resolve"
#LUMIXPHOTOSTYLE STD
LUT_3D_SIZE 33
0.0868086 0.0626078 0.0476844
0.0973678 0.0638437 0.0485084
0.108934 0.0649271 0.049134
0.121401 0.0658274 0.0495766
0.134371 0.0664836 0.049836
0.147723 0.0669108 0.0498817
0.163531 0.0672313 0.0498207
0.180835 0.0673838 0.0496223
0.200183 0.0669261 0.0519265
0.219852 0.0667277 0.0518654
0.24007 0.066453 0.0517586
0.258915 0.0662699 0.0518502
0.279423 0.0660716 0.0519265
0.299977 0.0658427 0.0520333
0.320745 0.0655375 0.0520485
0.341466 0.0651865 0.052018
0.36289 0.0646525 0.0518502
0.383963 0.0640574 0.0516518
0.404364 0.0634928 0.0514687
0.424414 0.0630045 0.0514229
0.441199 0.0639963 0.0439307
0.461082 0.0638285 0.0437324
0.480735 0.0637827 0.0436255
0.503639 0.0623026 0.0525521
0.519081 0.0640116 0.0437629
0.541482 0.0626688 0.0539254
0.559853 0.0630198 0.0547951
0.577981 0.0634623 0.055787
0.595956 0.0639811 0.0568551
0.613825 0.0645457 0.0580453
0.631586 0.0651713 0.0593118
0.649378 0.0657816 0.0605783
0.666926 0.0664988 0.0619516
0.0955215 0.0805829 0.0499886
0.105928 0.082063 0.0544137
0.117082 0.0836805 0.0538643
0.129305 0.0848859 0.0529641
0.14197 0.0859998 0.052079
0.155108 0.0869001 0.051133
0.170459 0.0876173 0.0500649
0.187961 0.0879988 0.0491951
0.20621 0.0882887 0.047837
0.225437 0.0884413 0.0464332
0.245075 0.0884871 0.0449989
0.263645 0.0885634 0.0438239
0.283482 0.0886854 0.0428016
0.303655 0.088777 0.041825
0.323919 0.088838 0.0409247
0.344335 0.088838 0.0400549
0.364645 0.0887617 0.0391852
0.385595 0.0884871 0.0382391
0.405768 0.0882429 0.0373693
0.425406 0.0880598 0.0366217
0.444755 0.0879988 0.0360876
0.464363 0.0880598 0.0357061
0.48397 0.0882277 0.0354162
0.503456 0.0884718 0.0352483
0.52282 0.088777 0.035172
0.542031 0.0892042 0.0351873
0.561059 0.0896925 0.0353246
0.579828 0.0902724 0.035523
0.598367 0.0909438 0.0358434
0.616678 0.0917067 0.0362097
0.63476 0.0925307 0.0366979
0.652857 0.0933547 0.0372168
0.67068 0.0942855 0.0378424
0.100313 0.10135 0.0509499
0.11342 0.102281 0.0547341
0.125429 0.104021 0.0580758
0.138613 0.105394 0.0606394
0.151598 0.106554 0.0588693
0.164706 0.107256 0.0570535
0.179889 0.108049 0.0556344
0.196704 0.108782 0.0540322
0.214618 0.109407 0.0522927
0.233707 0.109941 0.0506294
0.253361 0.110369 0.049012
0.272053 0.110765 0.0476234
0.291798 0.111208 0.0463417
0.311925 0.111589 0.0450599
0.332082 0.111925 0.0437781
0.353246 0.111879 0.0433661
0.373236 0.112047 0.0420844
0.393606 0.112047 0.0406806
0.41355 0.112001 0.0392157
0.433219 0.111986 0.0377966
0.452659 0.112093 0.0365301
0.472419 0.112306 0.0353704
0.492256 0.112627 0.0343175
0.51191 0.113054 0.033402
0.531395 0.113588 0.032639
0.550698 0.114229 0.0320134
0.569802 0.114961 0.0314946
0.588693 0.11577 0.0310826
0.607294 0.116655 0.0307927
0.625589 0.117647 0.0306249
0.643549 0.118746 0.0306096
0.661357 0.11986 0.0306096
0.678782 0.121111 0.030808
0.106554 0.123049 0.0536812
0.119081 0.124712 0.055787
0.131807 0.126513 0.0595712
0.144366 0.12874 0.0616922
0.159731 0.129946 0.0644846
0.175097 0.13077 0.0639048
0.1906 0.131395 0.0626841
0.207279 0.131807 0.0603799
0.225086 0.132204 0.05832
0.243763 0.132647 0.0564126
0.262974 0.133059 0.0544594
0.281056 0.133501 0.0527199
0.300343 0.134096 0.0511025
0.320302 0.134737 0.0495308
0.340597 0.135378 0.0480049
0.361227 0.135973 0.0464637
0.381781 0.136477 0.0449073
0.402441 0.136797 0.0432441
0.422736 0.137026 0.0415503
0.442695 0.137255 0.0399023
0.462516 0.137545 0.0383612
0.482536 0.137942 0.0369726
0.502617 0.13843 0.0356603
0.523812 0.138537 0.035935
0.543389 0.139223 0.0349432
0.562661 0.140047 0.0341192
0.581598 0.140993 0.0333867
0.600168 0.142031 0.0327764
0.618387 0.143175 0.0322423
0.636286 0.144442 0.0318303
0.653834 0.145815 0.0314946
0.671244 0.147189 0.0311894
0.688243 0.148699 0.0310063
0.117525 0.144533 0.0560006
0.125856 0.147768 0.0585489
0.139483 0.149569 0.060853
0.150942 0.152667 0.063447
0.164767 0.154833 0.0660105
0.179721 0.156695 0.0680095
0.198657 0.157626 0.0678721
0.218631 0.157916 0.0676127
0.236637 0.158099 0.066041
0.255039 0.158114 0.0631113
0.274403 0.158175 0.0604868
0.292439 0.158404 0.0584115
0.311757 0.158816 0.0564736
0.331487 0.159289 0.05449
0.351461 0.159762 0.0524605
0.371695 0.160204 0.0503395
0.391943 0.160662 0.0482338
0.41236 0.161074 0.0461128
0.432547 0.161501 0.0440528
0.452552 0.162036 0.0421607
0.472587 0.162676 0.0404212
0.492744 0.163485 0.0389715
0.512917 0.164401 0.0377203
0.532753 0.165408 0.0366217
0.55227 0.166522 0.0356451
0.57145 0.167727 0.0348363
0.59028 0.168994 0.0341039
0.608713 0.170367 0.033463
0.626749 0.171817 0.032929
0.644419 0.173358 0.0325017
0.661677 0.175006 0.0321813
0.678141 0.176898 0.0311284
0.696895 0.177798 0.0340276
0.125322 0.16817 0.0571145
0.137652 0.170443 0.0608225
0.14667 0.173953 0.0635233
0.160128 0.17644 0.0661173
0.17145 0.180041 0.0674907
0.185657 0.182452 0.0695354
0.203357 0.184741 0.0721904
0.223209 0.186313 0.072282
0.246525 0.186587 0.0702831
0.268055 0.186496 0.0699931
0.287984 0.186328 0.0677043
0.305684 0.186084 0.064622
0.32488 0.186023 0.0617075
0.344488 0.186114 0.0591135
0.36434 0.186313 0.056733
0.384405 0.186557 0.0544137
0.404318 0.186862 0.0520943
0.42417 0.187106 0.0497292
0.443626 0.187411 0.0474098
0.462821 0.187823 0.0451362
0.4822 0.188388 0.0430304
0.501808 0.189227 0.0412604
0.521569 0.190295 0.0397955
0.541115 0.191562 0.0385443
0.560464 0.192981 0.0375372
0.579492 0.194583 0.0367437
0.598138 0.196277 0.0361334
0.616373 0.198077 0.0356298
0.634211 0.199939 0.0352941
0.651606 0.201877 0.0350652
0.668589 0.203906 0.0349432
0.685389 0.205905 0.0348363
0.701717 0.208026 0.0348669
0.131151 0.193179 0.057496
0.146563 0.194858 0.0615549
0.158831 0.197589 0.0653697
0.168688 0.201297 0.0682383
0.179828 0.205112 0.0703746
0.192691 0.208499 0.0708324
0.209445 0.211414 0.0720226
0.229191 0.214023 0.0748455
0.250004 0.216098 0.0755169
0.274144 0.216876 0.0726177
0.299901 0.216526 0.071107
0.320134 0.216342 0.0705882
0.339727 0.216129 0.0684062
0.358785 0.215763 0.0651255
0.378042 0.215396 0.0617685
0.397589 0.215137 0.0587167
0.417075 0.215045 0.0559701
0.436362 0.215015 0.0533913
0.455207 0.215137 0.0509499
0.473884 0.215412 0.0486458
0.492729 0.215885 0.0464179
0.511803 0.216587 0.0445411
0.530877 0.217548 0.0429389
0.549722 0.218738 0.0415503
0.568322 0.220127 0.0403906
0.586664 0.221729 0.0394903
0.6047 0.223499 0.0387579
0.622446 0.225422 0.0381933
0.639872 0.227466 0.0377966
0.656977 0.229664 0.0375677
0.673747 0.231968 0.0374762
0.690349 0.234257 0.0374151
0.706523 0.236683 0.0375067
0.136477 0.219013 0.0571145
0.152636 0.220813 0.0612345
0.168963 0.222705 0.0652476
0.180804 0.226047 0.0690318
0.190417 0.230137 0.07187
0.200763 0.234913 0.0730297
0.216815 0.238392 0.0727703
0.235172 0.241596 0.0733806
0.256336 0.244495 0.0761273
0.27866 0.246952 0.0776684
0.302861 0.248249 0.0753796
0.327764 0.248402 0.07187
0.352102 0.24799 0.0713054
0.373404 0.247669 0.0707713
0.393103 0.247181 0.0684215
0.41207 0.246479 0.0650034
0.430671 0.245747 0.061326
0.448981 0.245136 0.057969
0.467002 0.244785 0.055024
0.484977 0.244694 0.0524147
0.503212 0.244877 0.0500801
0.521737 0.245396 0.0482032
0.540261 0.246235 0.0466621
0.558587 0.247333 0.0453498
0.576654 0.248646 0.0442054
0.594491 0.250126 0.0432593
0.611994 0.251804 0.0424048
0.629191 0.25362 0.0417029
0.646082 0.255589 0.0411231
0.662669 0.25771 0.0406958
0.67895 0.259983 0.0404364
0.695109 0.262303 0.0402075
0.710887 0.26479 0.0402075
0.141054 0.245808 0.055787
0.157931 0.247761 0.0598306
0.175418 0.249638 0.0638895
0.192203 0.251804 0.0680095
0.203174 0.255512 0.0717632
0.212543 0.2607 0.0741131
0.224842 0.265797 0.0743572
0.242542 0.269291 0.0738231
0.26215 0.272694 0.0741588
0.284627 0.275883 0.0768444
0.308522 0.27866 0.0791638
0.330587 0.280598 0.0784314
0.355444 0.281315 0.0742657
0.381308 0.281086 0.0715648
0.40502 0.280446 0.0714733
0.426108 0.279759 0.0706645
0.445182 0.278874 0.0682078
0.46276 0.277806 0.0648203
0.479606 0.276799 0.0610513
0.496513 0.27602 0.0576486
0.513863 0.275608 0.0546731
0.531777 0.275685 0.0523079
0.549722 0.276127 0.0504921
0.567529 0.276921 0.049073
0.585138 0.278019 0.0478981
0.602518 0.279377 0.046952
0.619623 0.280949 0.0461433
0.636439 0.282673 0.0454566
0.652934 0.284535 0.044892
0.669108 0.286564 0.0444038
0.684932 0.288716 0.0440223
0.700664 0.290929 0.0436561
0.715999 0.293294 0.0434577
0.144976 0.273457 0.0534981
0.162554 0.275517 0.0575113
0.18085 0.277455 0.0616922
0.199634 0.279301 0.0659495
0.215717 0.281651 0.0703288
0.226703 0.286381 0.0739147
0.236286 0.29247 0.0754559
0.250462 0.297337 0.0751812
0.269429 0.300893 0.0745098
0.290303 0.304479 0.0748608
0.313924 0.307958 0.0776379
0.336522 0.310979 0.0808576
0.35935 0.313466 0.0817731
0.38291 0.314809 0.0783398
0.408469 0.314992 0.073579
0.433738 0.314321 0.0716106
0.456275 0.313313 0.0711986
0.475731 0.312261 0.0698253
0.493187 0.310994 0.0673838
0.509728 0.309636 0.0640726
0.526162 0.308461 0.0605783
0.542855 0.307713 0.0574655
0.559701 0.307439 0.0550393
0.576654 0.307668 0.0531319
0.593683 0.308339 0.0516213
0.610574 0.309346 0.0504463
0.627268 0.310628 0.049546
0.643687 0.312154 0.0488289
0.6598 0.313863 0.048249
0.675624 0.31577 0.0477913
0.691142 0.317845 0.0474098
0.706554 0.319936 0.0470436
0.721553 0.32221 0.0468147
0.148516 0.301717 0.0507057
0.166873 0.303792 0.054963
0.185931 0.30576 0.0591897
0.205447 0.307607 0.0636301
0.224384 0.309346 0.0681315
0.240909 0.312551 0.072694
0.251026 0.318425 0.0757153
0.261204 0.324697 0.0766003
0.277302 0.329305 0.0760967
0.297475 0.332937 0.0754864
0.319478 0.336706 0.0759899
0.341466 0.340368 0.0788281
0.364904 0.343679 0.0826123
0.3879 0.346548 0.0848402
0.410849 0.348547 0.0829328
0.435019 0.349157 0.077348
0.459648 0.348775 0.072755
0.482094 0.347921 0.0706645
0.502541 0.346685 0.0695506
0.521279 0.345205 0.0677806
0.538796 0.343572 0.0654917
0.555581 0.342 0.0627604
0.571633 0.340749 0.0601663
0.587411 0.340002 0.0577707
0.603189 0.339818 0.0557107
0.619028 0.340154 0.0541238
0.634958 0.340963 0.052903
0.650843 0.342092 0.051957
0.666529 0.343496 0.0512093
0.682017 0.345159 0.05066
0.69723 0.347021 0.0502937
0.712306 0.349004 0.0499733
0.727047 0.351217 0.0498207
0.151812 0.32874 0.0481117
0.170825 0.330846 0.0525063
0.190539 0.332815 0.0568704
0.210666 0.334661 0.0614786
0.230579 0.336294 0.0661326
0.251392 0.338415 0.0710918
0.265507 0.342992 0.0753338
0.274769 0.349447 0.0775158
0.286625 0.355352 0.07776
0.304723 0.359625 0.0771038
0.326024 0.363302 0.0765698
0.346609 0.367056 0.0775464
0.3691 0.370825 0.0803693
0.392493 0.374258 0.0844282
0.415671 0.377234 0.0874189
0.438224 0.379522 0.0869917
0.460792 0.38056 0.0821546
0.482918 0.380697 0.0757305
0.504601 0.380163 0.0712139
0.525444 0.37908 0.068925
0.545663 0.377523 0.0672923
0.564782 0.375799 0.0653697
0.582162 0.37406 0.0635843
0.598291 0.372534 0.0615244
0.613703 0.371435 0.0595254
0.628779 0.370871 0.0577096
0.643702 0.370855 0.0561074
0.658549 0.371389 0.0548409
0.673396 0.372366 0.0538949
0.688273 0.373739 0.0532692
0.702998 0.375418 0.0528725
0.717723 0.377264 0.0525826
0.732174 0.37937 0.0525063
0.155047 0.354574 0.0458228
0.174655 0.356634 0.05037
0.194949 0.358572 0.0550546
0.215595 0.360403 0.059678
0.236072 0.36202 0.0644388
0.259007 0.363714 0.0694591
0.277974 0.366857 0.0743725
0.289067 0.372793 0.0777295
0.298634 0.379522 0.0790417
0.312963 0.385046 0.0787823
0.332906 0.38909 0.0780957
0.35285 0.392782 0.0781262
0.373907 0.396597 0.0792248
0.396307 0.400458 0.0821088
0.41973 0.404013 0.0862898
0.442817 0.40708 0.0896773
0.464683 0.409522 0.0905013
0.484993 0.411185 0.0870832
0.505318 0.41178 0.080354
0.525963 0.411536 0.0737163
0.546914 0.410605 0.0692912
0.567681 0.409171 0.0669261
0.587381 0.407385 0.0653086
0.60557 0.405463 0.0638437
0.622339 0.403708 0.0621042
0.637995 0.402289 0.0604562
0.652888 0.401312 0.0589609
0.667323 0.400824 0.0576791
0.681514 0.400885 0.0565957
0.695567 0.401465 0.0558175
0.709468 0.402533 0.0552682
0.723507 0.403967 0.0548714
0.737346 0.405722 0.0547799
0.158587 0.380819 0.0439307
0.178744 0.38291 0.0486305
0.199527 0.384848 0.0533913
0.220569 0.386694 0.0580606
0.241657 0.388327 0.0628672
0.265507 0.389929 0.0678416
0.288151 0.392065 0.0730449
0.303304 0.39675 0.077409
0.313008 0.403479 0.0798352
0.32398 0.410071 0.0804456
0.340566 0.415137 0.0799878
0.359777 0.418952 0.0797284
0.380026 0.422644 0.0798352
0.401068 0.42652 0.0810864
0.423407 0.430426 0.0839399
0.446525 0.433997 0.0880903
0.468833 0.437079 0.0917525
0.489021 0.43978 0.0936599
0.508324 0.441917 0.0918593
0.527703 0.443198 0.0861067
0.547723 0.443427 0.0785229
0.568154 0.442802 0.0720531
0.58819 0.441596 0.0681468
0.607584 0.440009 0.0660716
0.626245 0.438239 0.0643931
0.643824 0.436423 0.0629435
0.660182 0.434775 0.0614023
0.675471 0.433433 0.0599985
0.689982 0.432532 0.0588998
0.703914 0.432105 0.0580758
0.717449 0.432197 0.0575113
0.730938 0.4327 0.0571298
0.744152 0.433722 0.0570687
0.162356 0.407553 0.0422827
0.182971 0.409659 0.0470436
0.204181 0.411612 0.0518196
0.225589 0.413428 0.0565194
0.247242 0.415045 0.061326
0.271717 0.416632 0.066331
0.296391 0.418265 0.0715343
0.316136 0.421546 0.076524
0.328038 0.427573 0.0800183
0.337636 0.434592 0.0816052
0.350286 0.440757 0.0818189
0.367269 0.445335 0.0815442
0.386664 0.448966 0.0812848
0.406867 0.452644 0.081529
0.427909 0.456504 0.0828565
0.449866 0.46041 0.0856794
0.471977 0.464088 0.0897688
0.492485 0.467399 0.0937209
0.512001 0.470298 0.0965286
0.53106 0.472831 0.0963912
0.550195 0.474754 0.092256
0.569802 0.4757 0.0850233
0.58909 0.475563 0.0774853
0.607889 0.474647 0.071809
0.626337 0.473381 0.0683909
0.644556 0.471931 0.0661479
0.662242 0.47039 0.0641947
0.679255 0.468681 0.0626993
0.695262 0.467124 0.0612039
0.710292 0.465843 0.0599832
0.724514 0.464942 0.0591135
0.738277 0.464424 0.0585184
0.751476 0.464439 0.0583505
0.16611 0.434623 0.0405432
0.187167 0.436728 0.0453651
0.208774 0.438697 0.0501564
0.230503 0.440482 0.0550088
0.25275 0.442084 0.059678
0.277745 0.443641 0.0646372
0.303273 0.44509 0.0697948
0.32668 0.447303 0.0750439
0.342489 0.452125 0.0794385
0.352682 0.458976 0.0820325
0.362676 0.465888 0.0831922
0.376425 0.471489 0.0832532
0.393774 0.475731 0.0830396
0.413291 0.479393 0.0829786
0.433539 0.483131 0.0834058
0.454307 0.487053 0.0849012
0.475181 0.491096 0.0877394
0.495323 0.495033 0.091722
0.515053 0.498573 0.0958724
0.534279 0.501656 0.0993515
0.55346 0.504479 0.100679
0.572656 0.506813 0.0984207
0.591546 0.5084 0.0925154
0.609949 0.508934 0.0852216
0.627665 0.508568 0.0785382
0.644999 0.507713 0.0733959
0.662074 0.506615 0.0701305
0.679057 0.505333 0.0675059
0.695827 0.503944 0.0654612
0.711925 0.502495 0.063386
0.72752 0.50106 0.0618143
0.742489 0.499718 0.0604715
0.756634 0.498802 0.0596933
0.16994 0.462516 0.0387427
0.191409 0.464622 0.043595
0.213397 0.466575 0.0484169
0.235431 0.468345 0.053254
0.258244 0.469932 0.0578927
0.283696 0.471427 0.0628214
0.309636 0.472801 0.0678874
0.335332 0.474342 0.0731823
0.355566 0.477806 0.0782635
0.368063 0.483925 0.0819562
0.377584 0.491142 0.084184
0.388327 0.497581 0.0850385
0.402716 0.502678 0.0851759
0.420508 0.506737 0.0852064
0.440131 0.510262 0.0853742
0.460151 0.513909 0.0860609
0.47982 0.517708 0.0878462
0.498909 0.521706 0.0908064
0.518227 0.525628 0.0947585
0.537652 0.529198 0.0990768
0.557076 0.532311 0.103105
0.576288 0.535073 0.105653
0.595056 0.53756 0.105074
0.613275 0.539452 0.101198
0.63093 0.540627 0.0948043
0.648051 0.54107 0.0880293
0.664561 0.540841 0.0820478
0.680583 0.540169 0.0775311
0.696391 0.539269 0.0742351
0.7122 0.538201 0.071397
0.727779 0.53698 0.0689708
0.743282 0.535561 0.0665599
0.758129 0.53431 0.0646372
0.173922 0.490562 0.0370336
0.195819 0.492592 0.0419471
0.218158 0.494469 0.0467994
0.240497 0.496132 0.0516213
0.263905 0.497627 0.0564431
0.289799 0.499031 0.0611887
0.316152 0.500313 0.0662547
0.342947 0.501625 0.0716564
0.366796 0.50399 0.0771649
0.382742 0.508934 0.0819715
0.393393 0.515816 0.0853437
0.402716 0.522515 0.0871138
0.414191 0.528374 0.0879072
0.429526 0.53312 0.0881819
0.44773 0.536934 0.088365
0.467094 0.540337 0.0887617
0.485801 0.543893 0.0898299
0.503883 0.547646 0.0919203
0.52224 0.551614 0.0949722
0.541085 0.555581 0.0988785
0.56051 0.559243 0.103334
0.579889 0.562448 0.107683
0.598581 0.565194 0.111223
0.616693 0.567651 0.112291
0.634287 0.569757 0.110246
0.651453 0.571466 0.105348
0.66807 0.572686 0.0990311
0.684077 0.573236 0.0929732
0.699382 0.57319 0.0877089
0.714183 0.572747 0.083711
0.728786 0.572 0.080293
0.743572 0.570993 0.076997
0.758144 0.569863 0.0741894
0.17821 0.518166 0.0355993
0.200488 0.520088 0.0405585
0.223163 0.521859 0.0454261
0.245808 0.523445 0.0502937
0.269871 0.52488 0.0551919
0.296223 0.526238 0.0600748
0.323049 0.527489 0.0652476
0.350347 0.528725 0.0706798
0.376715 0.530404 0.076463
0.396277 0.534188 0.082063
0.40914 0.540398 0.0864881
0.418372 0.547005 0.0892195
0.428 0.553292 0.0908064
0.440589 0.558785 0.0915999
0.456611 0.563134 0.0919661
0.474693 0.56669 0.0923476
0.492576 0.56997 0.0931258
0.50988 0.573449 0.0945907
0.527337 0.577127 0.0968643
0.545342 0.581064 0.100069
0.564141 0.585031 0.104051
0.583322 0.588708 0.108751
0.602121 0.591928 0.113527
0.620218 0.594644 0.117845
0.637675 0.597086 0.120195
0.654688 0.59939 0.119799
0.671351 0.60145 0.116518
0.687572 0.603189 0.111223
0.70312 0.604456 0.105364
0.718013 0.605142 0.100023
0.732219 0.605325 0.0954299
0.74609 0.604959 0.0915999
0.759686 0.604334 0.0880446
0.182986 0.545251 0.0347295
0.205478 0.547189 0.0395361
0.228504 0.548943 0.0444495
0.251499 0.5505 0.0494545
0.276265 0.551919 0.0545052
0.303014 0.553201 0.059678
0.330251 0.554421 0.0648051
0.357946 0.555596 0.0703593
0.385657 0.556924 0.076173
0.408515 0.559762 0.0823529
0.424262 0.564981 0.0876936
0.434379 0.571206 0.0913558
0.443275 0.577569 0.0937819
0.453681 0.583535 0.0952468
0.467185 0.588525 0.0960403
0.483391 0.592493 0.0965896
0.499901 0.595819 0.0973831
0.516579 0.599008 0.098558
0.533349 0.602396 0.100267
0.550576 0.605997 0.102907
0.568582 0.609857 0.106477
0.587137 0.613764 0.110857
0.605631 0.617395 0.115724
0.623743 0.620569 0.120729
0.64126 0.623346 0.125505
0.658167 0.625879 0.128954
0.674586 0.628275 0.129976
0.690669 0.630564 0.128252
0.706401 0.632624 0.124163
0.721614 0.634379 0.118837
0.73611 0.635706 0.11368
0.750103 0.636454 0.10869
0.763439 0.636759 0.104692
0.188586 0.571817 0.0348516
0.211368 0.573754 0.0396887
0.234592 0.575555 0.0445258
0.25774 0.577142 0.0494392
0.283055 0.578546 0.0544594
0.310216 0.579812 0.0597391
0.337804 0.580972 0.0650187
0.36585 0.582086 0.0706493
0.394293 0.583261 0.076585
0.419455 0.585428 0.0830091
0.438315 0.589609 0.0890516
0.450095 0.595193 0.0936141
0.45922 0.601343 0.0968948
0.468391 0.607477 0.0991226
0.479545 0.612985 0.100542
0.493507 0.617456 0.101411
0.508309 0.621088 0.102495
0.523888 0.624231 0.1037
0.540108 0.627268 0.105333
0.556695 0.630564 0.10753
0.573953 0.634089 0.110552
0.591714 0.637858 0.114427
0.609644 0.641657 0.11902
0.627466 0.645243 0.124071
0.644938 0.648493 0.12929
0.66186 0.651362 0.134386
0.678203 0.653971 0.138689
0.694026 0.656443 0.140871
0.709468 0.658808 0.14052
0.724636 0.661082 0.137697
0.739422 0.663157 0.133227
0.753811 0.664836 0.128023
0.767437 0.666148 0.123293
0.194888 0.597894 0.0358282
0.217975 0.599817 0.0408026
0.241474 0.601587 0.0457465
0.26482 0.603159 0.0506752
0.290654 0.604578 0.0557107
0.318013 0.605829 0.0608835
0.345861 0.606973 0.0661173
0.374151 0.608057 0.0717632
0.402884 0.609171 0.0777447
0.429603 0.61091 0.0842908
0.45127 0.61416 0.0908064
0.465217 0.618967 0.0961013
0.475135 0.624704 0.100237
0.483986 0.630732 0.103349
0.493599 0.636484 0.105608
0.505043 0.641428 0.107195
0.518044 0.645426 0.108659
0.532341 0.648783 0.110094
0.547494 0.651789 0.11165
0.563546 0.654765 0.113634
0.580194 0.658 0.116182
0.597223 0.661418 0.119493
0.61445 0.665064 0.123659
0.631739 0.668803 0.128511
0.648905 0.672389 0.133761
0.665705 0.675685 0.139132
0.682033 0.678645 0.144427
0.697795 0.681331 0.149294
0.713024 0.683833 0.152377
0.727871 0.686259 0.153216
0.742412 0.688594 0.151583
0.756878 0.690791 0.147768
0.770825 0.69279 0.143008
0.201907 0.62356 0.0377203
0.225299 0.625406 0.0428168
0.248997 0.627115 0.0478676
0.272602 0.628641 0.052903
0.298924 0.630045 0.0580148
0.326513 0.631266 0.0632792
0.354574 0.632364 0.0687419
0.383093 0.633417 0.0742809
0.412009 0.634485 0.0803082
0.439521 0.635981 0.0868849
0.463218 0.638544 0.0937057
0.479576 0.642496 0.0995651
0.490837 0.647684 0.104433
0.499931 0.653422 0.108339
0.508736 0.659144 0.111376
0.518242 0.664363 0.113756
0.529274 0.668772 0.115679
0.54197 0.672465 0.117372
0.556008 0.675639 0.119066
0.571084 0.678538 0.120897
0.587213 0.681468 0.123201
0.603586 0.684627 0.126055
0.620127 0.687968 0.129686
0.636774 0.691554 0.134112
0.653452 0.695216 0.139193
0.669947 0.698787 0.144579
0.686122 0.702113 0.150088
0.701823 0.705119 0.155489
0.716976 0.707835 0.160632
0.731655 0.710384 0.164416
0.745922 0.71284 0.166186
0.760006 0.715145 0.165438
0.7738 0.717403 0.162615
0.209659 0.648707 0.0404364
0.233295 0.650477 0.045716
0.257145 0.65211 0.0508736
0.28101 0.653574 0.0560464
0.30782 0.654902 0.0612802
0.335607 0.656062 0.0666514
0.363851 0.657099 0.0722057
0.392554 0.658106 0.0778668
0.421637 0.659113 0.0839857
0.44947 0.660471 0.0906844
0.474586 0.662516 0.0976272
0.493141 0.665705 0.103883
0.50602 0.670237 0.1093
0.51574 0.675547 0.113909
0.524269 0.681056 0.117708
0.53254 0.686336 0.120851
0.541878 0.691096 0.123339
0.552972 0.69514 0.125383
0.565606 0.698604 0.12726
0.57969 0.70164 0.129183
0.594858 0.704494 0.131289
0.610712 0.707378 0.133898
0.626627 0.71046 0.137041
0.642618 0.713726 0.140917
0.658671 0.717235 0.145541
0.674723 0.720836 0.150759
0.690593 0.724346 0.156252
0.706127 0.727672 0.161822
0.721187 0.730694 0.167254
0.735775 0.73344 0.172488
0.749874 0.736019 0.176806
0.763729 0.738399 0.179171
0.777173 0.740734 0.179461
0.218082 0.67332 0.0440986
0.241962 0.674983 0.0495155
0.265919 0.676524 0.0548409
0.290105 0.677897 0.0601358
0.317342 0.679149 0.065507
0.345296 0.680232 0.0710002
0.373709 0.681193 0.0766918
0.402548 0.682124 0.0824598
0.431678 0.68307 0.0887312
0.459586 0.684367 0.095491
0.485679 0.686015 0.102571
0.505943 0.688579 0.109056
0.520546 0.692409 0.1149
0.531197 0.697215 0.120043
0.539635 0.702327 0.124544
0.547448 0.7075 0.128374
0.555673 0.712428 0.131487
0.565148 0.716823 0.133974
0.57641 0.720607 0.13611
0.589303 0.723903 0.138155
0.603494 0.726864 0.140291
0.618433 0.729641 0.142641
0.633814 0.732464 0.145464
0.649226 0.735485 0.148852
0.664652 0.738689 0.152911
0.680125 0.742092 0.157687
0.695552 0.745602 0.162997
0.710781 0.749065 0.168536
0.725673 0.752331 0.174136
0.740124 0.755352 0.179583
0.754131 0.758099 0.184848
0.767834 0.760601 0.189456
0.781094 0.763012 0.192447
0.227268 0.697322 0.0487373
0.251347 0.698894 0.0543069
0.27538 0.700328 0.0597848
0.299931 0.701595 0.0652171
0.327535 0.702754 0.0707408
0.355612 0.703746 0.0763561
0.384146 0.704631 0.0821851
0.413077 0.705486 0.0881056
0.442039 0.706386 0.0944991
0.470085 0.707591 0.10135
0.496696 0.708949 0.108446
0.518074 0.711055 0.115099
0.534463 0.714183 0.121202
0.546151 0.718441 0.126741
0.554803 0.72311 0.131792
0.562524 0.728008 0.136202
0.570169 0.732937 0.139895
0.5785 0.737575 0.142931
0.588266 0.741695 0.145418
0.599939 0.745281 0.147646
0.613031 0.74844 0.149844
0.626993 0.751263 0.152117
0.64155 0.753948 0.15465
0.656428 0.75671 0.157671
0.671305 0.75967 0.161227
0.686183 0.762768 0.165454
0.701045 0.766079 0.170306
0.715862 0.769482 0.175708
0.730465 0.772854 0.181292
0.744747 0.776074 0.186923
0.758618 0.779065 0.192386
0.772213 0.78175 0.197528
0.785336 0.784268 0.202396
0.237171 0.720699 0.0543069
0.261418 0.722148 0.0600595
0.285466 0.723491 0.0657054
0.31046 0.724651 0.0712749
0.338369 0.725704 0.0769818
0.366537 0.726589 0.0827344
0.395132 0.727382 0.0886702
0.42414 0.728161 0.0947127
0.452827 0.729015 0.101213
0.480995 0.730129 0.108156
