luts/smoky-color.cube
TITLE "Generated by Resolve"
#LUMIXPHOTOSTYLE STD
LUT_3D_SIZE 5
0.0868086 0.0626078 0.0476844
0.200183 0.0669261 0.0519265
0.36289 0.0646525 0.0518502
0.519081 0.0640116 0.0437629
0.666926 0.0664988 0.0619516
0.141054 0.245808 0.055787
0.26215 0.272694 0.0741588
0.445182 0.278874 0.0682078
0.585138 0.278019 0.0478981
0.715999 0.293294 0.0434577
0.16994 0.462516 0.0387427
0.355566 0.477806 0.0782635
0.47982 0.517708 0.0878462
0.63093 0.540627 0.0948043
0.758129 0.53431 0.0646372
0.218082 0.67332 0.0440986
0.431678 0.68307 0.0887312
0.555673 0.712428 0.131487
0.664652 0.738689 0.152911
0.781094 0.763012 0.192447
0.309026 0.846845 0.105333
0.524666 0.850858 0.153689
0.668177 0.86154 0.201038
0.73138 0.889616 0.233021
0.82118 0.907973 0.26038
0.0672465 0.0855726 0.17026
0.193301 0.078233 0.22916
0.349035 0.0776532 0.26891
0.510704 0.0756085 0.305592
0.66389 0.0768292 0.347646
0.128145 0.261906 0.232227
0.279973 0.275257 0.279454
0.449195 0.28658 0.298955
0.607111 0.293675 0.304814
0.751339 0.304112 0.334173
0.154192 0.47541 0.259907
0.344518 0.484993 0.310506
0.495048 0.510735 0.342245
0.640497 0.518837 0.333242
0.750668 0.521172 0.315038
0.198123 0.684581 0.283772
0.411017 0.691051 0.339315
0.594476 0.700282 0.388418
0.683513 0.733196 0.418936
0.801678 0.761105 0.44065
0.291829 0.854704 0.35021
0.503014 0.858396 0.399298
0.671443 0.863249 0.441444
0.76733 0.879622 0.485924
0.840116 0.903975 0.512444
0.0339818 0.109789 0.311192
0.184283 0.084947 0.403586
0.340978 0.0842908 0.443198
0.502831 0.0831922 0.485924
0.656764 0.0853285 0.534081
0.035584 0.301396 0.35169
0.223407 0.312963 0.41796
0.437812 0.300557 0.491524
0.594415 0.308537 0.536904
0.736126 0.319783 0.585412
0.125505 0.481697 0.420829
0.320745 0.493828 0.471702
0.50837 0.510292 0.520165
0.644678 0.524666 0.539437
0.770214 0.540551 0.561059
0.181216 0.691218 0.47686
0.392218 0.696406 0.525933
0.582055 0.70341 0.566247
0.692973 0.723095 0.598306
0.801465 0.735515 0.594858
0.276341 0.858167 0.540368
0.480613 0.860365 0.580865
0.656748 0.863478 0.616785
0.779431 0.869718 0.65066
0.84863 0.895293 0.680369
0 0.131334 0.469001
0.172274 0.0939803 0.606302
0.330114 0.0926223 0.639124
0.496269 0.0920119 0.676539
0.652049 0.094789 0.718029
0 0.355032 0.425284
0.161868 0.355566 0.580438
0.427665 0.314672 0.685069
0.58967 0.321996 0.717983
0.730694 0.333944 0.756481
0.00874342 0.50956 0.548562
0.199878 0.531868 0.584604
0.450874 0.547875 0.653376
0.639368 0.539162 0.7187
0.764263 0.55552 0.756603
0.150164 0.684153 0.607416
0.349859 0.689647 0.650813
0.556405 0.708003 0.700191
0.699916 0.724926 0.738857
0.809735 0.738994 0.759762
0.2663 0.862181 0.690929
0.464088 0.86479 0.728679
0.645808 0.867872 0.759594
0.769345 0.873014 0.785809
0.861738 0.887053 0.813275
0 0.154421 0.625895
0.159518 0.106508 0.774044
0.315724 0.104585 0.804303
0.488716 0.103868 0.838773
0.646418 0.107149 0.871412
0 0.400854 0.536812
0.0987564 0.392782 0.709148
0.411048 0.334386 0.846418
0.580468 0.339055 0.869245
0.723232 0.351034 0.894026
0 0.564904 0.660304
0.114733 0.603067 0.671946
0.379232 0.584665 0.759441
0.632395 0.55729 0.861433
0.761395 0.571466 0.885405
0.0498207 0.70634 0.723339
0.242237 0.715572 0.753048
0.47509 0.738384 0.785107
0.657481 0.755123 0.832731
0.807691 0.751675 0.890623
0.227344 0.846387 0.776562
0.411017 0.843549 0.802945
0.605432 0.857359 0.84155
0.736568 0.87454 0.878355
0.858122 0.891112 0.90869
