luts/smoky-color.cube
TITLE "Generated by Resolve"
#LUMIXPHOTOSTYLE STD
LUT_3D_SIZE 9
0.0868086 0.0626078 0.0476844
0.134371 0.0664836 0.049836
0.200183 0.0669261 0.0519265
0.279423 0.0660716 0.0519265
0.36289 0.0646525 0.0518502
0.441199 0.0639963 0.0439307
0.519081 0.0640116 0.0437629
0.595956 0.0639811 0.0568551
0.666926 0.0664988 0.0619516
0.117525 0.144533 0.0560006
0.164767 0.154833 0.0660105
0.236637 0.158099 0.066041
0.311757 0.158816 0.0564736
0.391943 0.160662 0.0482338
0.472587 0.162676 0.0404212
0.55227 0.166522 0.0356451
0.626749 0.171817 0.032929
0.696895 0.177798 0.0340276
0.141054 0.245808 0.055787
0.203174 0.255512 0.0717632
0.26215 0.272694 0.0741588
0.355444 0.281315 0.0742657
0.445182 0.278874 0.0682078
0.513863 0.275608 0.0546731
0.585138 0.278019 0.0478981
0.652934 0.284535 0.044892
0.715999 0.293294 0.0434577
0.155047 0.354574 0.0458228
0.236072 0.36202 0.0644388
0.298634 0.379522 0.0790417
0.373907 0.396597 0.0792248
0.464683 0.409522 0.0905013
0.546914 0.410605 0.0692912
0.622339 0.403708 0.0621042
0.681514 0.400885 0.0565957
0.737346 0.405722 0.0547799
0.16994 0.462516 0.0387427
0.258244 0.469932 0.0578927
0.355566 0.477806 0.0782635
0.402716 0.502678 0.0851759
0.47982 0.517708 0.0878462
0.557076 0.532311 0.103105
0.63093 0.540627 0.0948043
0.696391 0.539269 0.0742351
0.758129 0.53431 0.0646372
0.188586 0.571817 0.0348516
0.283055 0.578546 0.0544594
0.394293 0.583261 0.076585
0.45922 0.601343 0.0968948
0.508309 0.621088 0.102495
0.573953 0.634089 0.110552
0.644938 0.648493 0.12929
0.709468 0.658808 0.14052
0.767437 0.666148 0.123293
0.218082 0.67332 0.0440986
0.317342 0.679149 0.065507
0.431678 0.68307 0.0887312
0.520546 0.692409 0.1149
0.555673 0.712428 0.131487
0.603494 0.726864 0.140291
0.664652 0.738689 0.152911
0.725673 0.752331 0.174136
0.781094 0.763012 0.192447
0.259037 0.765438 0.0683452
0.361715 0.769543 0.0921645
0.475929 0.772274 0.11696
0.572625 0.777081 0.143664
0.614099 0.79089 0.165774
0.64625 0.807919 0.180163
0.694209 0.819318 0.19028
0.747341 0.829831 0.20528
0.799435 0.841962 0.2271
0.309026 0.846845 0.105333
0.412467 0.849332 0.129366
0.524666 0.850858 0.153689
0.618677 0.8533 0.178729
0.668177 0.86154 0.201038
0.697643 0.876371 0.220417
0.73138 0.889616 0.233021
0.775418 0.898741 0.244358
0.82118 0.907973 0.26038
0.0801709 0.0732586 0.100801
0.133989 0.0726024 0.12665
0.194919 0.0737163 0.14432
0.272511 0.0730297 0.161563
0.355825 0.07187 0.17879
0.440177 0.0690623 0.193408
0.525139 0.0669871 0.206561
0.603372 0.0669718 0.219196
0.677485 0.0683757 0.232486
0.114931 0.151781 0.130556
0.172854 0.157412 0.150607
0.240558 0.162402 0.155138
0.324315 0.164599 0.161852
0.411429 0.165545 0.167269
0.491951 0.167025 0.16054
0.575204 0.16849 0.162417
0.651133 0.172351 0.166812
0.72639 0.175402 0.196124
0.137026 0.253132 0.145815
0.206943 0.26038 0.165698
0.270665 0.273152 0.178988
0.35877 0.277836 0.180163
0.436561 0.278828 0.169238
0.510842 0.281239 0.160479
0.587457 0.286641 0.155169
0.659739 0.294316 0.153597
0.724529 0.303288 0.154833
0.149981 0.360952 0.148119
0.231403 0.367697 0.171817
0.319738 0.375265 0.193332
0.381491 0.394568 0.200137
0.470817 0.404852 0.203418
0.548898 0.401099 0.191089
0.611978 0.397055 0.175967
0.675914 0.401266 0.169116
0.735698 0.410407 0.168566
0.163378 0.468574 0.148959
0.251865 0.474922 0.173648
0.352071 0.480522 0.195346
0.419821 0.49752 0.213764
0.48809 0.514733 0.218601
0.564614 0.52961 0.234379
0.639277 0.534661 0.212924
0.704845 0.525933 0.195331
0.757992 0.520577 0.187549
0.180179 0.577783 0.150973
0.275227 0.583261 0.176974
0.383154 0.588022 0.200198
0.480919 0.595514 0.225498
0.522072 0.617136 0.239017
0.583978 0.631907 0.248035
0.656046 0.648341 0.268757
0.721263 0.659327 0.265263
0.774777 0.659251 0.241718
0.20856 0.679408 0.164141
0.307378 0.684749 0.189822
0.420127 0.688548 0.214664
0.52462 0.693217 0.241306
0.580194 0.706371 0.265507
0.617288 0.724865 0.277607
0.67628 0.738323 0.290196
0.737987 0.753384 0.311879
0.792905 0.763622 0.322988
0.250111 0.770687 0.191836
0.351873 0.774701 0.218372
0.464805 0.77792 0.242359
0.566705 0.781628 0.267964
0.635233 0.787427 0.292897
0.667765 0.803952 0.31342
0.707027 0.818265 0.324956
0.758755 0.82945 0.339849
0.811215 0.842313 0.362387
0.300801 0.851164 0.230289
0.402853 0.853681 0.255955
0.513573 0.855741 0.278798
0.61088 0.858167 0.302571
0.679118 0.861112 0.32517
0.721325 0.871427 0.348623
0.748409 0.886595 0.365255
0.78706 0.897414 0.376822
0.83209 0.907012 0.392691
0.0672465 0.0855726 0.17026
0.132631 0.077348 0.21001
0.193301 0.078233 0.22916
0.268391 0.077821 0.249165
0.349035 0.0776532 0.26891
0.429496 0.0765393 0.287449
0.510704 0.0756085 0.305592
0.58912 0.075761 0.325612
0.66389 0.0768292 0.347646
0.0864881 0.171923 0.189853
0.158267 0.173068 0.224674
0.237079 0.169574 0.255116
0.31754 0.17258 0.276677
0.403326 0.174655 0.298848
0.487312 0.174762 0.320455
0.574044 0.17467 0.340871
0.655314 0.176196 0.358862
0.727855 0.180179 0.37525
0.128145 0.261906 0.232227
0.201465 0.268788 0.256672
0.279973 0.275257 0.279454
0.363943 0.281926 0.28983
0.449195 0.28658 0.298955
0.527749 0.290089 0.29955
0.607111 0.293675 0.304814
0.680461 0.298741 0.31136
0.751339 0.304112 0.334173
0.141527 0.368643 0.251179
0.225772 0.374823 0.276799
0.315358 0.380713 0.298695
0.38938 0.393423 0.313756
0.472831 0.39913 0.316243
0.539788 0.399954 0.304448
0.609293 0.404257 0.29688
0.677165 0.412512 0.294606
0.740063 0.422232 0.295308
0.154192 0.47541 0.259907
0.245106 0.480766 0.286015
0.344518 0.484993 0.310506
0.438972 0.491981 0.332341
0.495048 0.510735 0.342245
0.569131 0.523293 0.348287
0.640497 0.518837 0.333242
0.695293 0.515251 0.319615
0.750668 0.521172 0.315038
0.170489 0.583383 0.267643
0.267231 0.587854 0.295293
0.374823 0.591226 0.321813
0.47567 0.596674 0.345266
0.540185 0.609262 0.36701
0.590784 0.626429 0.37644
0.661555 0.642618 0.394934
0.725933 0.650568 0.379339
0.778775 0.641154 0.356695
0.198123 0.684581 0.283772
0.298207 0.688487 0.311864
0.411017 0.691051 0.339315
0.514076 0.695445 0.363699
0.594476 0.700282 0.388418
0.63183 0.717601 0.406729
0.683513 0.733196 0.418936
0.745556 0.749615 0.440772
0.801678 0.761105 0.44065
0.240452 0.775082 0.312657
0.341283 0.778485 0.33959
0.454566 0.780499 0.365911
0.556329 0.783871 0.38996
0.633188 0.787182 0.413108
0.688579 0.795407 0.437491
0.718914 0.812696 0.451896
0.766934 0.825772 0.465904
0.819944 0.840146 0.487648
0.291829 0.854704 0.35021
0.392645 0.856962 0.375937
0.503014 0.858396 0.399298
0.600046 0.860975 0.420676
0.671443 0.863249 0.441444
0.7346 0.866712 0.464805
0.76733 0.879622 0.485924
0.79733 0.893385 0.498039
0.840116 0.903975 0.512444
0.0505531 0.0981918 0.243458
0.127947 0.0814527 0.294438
0.189944 0.0815442 0.312673
0.265064 0.0811475 0.330709
0.34461 0.0812848 0.34995
0.425055 0.0806592 0.368719
0.506127 0.0796368 0.389731
0.584787 0.0799573 0.412573
0.659098 0.08159 0.437247
0.05037 0.198566 0.227863
0.13753 0.19118 0.300893
0.23212 0.175479 0.34052
0.313848 0.177844 0.360464
0.398901 0.180331 0.382895
0.481285 0.18143 0.404562
0.563607 0.182895 0.427222
0.641413 0.18587 0.451621
0.713085 0.190295 0.476768
0.076997 0.278309 0.299779
0.158099 0.290486 0.318593
0.2542 0.293248 0.351247
0.357656 0.28896 0.384024
0.441306 0.294469 0.405203
0.519966 0.298024 0.426322
0.600076 0.301259 0.449134
0.676844 0.305028 0.471046
0.747646 0.310124 0.489998
0.127169 0.373083 0.331792
0.21384 0.380026 0.357198
0.304479 0.387442 0.381003
0.39704 0.394919 0.404608
0.477089 0.40267 0.413184
0.55053 0.40824 0.420325
0.624521 0.413794 0.427436
0.696254 0.419638 0.442603
0.757839 0.427939 0.443534
0.144137 0.481788 0.355932
0.236378 0.486961 0.381872
0.336309 0.490791 0.404562
0.431983 0.496696 0.42475
0.501579 0.508766 0.439612
0.571313 0.514336 0.443229
0.632776 0.516884 0.436683
0.694087 0.523766 0.433936
0.753292 0.534035 0.43595
0.161013 0.587961 0.371252
0.258549 0.592294 0.397635
0.366079 0.595071 0.421851
0.468421 0.599313 0.445106
0.550759 0.605142 0.465614
0.596124 0.621607 0.478691
0.664637 0.636057 0.488304
0.725124 0.632059 0.475807
0.771649 0.628595 0.467048
0.189181 0.688014 0.390707
0.288945 0.69163 0.417197
0.401465 0.693416 0.442252
0.506416 0.696574 0.466621
0.587182 0.701152 0.487434
0.646647 0.709606 0.508751
0.687907 0.727138 0.520745
0.748547 0.743236 0.53814
0.803861 0.752102 0.530358
0.231815 0.777813 0.419379
0.330434 0.780896 0.444251
0.444434 0.781842 0.468925
0.547906 0.784237 0.49247
0.624704 0.787625 0.51223
0.691661 0.791287 0.533547
0.73167 0.804578 0.551843
0.771099 0.819974 0.564446
0.824109 0.835477 0.583047
0.283268 0.856809 0.454871
0.381552 0.858778 0.478172
0.491341 0.859464 0.499489
0.591119 0.861036 0.52134
0.662989 0.86331 0.539574
0.727443 0.86595 0.558907
0.780331 0.871855 0.580713
0.806806 0.886702 0.594949
0.844862 0.899336 0.608118
0.0339818 0.109789 0.311192
0.12195 0.0854963 0.382544
0.184283 0.084947 0.403586
0.260716 0.0842298 0.422721
0.340978 0.0842908 0.443198
0.422644 0.0839551 0.464256
0.502831 0.0831922 0.485924
0.581964 0.0836042 0.509071
0.656764 0.0853285 0.534081
0.0237278 0.219577 0.282826
0.115679 0.208896 0.371389
0.224979 0.181674 0.429496
0.310048 0.182681 0.45127
0.396155 0.185031 0.474754
0.479133 0.186618 0.498222
0.560021 0.188418 0.52163
0.637598 0.191623 0.545754
0.708614 0.196567 0.57023
0.035584 0.301396 0.35169
0.112779 0.319051 0.355016
0.223407 0.312963 0.41796
0.351354 0.295521 0.470512
0.437812 0.300557 0.491524
0.516747 0.304509 0.513695
0.594415 0.308537 0.536904
0.668147 0.313542 0.56083
0.736126 0.319783 0.585412
0.0670787 0.38146 0.391318
0.153704 0.393393 0.414954
0.254108 0.406439 0.434043
0.369055 0.411399 0.4692
0.47245 0.408759 0.503853
0.545754 0.41442 0.523919
0.618753 0.420371 0.545892
0.689448 0.426734 0.569146
0.756359 0.43389 0.590387
0.125505 0.481697 0.420829
0.218921 0.48777 0.446372
0.320745 0.493828 0.471702
0.420401 0.50248 0.496742
0.50837 0.510292 0.520165
0.576257 0.517388 0.529137
0.644678 0.524666 0.539437
0.70811 0.532692 0.544717
0.770214 0.540551 0.561059
0.15108 0.59266 0.45185
0.249424 0.597009 0.478553
0.356664 0.599786 0.503182
0.461051 0.603845 0.524666
0.545266 0.609445 0.543008
0.603128 0.619486 0.558389
0.667185 0.62649 0.559442
0.719463 0.628824 0.556619
0.771649 0.636362 0.556451
0.181216 0.691218 0.47686
0.280598 0.694713 0.50222
0.392218 0.696406 0.525933
0.498848 0.699275 0.547021
0.582055 0.70341 0.566247
0.649104 0.708339 0.584009
0.692973 0.723095 0.598306
0.751278 0.737926 0.60798
0.801465 0.735515 0.594858
0.224659 0.77998 0.506523
0.322118 0.782712 0.52961
0.434607 0.783612 0.55198
0.539681 0.785626 0.572274
0.61912 0.78854 0.590738
0.684703 0.792218 0.607477
0.740093 0.799466 0.626551
0.774975 0.815229 0.639063
0.826337 0.830533 0.654963
0.276341 0.858167 0.540368
0.37232 0.859831 0.56141
0.480613 0.860365 0.580865
0.582361 0.861509 0.599908
0.656748 0.863478 0.616785
0.72018 0.866163 0.632425
0.779431 0.869718 0.65066
0.816938 0.880552 0.66743
0.84863 0.895293 0.680369
0.0158999 0.12076 0.387793
0.113176 0.0909438 0.48513
0.178241 0.088838 0.508324
0.255146 0.087892 0.526665
0.336614 0.0877852 0.54461
0.419852 0.0877394 0.564172
0.499641 0.0872511 0.584497
0.579507 0.0876783 0.606943
0.654536 0.0896773 0.63035
0.000320439 0.237247 0.334173
0.0919356 0.226795 0.453849
0.216648 0.188983 0.533852
0.303822 0.188449 0.555337
0.39266 0.190158 0.577081
0.477714 0.191989 0.598321
0.55761 0.194125 0.619638
0.634653 0.197681 0.64155
0.704982 0.203067 0.663218
0 0.327855 0.392355
0.0694743 0.345525 0.413184
0.192248 0.333959 0.498177
0.343923 0.303441 0.56968
0.433982 0.30692 0.5888
0.515404 0.310811 0.608392
0.592065 0.315038 0.629602
0.665354 0.320226 0.65185
0.733181 0.326696 0.674708
0.0151522 0.403983 0.451102
0.104555 0.418082 0.471305
0.198566 0.43537 0.474052
0.336172 0.430793 0.541299
0.467018 0.416098 0.593408
0.543816 0.42121 0.611582
0.616449 0.427268 0.632395
0.685771 0.434241 0.654688
0.750042 0.442344 0.677653
0.0642405 0.484886 0.480095
0.148302 0.494026 0.505943
0.252003 0.505577 0.529015
0.36936 0.520974 0.549477
0.482216 0.528069 0.58558
0.57322 0.524529 0.619318
0.641245 0.531594 0.638941
0.705501 0.539513 0.660212
0.766461 0.547845 0.682353
0.129458 0.586786 0.513329
0.225605 0.591226 0.538003
0.333303 0.596841 0.563058
0.443915 0.605234 0.588876
0.532082 0.615091 0.613367
0.606104 0.622614 0.632639
0.671839 0.629618 0.642374
0.731411 0.637537 0.654597
0.78555 0.646281 0.660624
0.172656 0.693721 0.553445
0.27129 0.697963 0.578851
0.382498 0.700694 0.602548
0.491081 0.703716 0.62388
0.576913 0.708034 0.642329
0.644297 0.712566 0.658137
0.702052 0.720714 0.673243
0.753353 0.729366 0.672312
0.79823 0.730526 0.670939
0.219226 0.782971 0.586694
0.315633 0.785611 0.608942
0.425849 0.786587 0.629465
0.532097 0.788434 0.648615
0.613687 0.791379 0.665492
0.679942 0.794461 0.681208
0.740795 0.798993 0.69752
0.782742 0.810773 0.712062
0.829175 0.82562 0.720607
0.270878 0.86038 0.619058
0.365194 0.86183 0.638666
0.472068 0.86215 0.656504
0.57438 0.863188 0.673823
0.650828 0.865095 0.689342
0.714961 0.867185 0.704402
0.773648 0.870634 0.719692
0.821225 0.877211 0.737133
0.85388 0.890715 0.750668
0 0.131334 0.469001
0.100252 0.0991531 0.57998
0.172274 0.0939803 0.606302
0.24802 0.0929732 0.623346
0.330114 0.0926223 0.639124
0.415488 0.0925154 0.657801
0.496269 0.0920119 0.676539
0.576715 0.0925765 0.696971
0.652049 0.094789 0.718029
0 0.251911 0.390249
0.0674296 0.243717 0.538079
0.2056 0.199329 0.63679
0.296345 0.195514 0.657664
0.387106 0.196429 0.676463
0.474891 0.198291 0.693904
0.554238 0.200763 0.710597
0.630701 0.204761 0.728283
0.701198 0.210315 0.747005
0 0.355032 0.425284
0.0390784 0.368261 0.477546
0.161868 0.355566 0.580438
0.334936 0.313649 0.669703
0.427665 0.314672 0.685069
0.512901 0.317937 0.701045
0.58967 0.321996 0.717983
0.662913 0.32726 0.736629
0.730694 0.333944 0.756481
0 0.431769 0.510094
0.0578622 0.450034 0.514366
0.151888 0.464759 0.539757
0.298573 0.450874 0.614984
0.459907 0.425162 0.686244
0.541176 0.428641 0.700862
0.614664 0.434287 0.717266
0.683986 0.441398 0.735988
0.748058 0.449714 0.755856
0.00874342 0.50956 0.548562
0.0963302 0.520684 0.568521
0.199878 0.531868 0.584604
0.313054 0.549661 0.59057
0.450874 0.547875 0.653376
0.569421 0.533089 0.702937
0.639368 0.539162 0.7187
0.704265 0.546853 0.737041
0.764263 0.55552 0.756603
0.075639 0.589197 0.572152
0.155901 0.594598 0.596063
0.256443 0.601099 0.618372
0.377691 0.614588 0.641886
0.491249 0.632044 0.66363
0.582177 0.638911 0.692317
0.669978 0.636454 0.727947
0.729946 0.643915 0.745037
0.78497 0.652262 0.763348
0.150164 0.684153 0.607416
0.242542 0.685893 0.628412
0.349859 0.689647 0.650813
0.4636 0.697887 0.675959
0.556405 0.708003 0.700191
0.624445 0.717144 0.72195
0.699916 0.724926 0.738857
0.759686 0.731212 0.75053
0.809735 0.738994 0.759762
0.208453 0.78143 0.65272
0.304753 0.783993 0.675013
0.41326 0.787076 0.697032
0.522896 0.791348 0.718502
0.608667 0.795514 0.736477
0.675303 0.798856 0.750896
0.736782 0.803006 0.764599
0.786709 0.810376 0.777737
0.830655 0.81828 0.776867
0.2663 0.862181 0.690929
0.360204 0.863935 0.711009
0.464088 0.86479 0.728679
0.566766 0.865797 0.745068
0.645808 0.867872 0.759594
0.709911 0.869978 0.772564
0.769345 0.873014 0.785809
0.821653 0.877302 0.800015
0.861738 0.887053 0.813275
0 0.142535 0.550546
0.0839551 0.109514 0.662211
0.166094 0.0998398 0.694057
0.240742 0.0989242 0.70988
0.323018 0.0982528 0.725093
0.410269 0.0981308 0.743282
0.492714 0.0975357 0.760769
0.573571 0.0982376 0.778729
0.649378 0.100679 0.797436
0 0.268238 0.453101
0.0432441 0.258747 0.614374
0.189456 0.21326 0.722438
0.287922 0.204059 0.74612
0.379141 0.20441 0.762631
0.469276 0.206302 0.777493
0.549203 0.208637 0.79118
0.626352 0.212634 0.805829
0.697307 0.21825 0.821851
0 0.379278 0.476585
0.0161593 0.386404 0.537179
0.130449 0.375326 0.651499
0.320745 0.327962 0.757839
0.419928 0.323888 0.771878
0.508492 0.326299 0.785107
0.586175 0.329793 0.79855
0.659937 0.335058 0.813062
0.727306 0.342153 0.828855
0 0.45951 0.558206
0.0129549 0.484367 0.555688
0.118746 0.493629 0.607523
0.258625 0.470542 0.67747
0.451667 0.437018 0.771069
0.536675 0.437568 0.782437
0.611627 0.442283 0.795331
0.68188 0.449149 0.809964
0.746029 0.457527 0.826398
0 0.538277 0.608835
0.0585946 0.552865 0.628229
0.153796 0.567636 0.623835
0.269383 0.578302 0.654246
0.415351 0.566903 0.711498
0.564813 0.543526 0.781353
0.63653 0.547555 0.793606
0.702754 0.554681 0.807843
0.763012 0.563241 0.824063
0.019028 0.611902 0.641062
0.109163 0.620478 0.660044
0.211872 0.627604 0.674739
0.334417 0.639185 0.689555
0.443488 0.658763 0.700359
0.559304 0.65742 0.749706
0.666392 0.644968 0.797711
0.728283 0.651453 0.811368
0.784192 0.659388 0.827024
0.100847 0.687251 0.662409
0.185107 0.690272 0.682429
0.278782 0.691936 0.700099
0.394125 0.700023 0.721279
0.505745 0.71603 0.744884
0.59472 0.731838 0.763821
0.677501 0.738888 0.786709
0.757565 0.737804 0.821485
0.809216 0.744671 0.83592
0.184787 0.770642 0.69688
0.275959 0.770443 0.713741
0.375631 0.771695 0.731197
0.487007 0.778592 0.753338
0.579858 0.788327 0.775921
0.648646 0.797177 0.796017
0.714366 0.806195 0.81561
0.783642 0.813947 0.830259
0.836866 0.819745 0.84126
0.251469 0.855283 0.74107
0.344259 0.855924 0.758785
0.446769 0.858137 0.777203
0.553307 0.863539 0.797589
0.638697 0.86891 0.815579
0.70489 0.872908 0.830167
0.765805 0.87689 0.843168
0.818631 0.881315 0.855299
0.861646 0.888121 0.866911
0 0.154421 0.625895
0.0654459 0.121569 0.734234
0.159518 0.106508 0.774044
0.233799 0.105653 0.78883
0.315724 0.104585 0.804303
0.404715 0.104417 0.82237
0.488716 0.103868 0.838773
0.570031 0.104585 0.85478
0.646418 0.107149 0.871412
0 0.286885 0.520714
0.018616 0.27393 0.683375
0.167269 0.229526 0.794934
0.279362 0.213367 0.824994
0.370382 0.213336 0.839246
0.462516 0.215213 0.852399
0.543496 0.217365 0.864286
0.621607 0.221164 0.876814
0.693294 0.226688 0.8907
0 0.400854 0.536812
0 0.40412 0.595682
0.0987564 0.392782 0.709148
0.298131 0.346136 0.828779
0.411048 0.334386 0.846418
0.502113 0.33611 0.858045
0.580468 0.339055 0.869245
0.655314 0.344045 0.880919
0.723232 0.351034 0.894026
0 0.489921 0.585901
0 0.511391 0.610971
0.0960098 0.516518 0.664683
0.220279 0.489967 0.728939
0.436576 0.45362 0.844434
0.53135 0.447974 0.855528
0.607126 0.451469 0.865934
0.678904 0.457679 0.87747
0.743694 0.465827 0.890684
0 0.564904 0.660304
0.0223545 0.583261 0.66717
0.114733 0.603067 0.671946
0.237659 0.606363 0.713893
0.379232 0.584665 0.759441
0.559731 0.556924 0.852033
0.632395 0.55729 0.861433
0.700404 0.563333 0.872587
0.761395 0.571466 0.885405
0 0.637903 0.695857
0.0777752 0.649851 0.713771
0.179767 0.660227 0.72694
0.288899 0.671687 0.721508
0.41117 0.685237 0.753613
0.535805 0.675929 0.798688
0.661845 0.655543 0.862074
0.72604 0.659709 0.872862
0.782986 0.666987 0.885344
0.0498207 0.70634 0.723339
0.141253 0.711421 0.740047
0.242237 0.715572 0.753048
0.360678 0.722301 0.766415
0.47509 0.738384 0.785107
0.563226 0.757153 0.796719
0.657481 0.755123 0.832731
0.754513 0.745769 0.878813
0.807691 0.751675 0.890623
0.141222 0.774334 0.744305
0.227695 0.775402 0.760571
0.317861 0.774319 0.774044
0.422507 0.777996 0.791058
0.525917 0.789578 0.812543
0.610651 0.804059 0.832532
0.692546 0.819242 0.850355
0.764935 0.825925 0.869383
0.835126 0.825635 0.901411
0.227344 0.846387 0.776562
0.316426 0.84509 0.790249
0.411017 0.843549 0.802945
0.514504 0.848554 0.821286
0.605432 0.857359 0.84155
0.673228 0.865614 0.859739
0.736568 0.87454 0.878355
0.796399 0.883513 0.895735
0.858122 0.891112 0.90869
