luts/t-and-o.cube
TITLE "Generated by LUMIX Lab"
#LUMIXPHOTOSTYLE NAT
LUT_3D_SIZE 9
0.000000 0.000000 0.000000
0.070588 0.000000 0.000000
0.176471 0.000000 0.000000
0.321569 0.000000 0.000000
0.454902 0.000000 0.003922
0.592157 0.000000 0.000000
0.713726 0.000000 0.000000
0.827451 0.000000 0.000000
0.945098 0.003922 0.000000
0.000000 0.074510 0.015686
0.070588 0.074510 0.007843
0.188235 0.074510 0.003922
0.317647 0.070588 0.000000
0.458824 0.070588 0.000000
0.607843 0.070588 0.000000
0.733333 0.078431 0.000000
0.854902 0.082353 0.000000
0.956863 0.086275 0.000000
0.003922 0.168627 0.027451
0.062745 0.172549 0.027451
0.184314 0.180392 0.011765
0.325490 0.184314 0.003922
0.466667 0.180392 0.000000
0.607843 0.192157 0.000000
0.749020 0.192157 0.000000
0.870588 0.196078 0.000000
0.988235 0.196078 0.000000
0.003922 0.294118 0.054902
0.058824 0.301961 0.054902
0.168627 0.313726 0.047059
0.325490 0.321569 0.023529
0.478431 0.313726 0.027451
0.611765 0.321569 0.027451
0.752941 0.329412 0.027451
0.874510 0.329412 0.019608
0.988235 0.325490 0.015686
0.000000 0.435294 0.078431
0.058824 0.435294 0.090196
0.168627 0.454902 0.090196
0.301961 0.462745 0.054902
0.466667 0.462745 0.054902
0.619608 0.458824 0.050980
0.752941 0.458824 0.047059
0.886275 0.458824 0.039216
0.984314 0.454902 0.039216
0.000000 0.568627 0.098039
0.066667 0.576471 0.113725
0.168627 0.584314 0.113725
0.317647 0.584314 0.101961
0.454902 0.596078 0.066667
0.615686 0.596078 0.078431
0.749020 0.596078 0.074510
0.886275 0.592157 0.074510
0.988235 0.596078 0.062745
0.003922 0.698039 0.133333
0.074510 0.701961 0.129412
0.176471 0.701961 0.133333
0.317647 0.721569 0.121569
0.454902 0.721569 0.098039
0.603922 0.721569 0.094118
0.745098 0.729412 0.090196
0.886275 0.729412 0.098039
1.000000 0.729412 0.094118
0.000000 0.831373 0.133333
0.070588 0.835294 0.137255
0.180392 0.835294 0.133333
0.317647 0.839216 0.129412
0.458824 0.839216 0.129412
0.600000 0.850980 0.113725
0.733333 0.850980 0.113725
0.870588 0.858824 0.109804
1.000000 0.854902 0.113725
0.000000 0.945098 0.141176
0.082353 0.949020 0.145098
0.180392 0.952941 0.141176
0.313726 0.956863 0.145098
0.450980 0.960784 0.137255
0.592157 0.972549 0.129412
0.729412 0.976471 0.133333
0.866667 0.972549 0.129412
0.992157 0.980392 0.121569
0.000000 0.007843 0.058824
0.074510 0.000000 0.062745
0.176471 0.000000 0.062745
0.313726 0.000000 0.043137
0.454902 0.000000 0.043137
0.576471 0.000000 0.027451
0.698039 0.000000 0.027451
0.843137 0.000000 0.023529
0.945098 0.007843 0.035294
0.003922 0.074510 0.074510
0.070588 0.078431 0.078431
0.192157 0.074510 0.066667
0.325490 0.066667 0.058824
0.466667 0.070588 0.054902
0.603922 0.074510 0.047059
0.729412 0.086275 0.035294
0.854902 0.086275 0.047059
0.972549 0.090196 0.035294
0.003922 0.176471 0.086275
0.066667 0.176471 0.082353
0.184314 0.188235 0.078431
0.325490 0.184314 0.066667
0.486275 0.184314 0.058824
0.619608 0.184314 0.054902
0.745098 0.200000 0.062745
0.882353 0.196078 0.058824
0.984314 0.207843 0.058824
0.003922 0.301961 0.098039
0.066667 0.309804 0.117647
0.172549 0.317647 0.101961
0.333333 0.325490 0.090196
0.470588 0.329412 0.078431
0.615686 0.329412 0.082353
0.752941 0.333333 0.082353
0.874510 0.325490 0.070588
0.988235 0.333333 0.074510
0.000000 0.431373 0.129412
0.066667 0.435294 0.145098
0.176471 0.454902 0.141176
0.305882 0.462745 0.129412
0.470588 0.462745 0.113725
0.615686 0.462745 0.105882
0.752941 0.466667 0.109804
0.878431 0.458824 0.098039
0.992157 0.454902 0.094118
0.000000 0.568627 0.164706
0.066667 0.580392 0.168627
0.180392 0.584314 0.172549
0.325490 0.596078 0.160784
0.454902 0.603922 0.129412
0.611765 0.596078 0.129412
0.752941 0.603922 0.137255
0.878431 0.592157 0.125490
0.992157 0.596078 0.125490
0.000000 0.698039 0.180392
0.074510 0.709804 0.188235
0.180392 0.709804 0.192157
0.313726 0.717647 0.172549
0.450980 0.729412 0.164706
0.600000 0.729412 0.168627
0.745098 0.729412 0.152941
0.894118 0.729412 0.149020
1.000000 0.733333 0.164706
0.003922 0.827451 0.188235
0.082353 0.839216 0.200000
0.192157 0.847059 0.203922
0.321569 0.843137 0.196078
0.458824 0.858824 0.180392
0.600000 0.850980 0.180392
0.737255 0.858824 0.172549
0.874510 0.858824 0.176471
1.000000 0.858824 0.184314
0.000000 0.945098 0.192157
0.070588 0.964706 0.200000
0.180392 0.960784 0.211765
0.317647 0.960784 0.192157
0.462745 0.972549 0.203922
0.588235 0.976471 0.180392
0.725490 0.980392 0.188235
0.866667 0.984314 0.184314
1.000000 0.984314 0.200000
0.003922 0.003922 0.145098
0.074510 0.007843 0.164706
0.192157 0.003922 0.152941
0.321569 0.000000 0.145098
0.458824 0.000000 0.129412
0.596078 0.000000 0.121569
0.721569 0.000000 0.101961
0.839216 0.000000 0.101961
0.945098 0.000000 0.098039
0.003922 0.086275 0.160784
0.070588 0.082353 0.156863
0.192157 0.074510 0.160784
0.329412 0.074510 0.152941
0.470588 0.066667 0.137255
0.615686 0.062745 0.141176
0.741176 0.074510 0.129412
0.866667 0.074510 0.121569
0.984314 0.082353 0.137255
0.000000 0.180392 0.164706
0.062745 0.192157 0.180392
0.192157 0.196078 0.168627
0.341176 0.188235 0.160784
0.482353 0.188235 0.152941
0.619608 0.192157 0.149020
0.756863 0.196078 0.149020
0.882353 0.200000 0.149020
0.996078 0.203922 0.149020
0.000000 0.309804 0.180392
0.062745 0.321569 0.196078
0.180392 0.325490 0.200000
0.333333 0.325490 0.180392
0.486275 0.325490 0.168627
0.623529 0.329412 0.168627
0.756863 0.329412 0.160784
0.890196 0.329412 0.156863
0.992157 0.329412 0.152941
0.000000 0.443137 0.215686
0.062745 0.454902 0.227451
0.180392 0.462745 0.231373
0.317647 0.470588 0.207843
0.482353 0.462745 0.192157
0.623529 0.462745 0.188235
0.752941 0.470588 0.184314
0.882353 0.466667 0.176471
0.992157 0.458824 0.176471
0.000000 0.580392 0.235294
0.070588 0.588235 0.247059
0.180392 0.592157 0.243137
0.325490 0.596078 0.235294
0.454902 0.603922 0.215686
0.619608 0.603922 0.207843
0.749020 0.603922 0.207843
0.882353 0.603922 0.203922
0.996078 0.600000 0.192157
0.000000 0.709804 0.258824
0.082353 0.721569 0.262745
0.184314 0.721569 0.266667
0.321569 0.725490 0.250980
0.462745 0.729412 0.247059
0.611765 0.729412 0.235294
0.752941 0.733333 0.227451
0.890196 0.737255 0.231373
0.996078 0.733333 0.227451
0.000000 0.835294 0.262745
0.078431 0.839216 0.270588
0.176471 0.843137 0.266667
0.329412 0.847059 0.262745
0.470588 0.850980 0.258824
0.611765 0.850980 0.254902
0.745098 0.858824 0.247059
0.886275 0.858824 0.250980
1.000000 0.858824 0.250980
0.003922 0.952941 0.262745
0.074510 0.960784 0.282353
0.188235 0.956863 0.274510
0.321569 0.976471 0.274510
0.458824 0.972549 0.266667
0.596078 0.980392 0.254902
0.733333 0.984314 0.254902
0.874510 0.984314 0.250980
1.000000 0.988235 0.254902
0.007843 0.019608 0.266667
0.074510 0.035294 0.274510
0.192157 0.015686 0.286275
0.337255 0.007843 0.266667
0.474510 0.000000 0.254902
0.596078 0.000000 0.247059
0.729412 0.000000 0.235294
0.850980 0.000000 0.231373
0.964706 0.000000 0.215686
0.000000 0.094118 0.266667
0.066667 0.094118 0.262745
0.180392 0.094118 0.290196
0.337255 0.078431 0.274510
0.478431 0.078431 0.278431
0.619608 0.078431 0.266667
0.745098 0.070588 0.250980
0.870588 0.074510 0.247059
0.988235 0.070588 0.254902
0.000000 0.196078 0.278431
0.066667 0.200000 0.290196
0.184314 0.203922 0.282353
0.341176 0.192157 0.290196
0.490196 0.192157 0.278431
0.619608 0.188235 0.270588
0.760784 0.192157 0.274510
0.894118 0.196078 0.274510
0.996078 0.192157 0.258824
0.000000 0.325490 0.301961
0.062745 0.325490 0.301961
0.180392 0.333333 0.305882
0.337255 0.333333 0.301961
0.494118 0.337255 0.286275
0.627451 0.337255 0.294118
0.760784 0.337255 0.282353
0.886275 0.337255 0.282353
0.996078 0.329412 0.286275
0.000000 0.454902 0.313726
0.074510 0.462745 0.333333
0.168627 0.466667 0.329412
0.337255 0.470588 0.329412
0.482353 0.470588 0.294118
0.627451 0.466667 0.301961
0.756863 0.462745 0.290196
0.878431 0.470588 0.286275
0.996078 0.466667 0.294118
0.000000 0.592157 0.329412
0.070588 0.596078 0.349020
0.168627 0.603922 0.349020
0.325490 0.603922 0.345098
0.474510 0.611765 0.329412
0.623529 0.600000 0.317647
0.752941 0.603922 0.301961
0.886275 0.596078 0.294118
1.000000 0.600000 0.301961
0.003922 0.713726 0.349020
0.086275 0.725490 0.360784
0.172549 0.729412 0.345098
0.337255 0.725490 0.356863
0.470588 0.733333 0.345098
0.611765 0.729412 0.329412
0.756863 0.737255 0.333333
0.882353 0.741176 0.317647
1.000000 0.733333 0.321569
0.011765 0.843137 0.352941
0.078431 0.854902 0.364706
0.192157 0.850980 0.360784
0.329412 0.850980 0.352941
0.466667 0.850980 0.368627
0.603922 0.858824 0.349020
0.749020 0.858824 0.341176
0.882353 0.866667 0.337255
1.000000 0.862745 0.329412
0.007843 0.952941 0.352941
0.094118 0.968627 0.364706
0.176471 0.972549 0.372549
0.321569 0.968627 0.368627
0.454902 0.976471 0.360784
0.592157 0.980392 0.364706
0.737255 0.984314 0.349020
0.882353 0.984314 0.337255
1.000000 0.984314 0.349020
0.000000 0.047059 0.384314
0.070588 0.047059 0.384314
0.180392 0.043137 0.396078
0.329412 0.023529 0.407843
0.470588 0.015686 0.396078
0.600000 0.003922 0.380392
0.729412 0.000000 0.372549
0.843137 0.000000 0.368627
0.968627 0.000000 0.360784
0.000000 0.109804 0.384314
0.066667 0.113725 0.388235
0.176471 0.113725 0.403922
0.337255 0.098039 0.415686
0.490196 0.094118 0.407843
0.619608 0.090196 0.403922
0.749020 0.086275 0.403922
0.874510 0.090196 0.392157
0.992157 0.090196 0.396078
0.000000 0.207843 0.396078
0.062745 0.215686 0.400000
0.176471 0.215686 0.407843
0.337255 0.207843 0.427451
0.490196 0.211765 0.423529
0.635294 0.207843 0.415686
0.768627 0.207843 0.411765
0.886275 0.200000 0.407843
1.000000 0.203922 0.407843
0.000000 0.333333 0.407843
0.066667 0.341176 0.423529
0.176471 0.345098 0.427451
0.341176 0.345098 0.419608
0.494118 0.341176 0.415686
0.627451 0.337255 0.419608
0.764706 0.337255 0.411765
0.890196 0.337255 0.415686
0.996078 0.325490 0.403922
0.000000 0.458824 0.431373
0.066667 0.470588 0.439216
0.164706 0.478431 0.435294
0.333333 0.482353 0.439216
0.490196 0.474510 0.423529
0.627451 0.478431 0.419608
0.760784 0.470588 0.411765
0.886275 0.474510 0.407843
1.000000 0.470588 0.407843
0.000000 0.600000 0.443137
0.066667 0.603922 0.447059
0.160784 0.607843 0.450980
0.321569 0.607843 0.443137
0.474510 0.611765 0.439216
0.623529 0.603922 0.431373
0.764706 0.607843 0.423529
0.894118 0.603922 0.419608
1.000000 0.596078 0.411765
0.003922 0.721569 0.454902
0.070588 0.733333 0.454902
0.172549 0.733333 0.466667
0.329412 0.733333 0.462745
0.482353 0.737255 0.462745
0.615686 0.737255 0.454902
0.756863 0.737255 0.435294
0.894118 0.729412 0.443137
0.996078 0.729412 0.435294
0.003922 0.854902 0.462745
0.074510 0.854902 0.474510
0.180392 0.854902 0.470588
0.325490 0.858824 0.474510
0.474510 0.858824 0.470588
0.611765 0.862745 0.466667
0.752941 0.866667 0.466667
0.882353 0.862745 0.447059
1.000000 0.862745 0.447059
0.003922 0.960784 0.466667
0.070588 0.980392 0.466667
0.180392 0.976471 0.478431
0.317647 0.980392 0.474510
0.462745 0.984314 0.470588
0.603922 0.988235 0.474510
0.745098 0.984314 0.462745
0.874510 0.988235 0.439216
0.996078 0.992157 0.443137
0.000000 0.066667 0.498039
0.074510 0.070588 0.521569
0.180392 0.066667 0.513726
0.313726 0.047059 0.529412
0.466667 0.035294 0.509804
0.603922 0.031373 0.505882
0.741176 0.027451 0.505882
0.850980 0.023529 0.490196
0.976471 0.019608 0.498039
0.000000 0.133333 0.505882
0.070588 0.137255 0.505882
0.180392 0.133333 0.517647
0.337255 0.121569 0.541176
0.486275 0.113725 0.529412
0.615686 0.109804 0.525490
0.756863 0.109804 0.525490
0.874510 0.109804 0.525490
0.996078 0.101961 0.521569
0.000000 0.223529 0.517647
0.070588 0.231373 0.529412
0.184314 0.231373 0.521569
0.337255 0.231373 0.556863
0.498039 0.215686 0.549020
0.643137 0.219608 0.537255
0.772549 0.219608 0.533333
0.886275 0.215686 0.545098
0.996078 0.219608 0.545098
0.000000 0.341176 0.533333
0.070588 0.356863 0.537255
0.172549 0.352941 0.537255
0.321569 0.356863 0.541176
0.490196 0.356863 0.549020
0.635294 0.356863 0.545098
0.776471 0.345098 0.537255
0.901961 0.341176 0.537255
1.000000 0.337255 0.537255
0.000000 0.474510 0.533333
0.074510 0.478431 0.549020
0.168627 0.486275 0.556863
0.329412 0.482353 0.549020
0.494118 0.482353 0.549020
0.631373 0.490196 0.541176
0.764706 0.474510 0.525490
0.898039 0.470588 0.529412
1.000000 0.478431 0.529412
0.000000 0.607843 0.549020
0.070588 0.619608 0.560784
0.152941 0.619608 0.556863
0.313726 0.611765 0.549020
0.478431 0.615686 0.552941
0.623529 0.619608 0.552941
0.760784 0.623529 0.552941
0.894118 0.607843 0.533333
1.000000 0.600000 0.525490
0.007843 0.733333 0.560784
0.078431 0.749020 0.568627
0.156863 0.741176 0.576471
0.325490 0.737255 0.564706
0.478431 0.733333 0.560784
0.619608 0.741176 0.560784
0.764706 0.741176 0.552941
0.894118 0.741176 0.556863
1.000000 0.737255 0.545098
0.000000 0.850980 0.564706
0.078431 0.870588 0.588235
0.168627 0.866667 0.584314
0.317647 0.866667 0.572549
0.482353 0.874510 0.576471
0.627451 0.870588 0.576471
0.768627 0.870588 0.576471
0.894118 0.862745 0.564706
0.996078 0.858824 0.552941
0.003922 0.972549 0.568627
0.078431 0.976471 0.564706
0.176471 0.988235 0.580392
0.317647 0.988235 0.572549
0.462745 0.992157 0.576471
0.603922 0.996078 0.564706
0.749020 0.988235 0.564706
0.878431 0.996078 0.556863
1.000000 1.000000 0.552941
0.003922 0.090196 0.615686
0.066667 0.086275 0.631373
0.176471 0.086275 0.627451
0.313726 0.074510 0.639216
0.462745 0.050980 0.639216
0.607843 0.050980 0.631373
0.745098 0.043137 0.627451
0.866667 0.043137 0.619608
0.980392 0.047059 0.619608
0.003922 0.152941 0.627451
0.074510 0.156863 0.631373
0.180392 0.156863 0.635294
0.321569 0.145098 0.654902
0.490196 0.129412 0.658824
0.631373 0.129412 0.650980
0.768627 0.133333 0.654902
0.890196 0.133333 0.647059
0.992157 0.133333 0.643137
0.000000 0.247059 0.623529
0.074510 0.254902 0.643137
0.184314 0.254902 0.639216
0.329412 0.250980 0.654902
0.494118 0.239216 0.662745
0.647059 0.239216 0.666667
0.784314 0.235294 0.666667
0.913725 0.231373 0.658824
1.000000 0.239216 0.662745
0.000000 0.360784 0.647059
0.066667 0.364706 0.647059
0.176471 0.376471 0.654902
0.325490 0.368627 0.643137
0.486275 0.364706 0.674510
0.639216 0.364706 0.662745
0.780392 0.360784 0.658824
0.901961 0.356863 0.658824
0.996078 0.349020 0.662745
0.000000 0.490196 0.670588
0.066667 0.494118 0.662745
0.172549 0.501961 0.666667
0.325490 0.498039 0.658824
0.486275 0.490196 0.662745
0.627451 0.490196 0.662745
0.768627 0.494118 0.650980
0.890196 0.478431 0.650980
1.000000 0.478431 0.647059
0.003922 0.615686 0.658824
0.070588 0.619608 0.662745
0.152941 0.623529 0.670588
0.329412 0.619608 0.670588
0.482353 0.623529 0.670588
0.627451 0.619608 0.658824
0.768627 0.611765 0.658824
0.898039 0.607843 0.650980
0.996078 0.603922 0.650980
0.000000 0.741176 0.666667
0.078431 0.749020 0.670588
0.156863 0.745098 0.662745
0.317647 0.745098 0.674510
0.474510 0.745098 0.670588
0.623529 0.745098 0.666667
0.772549 0.745098 0.666667
0.894118 0.745098 0.654902
1.000000 0.737255 0.654902
0.000000 0.870588 0.670588
0.082353 0.874510 0.678431
0.160784 0.874510 0.670588
0.313726 0.870588 0.674510
0.466667 0.878431 0.674510
0.623529 0.862745 0.682353
0.760784 0.870588 0.666667
0.894118 0.874510 0.670588
0.996078 0.866667 0.658824
0.007843 0.984314 0.670588
0.074510 0.988235 0.682353
0.172549 0.992157 0.682353
0.317647 0.984314 0.682353
0.462745 1.000000 0.678431
0.611765 1.000000 0.682353
0.749020 0.996078 0.674510
0.882353 1.000000 0.662745
0.992157 1.000000 0.674510
0.000000 0.105882 0.721569
0.070588 0.101961 0.725490
0.176471 0.105882 0.733333
0.301961 0.094118 0.729412
0.458824 0.074510 0.745098
0.611765 0.070588 0.745098
0.749020 0.066667 0.745098
0.870588 0.062745 0.745098
0.980392 0.062745 0.733333
0.011765 0.172549 0.729412
0.078431 0.176471 0.737255
0.188235 0.176471 0.737255
0.333333 0.168627 0.756863
0.486275 0.156863 0.780392
0.627451 0.149020 0.764706
0.764706 0.152941 0.768627
0.898039 0.145098 0.768627
0.992157 0.156863 0.768627
0.000000 0.262745 0.745098
0.082353 0.262745 0.752941
0.188235 0.266667 0.752941
0.341176 0.270588 0.764706
0.486275 0.250980 0.780392
0.639216 0.247059 0.772549
0.776471 0.250980 0.780392
0.909804 0.258824 0.784314
1.000000 0.266667 0.780392
0.000000 0.376471 0.749020
0.074510 0.380392 0.756863
0.192157 0.380392 0.764706
0.321569 0.384314 0.764706
0.486275 0.380392 0.784314
0.635294 0.372549 0.772549
0.780392 0.376471 0.788235
0.898039 0.372549 0.768627
1.000000 0.372549 0.772549
0.003922 0.501961 0.772549
0.066667 0.509804 0.776471
0.172549 0.513726 0.780392
0.325490 0.501961 0.764706
0.474510 0.509804 0.772549
0.627451 0.501961 0.780392
0.772549 0.501961 0.772549
0.905882 0.505882 0.780392
1.000000 0.494118 0.768627
0.015686 0.627451 0.780392
0.066667 0.631373 0.788235
0.156863 0.643137 0.792157
0.329412 0.635294 0.780392
0.478431 0.635294 0.780392
0.623529 0.631373 0.776471
0.764706 0.619608 0.772549
0.890196 0.623529 0.768627
1.000000 0.623529 0.764706
0.007843 0.749020 0.780392
0.066667 0.752941 0.788235
0.152941 0.760784 0.792157
0.317647 0.752941 0.784314
0.478431 0.749020 0.784314
0.631373 0.752941 0.784314
0.764706 0.745098 0.776471
0.901961 0.749020 0.768627
1.000000 0.741176 0.764706
0.003922 0.874510 0.784314
0.078431 0.878431 0.788235
0.172549 0.886275 0.792157
0.309804 0.882353 0.784314
0.458824 0.882353 0.784314
0.623529 0.870588 0.780392
0.760784 0.870588 0.768627
0.886275 0.874510 0.768627
0.996078 0.870588 0.776471
0.007843 0.992157 0.776471
0.078431 0.988235 0.776471
0.164706 0.996078 0.788235
0.309804 1.000000 0.784314
0.450980 0.996078 0.780392
0.596078 0.992157 0.780392
0.749020 0.996078 0.776471
0.882353 0.996078 0.776471
0.996078 1.000000 0.756863
0.003922 0.113725 0.831373
0.074510 0.117647 0.831373
0.176471 0.113725 0.831373
0.305882 0.105882 0.831373
0.458824 0.090196 0.858824
0.607843 0.082353 0.854902
0.745098 0.078431 0.847059
0.870588 0.078431 0.847059
0.976471 0.082353 0.854902
0.007843 0.184314 0.839216
0.078431 0.180392 0.843137
0.184314 0.188235 0.843137
0.333333 0.184314 0.854902
0.474510 0.172549 0.878431
0.635294 0.164706 0.878431
0.768627 0.164706 0.878431
0.901961 0.168627 0.878431
0.996078 0.168627 0.870588
0.003922 0.270588 0.847059
0.074510 0.278431 0.854902
0.192157 0.278431 0.854902
0.337255 0.278431 0.862745
0.494118 0.266667 0.894118
0.650980 0.266667 0.890196
0.788235 0.270588 0.894118
0.909804 0.266667 0.894118
1.000000 0.270588 0.894118
0.000000 0.384314 0.858824
0.074510 0.392157 0.866667
0.188235 0.392157 0.866667
0.329412 0.396078 0.866667
0.478431 0.392157 0.882353
0.639216 0.384314 0.894118
0.772549 0.388235 0.886275
0.905882 0.384314 0.890196
1.000000 0.384314 0.882353
0.003922 0.505882 0.878431
0.066667 0.517647 0.886275
0.180392 0.521569 0.890196
0.325490 0.513726 0.882353
0.466667 0.509804 0.878431
0.623529 0.505882 0.894118
0.768627 0.501961 0.882353
0.898039 0.509804 0.886275
1.000000 0.505882 0.882353
0.003922 0.635294 0.894118
0.078431 0.639216 0.898039
0.168627 0.643137 0.901961
0.325490 0.639216 0.894118
0.470588 0.639216 0.894118
0.619608 0.631373 0.894118
0.764706 0.631373 0.886275
0.898039 0.631373 0.886275
1.000000 0.631373 0.890196
0.007843 0.760784 0.898039
0.078431 0.772549 0.898039
0.160784 0.768627 0.901961
0.313726 0.764706 0.901961
0.482353 0.756863 0.901961
0.627451 0.760784 0.894118
0.756863 0.760784 0.894118
0.898039 0.756863 0.890196
0.996078 0.756863 0.882353
0.011765 0.878431 0.894118
0.078431 0.882353 0.901961
0.168627 0.886275 0.901961
0.309804 0.886275 0.898039
0.470588 0.886275 0.901961
0.623529 0.882353 0.898039
0.756863 0.882353 0.894118
0.890196 0.882353 0.890196
0.996078 0.874510 0.882353
0.007843 0.996078 0.898039
0.078431 1.000000 0.894118
0.172549 0.996078 0.898039
0.305882 0.996078 0.898039
0.458824 1.000000 0.894118
0.596078 1.000000 0.886275
0.745098 0.996078 0.886275
0.886275 0.996078 0.890196
0.992157 1.000000 0.913725
