luts/t-and-o.cube
TITLE "Generated by LUMIX Lab"
#LUMIXPHOTOSTYLE NAT
LUT_3D_SIZE 5
0.000000 0.000000 0.000000
0.176471 0.000000 0.000000
0.454902 0.000000 0.003922
0.713726 0.000000 0.000000
0.945098 0.003922 0.000000
0.003922 0.168627 0.027451
0.184314 0.180392 0.011765
0.466667 0.180392 0.000000
0.749020 0.192157 0.000000
0.988235 0.196078 0.000000
0.000000 0.435294 0.078431
0.168627 0.454902 0.090196
0.466667 0.462745 0.054902
0.752941 0.458824 0.047059
0.984314 0.454902 0.039216
0.003922 0.698039 0.133333
0.176471 0.701961 0.133333
0.454902 0.721569 0.098039
0.745098 0.729412 0.090196
1.000000 0.729412 0.094118
0.000000 0.945098 0.141176
0.180392 0.952941 0.141176
0.450980 0.960784 0.137255
0.729412 0.976471 0.133333
0.992157 0.980392 0.121569
0.003922 0.003922 0.145098
0.192157 0.003922 0.152941
0.458824 0.000000 0.129412
0.721569 0.000000 0.101961
0.945098 0.000000 0.098039
0.000000 0.180392 0.164706
0.192157 0.196078 0.168627
0.482353 0.188235 0.152941
0.756863 0.196078 0.149020
0.996078 0.203922 0.149020
0.000000 0.443137 0.215686
0.180392 0.462745 0.231373
0.482353 0.462745 0.192157
0.752941 0.470588 0.184314
0.992157 0.458824 0.176471
0.000000 0.709804 0.258824
0.184314 0.721569 0.266667
0.462745 0.729412 0.247059
0.752941 0.733333 0.227451
0.996078 0.733333 0.227451
0.003922 0.952941 0.262745
0.188235 0.956863 0.274510
0.458824 0.972549 0.266667
0.733333 0.984314 0.254902
1.000000 0.988235 0.254902
0.000000 0.047059 0.384314
0.180392 0.043137 0.396078
0.470588 0.015686 0.396078
0.729412 0.000000 0.372549
0.968627 0.000000 0.360784
0.000000 0.207843 0.396078
0.176471 0.215686 0.407843
0.490196 0.211765 0.423529
0.768627 0.207843 0.411765
1.000000 0.203922 0.407843
0.000000 0.458824 0.431373
0.164706 0.478431 0.435294
0.490196 0.474510 0.423529
0.760784 0.470588 0.411765
1.000000 0.470588 0.407843
0.003922 0.721569 0.454902
0.172549 0.733333 0.466667
0.482353 0.737255 0.462745
0.756863 0.737255 0.435294
0.996078 0.729412 0.435294
0.003922 0.960784 0.466667
0.180392 0.976471 0.478431
0.462745 0.984314 0.470588
0.745098 0.984314 0.462745
0.996078 0.992157 0.443137
0.003922 0.090196 0.615686
0.176471 0.086275 0.627451
0.462745 0.050980 0.639216
0.745098 0.043137 0.627451
0.980392 0.047059 0.619608
0.000000 0.247059 0.623529
0.184314 0.254902 0.639216
0.494118 0.239216 0.662745
0.784314 0.235294 0.666667
1.000000 0.239216 0.662745
0.000000 0.490196 0.670588
0.172549 0.501961 0.666667
0.486275 0.490196 0.662745
0.768627 0.494118 0.650980
1.000000 0.478431 0.647059
0.000000 0.741176 0.666667
0.156863 0.745098 0.662745
0.474510 0.745098 0.670588
0.772549 0.745098 0.666667
1.000000 0.737255 0.654902
0.007843 0.984314 0.670588
0.172549 0.992157 0.682353
0.462745 1.000000 0.678431
0.749020 0.996078 0.674510
0.992157 1.000000 0.674510
0.003922 0.113725 0.831373
0.176471 0.113725 0.831373
0.458824 0.090196 0.858824
0.745098 0.078431 0.847059
0.976471 0.082353 0.854902
0.003922 0.270588 0.847059
0.192157 0.278431 0.854902
0.494118 0.266667 0.894118
0.788235 0.270588 0.894118
1.000000 0.270588 0.894118
0.003922 0.505882 0.878431
0.180392 0.521569 0.890196
0.466667 0.509804 0.878431
0.768627 0.501961 0.882353
1.000000 0.505882 0.882353
0.007843 0.760784 0.898039
0.160784 0.768627 0.901961
0.482353 0.756863 0.901961
0.756863 0.760784 0.894118
0.996078 0.756863 0.882353
0.007843 0.996078 0.898039
0.172549 0.996078 0.898039
0.458824 1.000000 0.894118
0.745098 0.996078 0.886275
0.992157 1.000000 0.913725
