luts/t-and-o.cube
TITLE "Generated by LUMIX Lab"
#LUMIXPHOTOSTYLE NAT
LUT_3D_SIZE 33
0.000000 0.000000 0.000000
0.019608 0.000000 0.000000
0.035294 0.007843 0.000000
0.054902 0.000000 0.003922
0.070588 0.000000 0.000000
0.094118 0.000000 0.000000
0.121569 0.003922 0.000000
0.145098 0.000000 0.000000
0.176471 0.000000 0.000000
0.207843 0.000000 0.003922
0.247059 0.000000 0.000000
0.278431 0.003922 0.000000
0.321569 0.000000 0.000000
0.352941 0.000000 0.000000
0.380392 0.000000 0.000000
0.419608 0.000000 0.000000
0.454902 0.000000 0.003922
0.482353 0.000000 0.000000
0.513726 0.000000 0.000000
0.552941 0.000000 0.000000
0.592157 0.000000 0.000000
0.615686 0.000000 0.000000
0.650980 0.000000 0.000000
0.674510 0.000000 0.000000
0.713726 0.000000 0.000000
0.745098 0.000000 0.000000
0.768627 0.000000 0.000000
0.800000 0.000000 0.000000
0.827451 0.000000 0.000000
0.858824 0.000000 0.000000
0.890196 0.000000 0.000000
0.925490 0.000000 0.000000
0.945098 0.003922 0.000000
0.000000 0.015686 0.003922
0.019608 0.019608 0.003922
0.043137 0.015686 0.000000
0.050980 0.023529 0.000000
0.066667 0.023529 0.000000
0.090196 0.023529 0.000000
0.113725 0.023529 0.000000
0.145098 0.015686 0.000000
0.180392 0.019608 0.003922
0.211765 0.015686 0.000000
0.250980 0.015686 0.000000
0.282353 0.007843 0.000000
0.313726 0.011765 0.000000
0.345098 0.003922 0.000000
0.388235 0.003922 0.000000
0.419608 0.003922 0.000000
0.450980 0.007843 0.000000
0.490196 0.007843 0.000000
0.517647 0.007843 0.000000
0.549020 0.007843 0.003922
0.588235 0.011765 0.000000
0.619608 0.007843 0.000000
0.654902 0.003922 0.000000
0.682353 0.011765 0.000000
0.713726 0.019608 0.000000
0.745098 0.019608 0.000000
0.772549 0.011765 0.000000
0.800000 0.015686 0.000000
0.831373 0.019608 0.000000
0.862745 0.019608 0.000000
0.894118 0.015686 0.000000
0.921569 0.023529 0.000000
0.945098 0.023529 0.000000
0.000000 0.035294 0.000000
0.023529 0.039216 0.000000
0.039216 0.035294 0.003922
0.054902 0.035294 0.003922
0.074510 0.039216 0.003922
0.094118 0.035294 0.000000
0.117647 0.035294 0.000000
0.152941 0.039216 0.000000
0.184314 0.031373 0.000000
0.215686 0.031373 0.000000
0.250980 0.027451 0.000000
0.282353 0.027451 0.000000
0.309804 0.027451 0.000000
0.349020 0.023529 0.000000
0.388235 0.023529 0.000000
0.419608 0.023529 0.000000
0.454902 0.027451 0.000000
0.494118 0.027451 0.003922
0.517647 0.027451 0.000000
0.560784 0.027451 0.000000
0.596078 0.035294 0.003922
0.619608 0.027451 0.000000
0.654902 0.031373 0.000000
0.682353 0.039216 0.000000
0.717647 0.031373 0.000000
0.745098 0.039216 0.000000
0.776471 0.035294 0.000000
0.807843 0.039216 0.000000
0.839216 0.035294 0.000000
0.866667 0.043137 0.000000
0.898039 0.039216 0.000000
0.921569 0.043137 0.000000
0.952941 0.039216 0.000000
0.000000 0.054902 0.003922
0.019608 0.050980 0.003922
0.039216 0.054902 0.011765
0.054902 0.054902 0.007843
0.074510 0.058824 0.000000
0.094118 0.054902 0.000000
0.125490 0.054902 0.000000
0.152941 0.050980 0.000000
0.184314 0.050980 0.000000
0.211765 0.050980 0.000000
0.250980 0.047059 0.000000
0.282353 0.047059 0.000000
0.317647 0.050980 0.000000
0.352941 0.047059 0.000000
0.384314 0.047059 0.000000
0.419608 0.043137 0.000000
0.450980 0.043137 0.000000
0.486275 0.047059 0.000000
0.529412 0.050980 0.000000
0.556863 0.047059 0.000000
0.596078 0.054902 0.000000
0.623529 0.050980 0.003922
0.654902 0.050980 0.000000
0.690196 0.054902 0.000000
0.729412 0.054902 0.000000
0.756863 0.058824 0.000000
0.784314 0.058824 0.000000
0.819608 0.062745 0.000000
0.843137 0.062745 0.000000
0.874510 0.058824 0.003922
0.905882 0.062745 0.000000
0.933333 0.062745 0.000000
0.956863 0.066667 0.000000
0.000000 0.074510 0.015686
0.015686 0.066667 0.003922
0.035294 0.070588 0.003922
0.054902 0.074510 0.003922
0.070588 0.074510 0.007843
0.094118 0.074510 0.003922
0.129412 0.078431 0.007843
0.149020 0.074510 0.003922
0.188235 0.074510 0.003922
0.215686 0.070588 0.000000
0.247059 0.070588 0.000000
0.282353 0.066667 0.000000
0.317647 0.070588 0.000000
0.356863 0.070588 0.000000
0.384314 0.070588 0.000000
0.423529 0.070588 0.000000
0.458824 0.070588 0.000000
0.490196 0.070588 0.000000
0.521569 0.070588 0.000000
0.564706 0.074510 0.011765
0.607843 0.070588 0.000000
0.631373 0.078431 0.000000
0.658824 0.074510 0.000000
0.701961 0.078431 0.000000
0.733333 0.078431 0.000000
0.764706 0.078431 0.003922
0.796078 0.078431 0.000000
0.815686 0.082353 0.000000
0.854902 0.082353 0.000000
0.874510 0.086275 0.000000
0.901961 0.086275 0.000000
0.937255 0.086275 0.000000
0.956863 0.086275 0.000000
0.000000 0.090196 0.011765
0.015686 0.094118 0.011765
0.035294 0.090196 0.007843
0.050980 0.094118 0.011765
0.074510 0.098039 0.011765
0.094118 0.094118 0.007843
0.121569 0.094118 0.000000
0.149020 0.094118 0.003922
0.184314 0.098039 0.000000
0.219608 0.094118 0.000000
0.250980 0.094118 0.000000
0.286275 0.090196 0.000000
0.321569 0.094118 0.000000
0.360784 0.094118 0.003922
0.392157 0.094118 0.000000
0.431373 0.094118 0.000000
0.462745 0.094118 0.000000
0.505882 0.090196 0.000000
0.529412 0.094118 0.000000
0.572549 0.101961 0.000000
0.600000 0.098039 0.000000
0.635294 0.101961 0.003922
0.666667 0.105882 0.000000
0.705882 0.105882 0.000000
0.737255 0.109804 0.000000
0.764706 0.109804 0.000000
0.800000 0.105882 0.000000
0.823529 0.113725 0.000000
0.858824 0.113725 0.000000
0.886275 0.113725 0.000000
0.917647 0.109804 0.000000
0.945098 0.109804 0.000000
0.976471 0.113725 0.000000
0.000000 0.113725 0.019608
0.019608 0.113725 0.019608
0.035294 0.113725 0.019608
0.050980 0.121569 0.019608
0.070588 0.121569 0.007843
0.094118 0.121569 0.007843
0.117647 0.121569 0.003922
0.149020 0.121569 0.003922
0.188235 0.121569 0.003922
0.223529 0.117647 0.003922
0.250980 0.121569 0.000000
0.286275 0.117647 0.000000
0.321569 0.113725 0.000000
0.364706 0.117647 0.000000
0.400000 0.121569 0.003922
0.435294 0.113725 0.003922
0.470588 0.125490 0.000000
0.501961 0.121569 0.000000
0.537255 0.125490 0.000000
0.576471 0.125490 0.000000
0.607843 0.129412 0.000000
0.639216 0.125490 0.000000
0.666667 0.133333 0.000000
0.705882 0.133333 0.000000
0.741176 0.137255 0.000000
0.768627 0.133333 0.000000
0.800000 0.137255 0.000000
0.831373 0.141176 0.000000
0.866667 0.137255 0.000000
0.894118 0.141176 0.003922
0.925490 0.141176 0.000000
0.945098 0.137255 0.000000
0.984314 0.145098 0.003922
0.000000 0.137255 0.023529
0.007843 0.137255 0.015686
0.031373 0.145098 0.019608
0.050980 0.141176 0.015686
0.066667 0.152941 0.019608
0.086275 0.149020 0.019608
0.113725 0.149020 0.011765
0.152941 0.152941 0.011765
0.188235 0.149020 0.003922
0.219608 0.152941 0.003922
0.258824 0.149020 0.007843
0.290196 0.149020 0.000000
0.329412 0.149020 0.000000
0.364706 0.152941 0.003922
0.400000 0.149020 0.000000
0.431373 0.152941 0.000000
0.470588 0.149020 0.000000
0.505882 0.152941 0.000000
0.541176 0.156863 0.000000
0.568627 0.156863 0.000000
0.611765 0.156863 0.003922
0.635294 0.160784 0.000000
0.674510 0.160784 0.000000
0.709804 0.164706 0.003922
0.741176 0.160784 0.000000
0.772549 0.164706 0.000000
0.807843 0.168627 0.000000
0.835294 0.164706 0.000000
0.862745 0.168627 0.000000
0.894118 0.168627 0.000000
0.929412 0.172549 0.000000
0.949020 0.168627 0.000000
0.984314 0.172549 0.000000
0.003922 0.168627 0.027451
0.011765 0.168627 0.019608
0.027451 0.172549 0.019608
0.047059 0.172549 0.027451
0.062745 0.172549 0.027451
0.082353 0.176471 0.019608
0.109804 0.184314 0.019608
0.149020 0.184314 0.015686
0.184314 0.180392 0.011765
0.219608 0.184314 0.007843
0.258824 0.184314 0.011765
0.294118 0.180392 0.007843
0.325490 0.184314 0.003922
0.364706 0.184314 0.003922
0.396078 0.180392 0.003922
0.435294 0.184314 0.000000
0.466667 0.180392 0.000000
0.501961 0.188235 0.003922
0.529412 0.184314 0.000000
0.572549 0.188235 0.000000
0.607843 0.192157 0.000000
0.650980 0.188235 0.000000
0.674510 0.188235 0.000000
0.713726 0.196078 0.000000
0.749020 0.192157 0.000000
0.780392 0.192157 0.000000
0.811765 0.200000 0.000000
0.835294 0.200000 0.000000
0.870588 0.196078 0.000000
0.901961 0.200000 0.000000
0.933333 0.196078 0.000000
0.956863 0.196078 0.007843
0.988235 0.196078 0.000000
0.000000 0.200000 0.027451
0.003922 0.196078 0.035294
0.027451 0.203922 0.035294
0.047059 0.200000 0.031373
0.066667 0.203922 0.031373
0.086275 0.207843 0.027451
0.098039 0.215686 0.027451
0.145098 0.211765 0.023529
0.172549 0.211765 0.019608
0.211765 0.211765 0.015686
0.262745 0.215686 0.019608
0.290196 0.211765 0.011765
0.329412 0.211765 0.015686
0.376471 0.211765 0.007843
0.400000 0.215686 0.000000
0.435294 0.219608 0.011765
0.466667 0.219608 0.003922
0.505882 0.219608 0.007843
0.537255 0.215686 0.003922
0.580392 0.223529 0.003922
0.619608 0.223529 0.003922
0.647059 0.219608 0.003922
0.678431 0.227451 0.000000
0.717647 0.223529 0.011765
0.756863 0.227451 0.003922
0.784314 0.223529 0.003922
0.811765 0.227451 0.011765
0.843137 0.227451 0.003922
0.874510 0.227451 0.000000
0.901961 0.231373 0.003922
0.937255 0.227451 0.003922
0.960784 0.227451 0.003922
0.984314 0.227451 0.003922
0.000000 0.231373 0.035294
0.007843 0.227451 0.035294
0.027451 0.231373 0.035294
0.043137 0.235294 0.035294
0.062745 0.239216 0.039216
0.078431 0.235294 0.035294
0.117647 0.243137 0.035294
0.141176 0.247059 0.031373
0.172549 0.247059 0.015686
0.211765 0.247059 0.023529
0.254902 0.250980 0.023529
0.294118 0.250980 0.023529
0.333333 0.250980 0.019608
0.368627 0.247059 0.011765
0.400000 0.250980 0.019608
0.435294 0.247059 0.003922
0.470588 0.250980 0.011765
0.501961 0.254902 0.007843
0.541176 0.250980 0.011765
0.584314 0.250980 0.011765
0.615686 0.254902 0.007843
0.650980 0.258824 0.007843
0.678431 0.258824 0.007843
0.717647 0.258824 0.003922
0.749020 0.254902 0.007843
0.776471 0.262745 0.003922
0.815686 0.262745 0.007843
0.850980 0.258824 0.003922
0.874510 0.258824 0.003922
0.909804 0.262745 0.000000
0.933333 0.262745 0.003922
0.956863 0.262745 0.003922
0.984314 0.262745 0.003922
0.000000 0.262745 0.039216
0.007843 0.262745 0.043137
0.027451 0.266667 0.047059
0.043137 0.266667 0.043137
0.062745 0.270588 0.043137
0.086275 0.270588 0.043137
0.109804 0.282353 0.043137
0.133333 0.282353 0.043137
0.164706 0.286275 0.035294
0.207843 0.286275 0.031373
0.243137 0.286275 0.019608
0.282353 0.282353 0.023529
0.329412 0.286275 0.023529
0.368627 0.286275 0.023529
0.407843 0.286275 0.019608
0.439216 0.282353 0.023529
0.478431 0.278431 0.015686
0.505882 0.282353 0.019608
0.545098 0.290196 0.023529
0.576471 0.290196 0.027451
0.615686 0.286275 0.019608
0.643137 0.286275 0.015686
0.682353 0.294118 0.015686
0.717647 0.290196 0.019608
0.749020 0.294118 0.007843
0.780392 0.294118 0.011765
0.815686 0.294118 0.015686
0.843137 0.294118 0.007843
0.878431 0.294118 0.011765
0.905882 0.294118 0.015686
0.933333 0.294118 0.007843
0.960784 0.294118 0.003922
0.984314 0.294118 0.003922
0.003922 0.294118 0.054902
0.007843 0.298039 0.050980
0.023529 0.301961 0.050980
0.039216 0.298039 0.054902
0.058824 0.301961 0.054902
0.086275 0.309804 0.062745
0.105882 0.305882 0.058824
0.137255 0.313726 0.047059
0.168627 0.313726 0.047059
0.203922 0.321569 0.039216
0.239216 0.317647 0.023529
0.286275 0.325490 0.035294
0.325490 0.321569 0.023529
0.364706 0.317647 0.027451
0.403922 0.321569 0.027451
0.443137 0.321569 0.023529
0.478431 0.313726 0.027451
0.513726 0.317647 0.023529
0.545098 0.317647 0.015686
0.580392 0.325490 0.019608
0.611765 0.321569 0.027451
0.647059 0.325490 0.023529
0.686275 0.325490 0.023529
0.717647 0.329412 0.019608
0.752941 0.329412 0.027451
0.780392 0.329412 0.019608
0.811765 0.329412 0.019608
0.843137 0.325490 0.015686
0.874510 0.329412 0.019608
0.905882 0.325490 0.019608
0.941176 0.325490 0.015686
0.952941 0.329412 0.015686
0.988235 0.325490 0.015686
0.000000 0.325490 0.058824
0.015686 0.325490 0.054902
0.027451 0.329412 0.062745
0.047059 0.333333 0.066667
0.062745 0.333333 0.062745
0.082353 0.337255 0.062745
0.101961 0.345098 0.066667
0.137255 0.349020 0.066667
0.180392 0.345098 0.062745
0.200000 0.352941 0.050980
0.231373 0.352941 0.035294
0.274510 0.352941 0.027451
0.317647 0.356863 0.035294
0.356863 0.356863 0.035294
0.403922 0.352941 0.031373
0.435294 0.356863 0.031373
0.474510 0.356863 0.035294
0.505882 0.352941 0.027451
0.545098 0.356863 0.027451
0.588235 0.356863 0.035294
0.615686 0.352941 0.027451
0.650980 0.360784 0.027451
0.682353 0.360784 0.027451
0.717647 0.360784 0.027451
0.745098 0.360784 0.035294
0.784314 0.360784 0.023529
0.819608 0.360784 0.031373
0.847059 0.360784 0.023529
0.870588 0.356863 0.019608
0.909804 0.360784 0.019608
0.933333 0.360784 0.019608
0.956863 0.360784 0.019608
0.988235 0.360784 0.015686
0.000000 0.360784 0.066667
0.007843 0.360784 0.062745
0.027451 0.364706 0.062745
0.035294 0.368627 0.066667
0.062745 0.372549 0.070588
0.082353 0.372549 0.078431
0.113725 0.372549 0.074510
0.141176 0.380392 0.070588
0.172549 0.380392 0.070588
0.200000 0.384314 0.054902
0.223529 0.388235 0.043137
0.270588 0.392157 0.043137
0.305882 0.388235 0.039216
0.349020 0.392157 0.039216
0.396078 0.388235 0.039216
0.439216 0.388235 0.035294
0.474510 0.388235 0.047059
0.501961 0.396078 0.039216
0.541176 0.388235 0.031373
0.584314 0.392157 0.043137
0.615686 0.392157 0.035294
0.654902 0.392157 0.035294
0.682353 0.396078 0.039216
0.709804 0.400000 0.031373
0.752941 0.396078 0.031373
0.788235 0.392157 0.031373
0.807843 0.396078 0.023529
0.850980 0.392157 0.031373
0.874510 0.392157 0.031373
0.909804 0.396078 0.027451
0.941176 0.396078 0.027451
0.960784 0.392157 0.027451
0.984314 0.392157 0.027451
0.000000 0.392157 0.070588
0.007843 0.400000 0.070588
0.023529 0.396078 0.074510
0.043137 0.400000 0.082353
0.062745 0.403922 0.078431
0.078431 0.407843 0.086275
0.105882 0.407843 0.078431
0.137255 0.411765 0.078431
0.172549 0.411765 0.090196
0.203922 0.419608 0.070588
0.239216 0.423529 0.062745
0.270588 0.423529 0.058824
0.301961 0.427451 0.043137
0.341176 0.427451 0.047059
0.392157 0.431373 0.047059
0.427451 0.423529 0.047059
0.474510 0.427451 0.050980
0.509804 0.423529 0.043137
0.545098 0.427451 0.043137
0.584314 0.423529 0.047059
0.611765 0.423529 0.043137
0.647059 0.427451 0.039216
0.686275 0.427451 0.043137
0.721569 0.423529 0.039216
0.756863 0.427451 0.043137
0.784314 0.423529 0.035294
0.811765 0.419608 0.035294
0.850980 0.427451 0.035294
0.874510 0.427451 0.035294
0.905882 0.427451 0.039216
0.933333 0.423529 0.031373
0.960784 0.427451 0.035294
0.992157 0.427451 0.035294
0.000000 0.435294 0.078431
0.000000 0.435294 0.082353
0.027451 0.427451 0.082353
0.043137 0.439216 0.094118
0.058824 0.435294 0.090196
0.078431 0.439216 0.090196
0.098039 0.443137 0.090196
0.137255 0.443137 0.090196
0.168627 0.454902 0.090196
0.203922 0.450980 0.086275
0.243137 0.450980 0.082353
0.274510 0.454902 0.062745
0.301961 0.462745 0.054902
0.341176 0.462745 0.050980
0.380392 0.462745 0.043137
0.435294 0.462745 0.050980
0.466667 0.462745 0.054902
0.509804 0.454902 0.050980
0.549020 0.458824 0.047059
0.584314 0.462745 0.058824
0.619608 0.458824 0.050980
0.650980 0.458824 0.043137
0.690196 0.458824 0.043137
0.717647 0.462745 0.047059
0.752941 0.458824 0.047059
0.788235 0.462745 0.047059
0.815686 0.462745 0.039216
0.847059 0.458824 0.039216
0.886275 0.458824 0.039216
0.909804 0.462745 0.039216
0.933333 0.462745 0.039216
0.956863 0.458824 0.039216
0.984314 0.454902 0.039216
0.000000 0.462745 0.086275
0.007843 0.462745 0.090196
0.031373 0.470588 0.094118
0.043137 0.470588 0.090196
0.066667 0.470588 0.098039
0.086275 0.478431 0.094118
0.101961 0.478431 0.094118
0.137255 0.482353 0.098039
0.172549 0.486275 0.098039
0.211765 0.486275 0.094118
0.239216 0.490196 0.094118
0.274510 0.490196 0.078431
0.298039 0.494118 0.066667
0.337255 0.494118 0.058824
0.376471 0.494118 0.062745
0.427451 0.498039 0.058824
0.470588 0.494118 0.062745
0.505882 0.490196 0.062745
0.537255 0.501961 0.058824
0.584314 0.498039 0.054902
0.623529 0.494118 0.066667
0.650980 0.498039 0.054902
0.690196 0.498039 0.050980
0.717647 0.490196 0.050980
0.749020 0.490196 0.062745
0.784314 0.494118 0.050980
0.819608 0.498039 0.050980
0.847059 0.498039 0.050980
0.878431 0.498039 0.043137
0.909804 0.494118 0.047059
0.933333 0.494118 0.047059
0.960784 0.494118 0.047059
0.996078 0.498039 0.047059
0.000000 0.498039 0.090196
0.011765 0.498039 0.098039
0.027451 0.498039 0.098039
0.047059 0.505882 0.101961
0.062745 0.505882 0.105882
0.082353 0.509804 0.105882
0.105882 0.509804 0.098039
0.141176 0.513726 0.105882
0.172549 0.517647 0.101961
0.203922 0.513726 0.098039
0.243137 0.517647 0.094118
0.282353 0.525490 0.090196
0.309804 0.525490 0.082353
0.341176 0.525490 0.070588
0.376471 0.529412 0.062745
0.415686 0.529412 0.066667
0.458824 0.525490 0.062745
0.498039 0.525490 0.062745
0.541176 0.521569 0.066667
0.580392 0.521569 0.062745
0.619608 0.525490 0.062745
0.650980 0.529412 0.066667
0.686275 0.525490 0.062745
0.717647 0.529412 0.058824
0.756863 0.529412 0.054902
0.784314 0.521569 0.054902
0.819608 0.525490 0.058824
0.847059 0.521569 0.058824
0.874510 0.529412 0.058824
0.905882 0.529412 0.050980
0.937255 0.525490 0.050980
0.960784 0.525490 0.054902
0.996078 0.521569 0.054902
0.000000 0.533333 0.101961
0.007843 0.533333 0.105882
0.027451 0.537255 0.105882
0.047059 0.541176 0.105882
0.066667 0.537255 0.101961
0.078431 0.545098 0.105882
0.109804 0.549020 0.109804
0.145098 0.545098 0.101961
0.172549 0.549020 0.109804
0.203922 0.552941 0.105882
0.239216 0.549020 0.101961
0.282353 0.556863 0.094118
0.313726 0.556863 0.082353
0.337255 0.556863 0.074510
0.372549 0.568627 0.078431
0.411765 0.560784 0.070588
0.454902 0.568627 0.066667
0.490196 0.564706 0.066667
0.529412 0.564706 0.066667
0.576471 0.564706 0.066667
0.615686 0.564706 0.070588
0.647059 0.564706 0.066667
0.682353 0.564706 0.070588
0.717647 0.560784 0.062745
0.756863 0.560784 0.062745
0.788235 0.564706 0.066667
0.819608 0.560784 0.066667
0.850980 0.560784 0.062745
0.874510 0.564706 0.054902
0.905882 0.564706 0.062745
0.937255 0.564706 0.062745
0.964706 0.556863 0.058824
0.996078 0.560784 0.062745
0.000000 0.568627 0.098039
0.011765 0.572549 0.105882
0.035294 0.572549 0.109804
0.050980 0.572549 0.113725
0.066667 0.576471 0.113725
0.082353 0.580392 0.113725
0.109804 0.580392 0.113725
0.141176 0.584314 0.113725
0.168627 0.584314 0.113725
0.207843 0.584314 0.113725
0.243137 0.588235 0.109804
0.282353 0.588235 0.105882
0.317647 0.584314 0.101961
0.345098 0.592157 0.094118
0.380392 0.596078 0.078431
0.407843 0.596078 0.078431
0.454902 0.596078 0.066667
0.486275 0.592157 0.086275
0.525490 0.596078 0.078431
0.568627 0.600000 0.078431
0.615686 0.596078 0.078431
0.643137 0.596078 0.078431
0.682353 0.596078 0.074510
0.713726 0.596078 0.070588
0.749020 0.596078 0.074510
0.780392 0.600000 0.074510
0.815686 0.596078 0.074510
0.847059 0.596078 0.066667
0.886275 0.592157 0.074510
0.909804 0.596078 0.074510
0.937255 0.600000 0.070588
0.968627 0.592157 0.066667
0.988235 0.596078 0.062745
0.000000 0.607843 0.109804
0.011765 0.603922 0.113725
0.031373 0.607843 0.113725
0.047059 0.603922 0.117647
0.058824 0.611765 0.113725
0.094118 0.607843 0.121569
0.109804 0.611765 0.121569
0.133333 0.619608 0.125490
0.172549 0.615686 0.121569
0.211765 0.615686 0.117647
0.247059 0.619608 0.109804
0.286275 0.619608 0.105882
0.317647 0.623529 0.105882
0.349020 0.623529 0.098039
0.376471 0.623529 0.086275
0.411765 0.627451 0.082353
0.447059 0.627451 0.082353
0.482353 0.623529 0.082353
0.517647 0.619608 0.074510
0.568627 0.627451 0.082353
0.607843 0.627451 0.078431
0.639216 0.623529 0.078431
0.678431 0.623529 0.078431
0.713726 0.631373 0.078431
0.745098 0.631373 0.082353
0.780392 0.627451 0.074510
0.815686 0.631373 0.074510
0.858824 0.635294 0.082353
0.870588 0.631373 0.078431
0.913725 0.627451 0.078431
0.937255 0.627451 0.074510
0.968627 0.627451 0.074510
0.992157 0.627451 0.074510
0.000000 0.635294 0.113725
0.007843 0.631373 0.113725
0.031373 0.631373 0.117647
0.050980 0.635294 0.117647
0.066667 0.635294 0.121569
0.082353 0.647059 0.125490
0.113725 0.643137 0.121569
0.141176 0.643137 0.121569
0.176471 0.647059 0.117647
0.203922 0.643137 0.117647
0.247059 0.650980 0.113725
0.282353 0.643137 0.113725
0.317647 0.650980 0.105882
0.349020 0.647059 0.101961
0.384314 0.654902 0.101961
0.411765 0.650980 0.090196
0.447059 0.654902 0.082353
0.490196 0.658824 0.086275
0.521569 0.662745 0.082353
0.560784 0.662745 0.086275
0.607843 0.658824 0.086275
0.639216 0.662745 0.090196
0.670588 0.662745 0.082353
0.709804 0.662745 0.082353
0.749020 0.662745 0.086275
0.780392 0.662745 0.086275
0.811765 0.662745 0.086275
0.850980 0.662745 0.082353
0.882353 0.662745 0.082353
0.913725 0.662745 0.082353
0.941176 0.658824 0.078431
0.964706 0.666667 0.082353
0.996078 0.658824 0.082353
0.000000 0.662745 0.125490
0.015686 0.666667 0.117647
0.027451 0.666667 0.121569
0.043137 0.674510 0.121569
0.066667 0.674510 0.125490
0.086275 0.678431 0.125490
0.109804 0.678431 0.125490
0.145098 0.682353 0.121569
0.172549 0.678431 0.125490
0.211765 0.678431 0.121569
0.247059 0.682353 0.121569
0.286275 0.682353 0.125490
0.321569 0.678431 0.117647
0.349020 0.686275 0.109804
0.384314 0.690196 0.105882
0.411765 0.690196 0.101961
0.443137 0.690196 0.090196
0.482353 0.690196 0.094118
0.525490 0.694118 0.094118
0.560784 0.698039 0.094118
0.603922 0.694118 0.090196
0.635294 0.690196 0.090196
0.674510 0.694118 0.090196
0.713726 0.694118 0.086275
0.741176 0.690196 0.090196
0.780392 0.698039 0.090196
0.815686 0.694118 0.082353
0.847059 0.698039 0.090196
0.878431 0.686275 0.086275
0.905882 0.698039 0.094118
0.937255 0.690196 0.086275
0.972549 0.694118 0.082353
0.996078 0.694118 0.090196
0.003922 0.698039 0.133333
0.015686 0.698039 0.125490
0.031373 0.705882 0.125490
0.039216 0.705882 0.129412
0.074510 0.701961 0.129412
0.090196 0.709804 0.129412
0.117647 0.713726 0.129412
0.149020 0.705882 0.133333
0.176471 0.701961 0.133333
0.211765 0.713726 0.129412
0.247059 0.721569 0.129412
0.278431 0.713726 0.125490
0.317647 0.721569 0.121569
0.352941 0.717647 0.113725
0.392157 0.717647 0.113725
0.419608 0.725490 0.105882
0.454902 0.721569 0.098039
0.490196 0.717647 0.090196
0.517647 0.721569 0.098039
0.568627 0.725490 0.098039
0.603922 0.721569 0.094118
0.635294 0.721569 0.098039
0.670588 0.725490 0.094118
0.709804 0.725490 0.094118
0.745098 0.729412 0.090196
0.772549 0.725490 0.098039
0.811765 0.725490 0.098039
0.847059 0.729412 0.094118
0.886275 0.729412 0.098039
0.905882 0.725490 0.098039
0.941176 0.729412 0.094118
0.976471 0.725490 0.094118
1.000000 0.729412 0.094118
0.000000 0.725490 0.117647
0.003922 0.733333 0.125490
0.039216 0.733333 0.129412
0.047059 0.737255 0.125490
0.066667 0.741176 0.129412
0.094118 0.745098 0.133333
0.121569 0.737255 0.129412
0.152941 0.737255 0.129412
0.184314 0.741176 0.129412
0.207843 0.741176 0.121569
0.243137 0.745098 0.129412
0.282353 0.745098 0.125490
0.313726 0.745098 0.117647
0.364706 0.741176 0.121569
0.396078 0.749020 0.117647
0.419608 0.749020 0.113725
0.447059 0.749020 0.105882
0.478431 0.749020 0.094118
0.517647 0.756863 0.101961
0.560784 0.752941 0.101961
0.600000 0.752941 0.098039
0.635294 0.756863 0.101961
0.674510 0.756863 0.101961
0.701961 0.752941 0.101961
0.749020 0.752941 0.098039
0.780392 0.756863 0.098039
0.811765 0.760784 0.101961
0.847059 0.756863 0.098039
0.874510 0.760784 0.101961
0.909804 0.756863 0.101961
0.949020 0.756863 0.098039
0.972549 0.764706 0.105882
0.996078 0.756863 0.101961
0.000000 0.760784 0.125490
0.007843 0.764706 0.125490
0.035294 0.768627 0.129412
0.054902 0.772549 0.129412
0.070588 0.772549 0.125490
0.094118 0.772549 0.133333
0.117647 0.772549 0.137255
0.149020 0.772549 0.129412
0.180392 0.768627 0.129412
0.207843 0.776471 0.129412
0.243137 0.784314 0.129412
0.286275 0.776471 0.129412
0.325490 0.772549 0.137255
0.356863 0.780392 0.125490
0.392157 0.780392 0.125490
0.431373 0.780392 0.121569
0.454902 0.784314 0.117647
0.486275 0.784314 0.109804
0.521569 0.780392 0.109804
0.568627 0.788235 0.109804
0.600000 0.788235 0.109804
0.639216 0.788235 0.101961
0.670588 0.792157 0.105882
0.698039 0.784314 0.098039
0.741176 0.788235 0.105882
0.772549 0.792157 0.101961
0.807843 0.796078 0.094118
0.843137 0.792157 0.101961
