web/public/luts/sunset-hour.cube
TITLE "Generated by Resolve"
#LUMIXPHOTOSTYLE VLOG
LUT_3D_SIZE 5
0 0 0
0.111986 0 0.0125582
0.88922 0 0.0962081
0.91043 0 0.109712
0.910475 0 0.108385
0.00149538 0.086183 0.0375525
0.040589 0.0967117 0.014313
0.875563 0.00224308 0.0815137
0.911925 0.00396735 0.0896315
0.913146 0.0087129 0.0807965
0.0458076 0.627253 0.122438
0.0525063 0.675013 0.136568
0.7075 0.496468 0.035935
0.998749 0.447715 0.108827
0.998596 0.478859 0.107805
0.12134 0.994385 0.233509
0.12108 0.995117 0.233509
0.141527 0.978851 0.230564
0.949752 0.9037 0.117372
0.982422 0.873594 0.118791
0.118761 0.996078 0.23743
0.119036 0.996094 0.237034
0.121126 0.99585 0.233448
0.790402 0.972076 0.197284
0.982589 0.97496 0.171283
0.0125887 0.0123903 0.0800946
0.169772 0.00302129 0.135317
0.879911 0 0.112383
0.910277 9.15541e-05 0.114046
0.910369 9.15541e-05 0.111849
0.00396735 0.11223 0.116548
0.0446326 0.105241 0.0950179
0.868055 0.00488289 0.0993057
0.912337 0.00706493 0.0955367
0.914061 0.0149233 0.0905623
0.0458381 0.647257 0.135256
0.0505226 0.697017 0.156176
0.657084 0.524773 0.0471504
0.998108 0.469306 0.110918
0.998413 0.493797 0.111543
0.120821 0.994736 0.234104
0.120165 0.995239 0.234958
0.140444 0.979553 0.230762
0.94197 0.906889 0.120623
0.981933 0.881575 0.11812
0.118257 0.996048 0.238529
0.118502 0.996063 0.237827
0.120714 0.996002 0.233783
0.767681 0.972381 0.200198
0.982605 0.974777 0.171038
0.145113 0.150881 0.665415
0.224506 0.127901 0.740948
0.867338 0.0350195 0.701976
0.904433 0.0312657 0.501259
0.906752 0.0366827 0.48011
0.0730602 0.177996 0.512306
0.145724 0.201862 0.612955
0.867887 0.090013 0.716503
0.91252 0.0755779 0.578119
0.914519 0.0909743 0.625971
0.0205081 0.622232 0.680461
0.0207828 0.656062 0.709743
0.532494 0.556573 0.517433
0.993606 0.482918 0.4206
0.998932 0.501137 0.420706
0.0710155 0.949111 0.810086
0.0709544 0.952438 0.81593
0.0882887 0.93344 0.694148
0.925353 0.895338 0.40679
0.993027 0.874937 0.412238
0.0733959 0.96585 0.823178
0.0736095 0.965026 0.818875
0.058381 0.9682 0.714626
0.67599 0.979873 0.410788
0.985 0.976684 0.386282
0.322988 0.239765 0.953597
0.409827 0.229099 0.958892
0.882383 0.0965133 0.929091
0.921798 0.118746 0.944045
0.928206 0.153597 0.952361
0.201465 0.281758 0.874174
0.338903 0.302571 0.958251
0.89134 0.153124 0.94435
0.941863 0.217838 0.966751
0.949767 0.251575 0.973953
0.0159609 0.678004 0.935897
0.0198367 0.69041 0.938064
0.592569 0.593545 0.956558
0.984421 0.533974 0.969482
0.996109 0.551293 0.970291
0.0933394 0.959976 1
0.0937667 0.961807 1
0.199268 0.929931 0.995315
0.891218 0.928084 0.898985
0.996185 0.917372 0.871519
0.0979019 0.975296 1
0.0976425 0.975143 1
0.097322 0.972 1
0.646952 0.986481 0.895796
0.991104 0.991058 0.847501
0.3252 0.241215 0.954269
0.399344 0.230549 0.958694
0.886366 0.113237 0.934401
0.932448 0.175738 0.957748
0.939513 0.207309 0.964508
0.262745 0.324849 0.948989
0.353933 0.314275 0.962173
0.898512 0.179614 0.950973
0.946441 0.238285 0.971115
0.952972 0.2589 0.974975
0.0297093 0.67982 0.937285
0.0347295 0.695506 0.942168
0.658152 0.614481 0.98146
0.985107 0.552071 0.992798
0.996002 0.570565 0.992859
0.0930037 0.96289 1
0.0935225 0.963897 1
0.248447 0.935576 1
0.892744 0.929397 0.984344
0.99704 0.920592 0.987121
0.0995041 0.97554 1
0.0994888 0.97554 1
0.113695 0.971313 1
0.716991 0.988708 1
0.996536 0.998154 0.987716
