web/public/luts/sunset-hour.cube
TITLE "Generated by Resolve"
#LUMIXPHOTOSTYLE VLOG
LUT_3D_SIZE 9
0 0 0
0.0010071 0 0
0.111986 0 0.0125582
0.617411 0 0.0571908
0.88922 0 0.0962081
0.910414 0 0.109926
0.91043 0 0.109712
0.910475 0 0.108385
0.910475 0 0.108385
0 0 0
0.000259403 0.000228885 0.000228885
0.114321 0 0.0130007
0.606699 0 0.0556497
0.887602 0 0.0955825
0.91043 0 0.109712
0.910445 0 0.10927
0.910491 0 0.107942
0.910491 0 0.107729
0.00149538 0.086183 0.0375525
0.00170901 0.0872053 0.0381476
0.040589 0.0967117 0.014313
0.566644 0.0129854 0.0348669
0.875563 0.00224308 0.0815137
0.911177 0.00184634 0.0991379
0.911925 0.00396735 0.0896315
0.912444 0.00581369 0.0849012
0.913146 0.0087129 0.0807965
0.0131685 0.325689 0.0525826
0.0139467 0.338415 0.0543832
0.0148013 0.352575 0.0569314
0.38674 0.266499 0.0125124
0.874815 0.167895 0.0677958
0.932952 0.165896 0.0767071
0.940032 0.194965 0.0854353
0.946761 0.217609 0.090013
0.952392 0.234424 0.0931106
0.0458076 0.627253 0.122438
0.0497597 0.655772 0.130953
0.0525063 0.675013 0.136568
0.0701457 0.623774 0.117708
0.7075 0.496468 0.035935
0.994156 0.449943 0.103212
0.998749 0.447715 0.108827
0.99855 0.46183 0.108202
0.998596 0.478859 0.107805
0.129732 0.941375 0.226261
0.136721 0.955932 0.232486
0.136873 0.96144 0.233539
0.13283 0.94551 0.227893
0.221042 0.834714 0.154772
0.894575 0.721935 0.0767681
0.993408 0.683223 0.140078
0.993622 0.678126 0.138323
0.993835 0.676555 0.137743
0.12134 0.994385 0.233509
0.12108 0.995117 0.233509
0.12108 0.995117 0.233509
0.121324 0.994385 0.233204
0.141527 0.978851 0.230564
0.56672 0.924331 0.173419
0.949752 0.9037 0.117372
0.981674 0.889525 0.114015
0.982422 0.873594 0.118791
0.118761 0.996078 0.23743
0.118761 0.996078 0.23743
0.119036 0.996094 0.237034
0.11928 0.996109 0.236332
0.121416 0.99585 0.233371
0.351003 0.980087 0.207645
0.857023 0.96405 0.179721
0.981353 0.964385 0.15584
0.980896 0.959121 0.148745
0.118761 0.996078 0.23743
0.118761 0.996078 0.23743
0.119036 0.996094 0.237034
0.11928 0.996109 0.236332
0.121126 0.99585 0.233448
0.266819 0.98674 0.21648
0.790402 0.972076 0.197284
0.969116 0.974334 0.167971
0.982589 0.97496 0.171283
0.000762951 1.5259e-05 0.00062562
0 0 0.000213626
0.113848 0 0.0127871
0.611978 0 0.0571603
0.888014 0 0.0962234
0.91046 0.000198367 0.109819
0.91043 0 0.109712
0.910475 0 0.108385
0.910475 0 0.108385
0.000259403 0.000228885 0.000228885
0.000259403 0.00047303 0.000442512
0.103792 1.5259e-05 0.0110323
0.601556 0 0.0553902
0.886687 0 0.0955978
0.910445 9.15541e-05 0.109651
0.910445 0 0.109056
0.910491 0 0.107942
0.910491 0 0.107729
0.00189212 0.0902876 0.0400854
0.00184634 0.0929732 0.0413062
0.0397498 0.102113 0.0153964
0.512947 0.0202182 0.0293889
0.874632 0.00262455 0.0803693
0.911284 0.00222782 0.0984665
0.912093 0.00454719 0.0881514
0.912825 0.00735485 0.0827955
0.913512 0.0102693 0.0786755
0.0133364 0.329549 0.053254
0.0142824 0.34435 0.0552071
0.0152285 0.360601 0.0590677
0.368795 0.276341 0.0131838
0.850278 0.18996 0.0653086
0.933761 0.183749 0.0797131
0.943206 0.207126 0.0880446
0.949691 0.226307 0.0915847
0.954757 0.241627 0.0945449
0.0470283 0.63624 0.125109
0.051133 0.665232 0.133867
0.0537575 0.684123 0.139452
0.0735637 0.631922 0.119387
0.688182 0.511101 0.0379034
0.992416 0.461936 0.10132
0.99855 0.461189 0.108537
0.998596 0.47628 0.107836
0.998413 0.491066 0.107942
0.132006 0.946044 0.22829
0.137758 0.959762 0.233722
0.1355 0.964019 0.233234
0.134691 0.949584 0.229557
0.219638 0.840681 0.15729
0.88719 0.733074 0.0759747
0.992981 0.692775 0.142901
0.993194 0.687449 0.141268
0.993194 0.686397 0.141024
0.121202 0.994568 0.233448
0.12108 0.995117 0.233509
0.120668 0.995285 0.233845
0.121202 0.994568 0.233448
0.141131 0.9794 0.230671
0.561471 0.926116 0.174716
0.94696 0.906081 0.119112
0.981399 0.893797 0.11371
0.982162 0.879713 0.117037
0.118761 0.996078 0.23743
0.118761 0.996078 0.23743
0.119036 0.996094 0.237034
0.11928 0.996109 0.236332
0.121416 0.99585 0.233371
0.343404 0.980591 0.208316
0.850446 0.964263 0.181033
0.981338 0.964752 0.156313
0.981094 0.959838 0.149828
0.118761 0.996078 0.23743
0.118761 0.996078 0.23743
0.119036 0.996094 0.237034
0.11928 0.996109 0.236332
0.121126 0.99585 0.233448
0.260838 0.987121 0.216999
0.78323 0.972168 0.19823
0.965377 0.97406 0.167056
0.982589 0.97496 0.171283
0.0125887 0.0123903 0.0800946
0.0281682 0.0200198 0.12314
0.169772 0.00302129 0.135317
0.585489 0 0.0952926
0.879911 0 0.112383
0.909987 0 0.117189
0.910277 9.15541e-05 0.114046
0.910353 9.15541e-05 0.112078
0.910369 9.15541e-05 0.111849
0.0115053 0.0224155 0.0934615
0.0107881 0.0182803 0.0778973
0.147463 0.0118257 0.122347
0.573999 0.00114443 0.0929427
0.880354 0 0.112596
0.909957 0 0.118288
0.910292 0.000198367 0.114443
0.910369 0.000381476 0.113451
0.910323 0.000488289 0.114931
0.00396735 0.11223 0.116548
0.0039826 0.115175 0.119051
0.0446326 0.105241 0.0950179
0.488609 0.0316167 0.0679332
0.868055 0.00488289 0.0993057
0.911238 0.00387579 0.108812
0.912337 0.00706493 0.0955367
0.913237 0.0110475 0.0919966
0.914061 0.0149233 0.0905623
0.00975052 0.336721 0.0900587
0.00935378 0.353658 0.101457
0.00881971 0.37023 0.110811
0.337575 0.284718 0.0295415
0.790463 0.210285 0.0672313
0.932494 0.185672 0.0878614
0.94229 0.205737 0.09337
0.94815 0.224094 0.0978103
0.952377 0.238285 0.102312
0.0458381 0.647257 0.135256
0.0487068 0.677714 0.147814
0.0505226 0.697017 0.156176
0.0746777 0.639261 0.126024
0.657084 0.524773 0.0471504
0.987411 0.467506 0.106035
0.998108 0.469306 0.110918
0.998383 0.483162 0.110933
0.998413 0.493797 0.111543
0.133196 0.950088 0.231128
0.135348 0.962142 0.235309
0.132967 0.966201 0.235264
0.135225 0.952178 0.23183
0.217334 0.844373 0.159747
0.87454 0.741344 0.07776
0.992569 0.697337 0.146227
0.992767 0.692256 0.145937
0.992767 0.692195 0.145556
0.120821 0.994736 0.234104
0.120165 0.995239 0.234958
0.120165 0.995239 0.234958
0.120928 0.994553 0.233845
0.140444 0.979553 0.230762
0.549462 0.926787 0.175219
0.94197 0.906889 0.120623
0.981155 0.894774 0.114763
0.981933 0.881575 0.11812
0.118257 0.996048 0.238529
0.118257 0.996048 0.238529
0.118227 0.996048 0.238224
0.119005 0.996094 0.236713
0.121126 0.99585 0.233448
0.327276 0.980987 0.209186
0.839368 0.96347 0.182803
0.981353 0.964385 0.15584
0.98085 0.959854 0.150042
0.118257 0.996048 0.238529
0.118257 0.996048 0.238529
0.118502 0.996063 0.237827
0.119005 0.996094 0.236713
0.120714 0.996002 0.233783
0.246784 0.987732 0.218173
0.767681 0.972381 0.200198
0.958907 0.973846 0.165957
0.982605 0.974777 0.171038
0.0809186 0.0804608 0.381186
0.090959 0.0852216 0.411505
0.18677 0.0542916 0.431449
0.551278 0.0176394 0.343038
0.873549 0.000396735 0.266407
0.90425 0.000198367 0.236164
0.906661 0.00543221 0.211017
0.908186 0.0108492 0.203616
0.908232 0.0108492 0.20267
0.0584115 0.0829175 0.312505
0.06981 0.0905776 0.353964
0.168551 0.0666514 0.415229
0.545327 0.0205692 0.338796
0.874235 0.000686656 0.267857
0.904067 0.000579843 0.240955
0.906538 0.00697337 0.219852
0.907576 0.0121157 0.220447
0.907347 0.0126955 0.227359
0.0187686 0.143679 0.318395
0.0143435 0.140566 0.29633
0.0784619 0.140627 0.318746
0.4878 0.0765698 0.32282
0.857969 0.0160372 0.268376
0.908156 0.0214237 0.24625
0.913207 0.0365301 0.225208
0.915053 0.043534 0.230015
0.916136 0.0480049 0.240024
0.00749218 0.332586 0.360754
0.00755322 0.34992 0.377035
0.00961318 0.355962 0.380591
0.300053 0.308614 0.287755
0.755047 0.220401 0.222736
0.930022 0.190753 0.207797
0.938231 0.204242 0.19028
0.941482 0.221286 0.201099
0.943938 0.234653 0.212177
0.00802625 0.626261 0.412222
0.00898756 0.649897 0.449332
0.00921645 0.6645 0.466804
0.0326238 0.622614 0.345327
0.601419 0.518959 0.177981
0.950545 0.469123 0.187274
0.99588 0.464668 0.183078
0.998474 0.474495 0.182147
0.998489 0.483009 0.187274
0.0623941 0.932189 0.379171
0.0612345 0.942641 0.40621
0.0610361 0.947051 0.416297
0.0657054 0.929488 0.363226
0.186404 0.832532 0.215991
0.850324 0.740795 0.162783
0.991073 0.704036 0.212161
0.994049 0.698207 0.206821
0.993622 0.69894 0.194903
0.0633097 0.990845 0.357839
0.0596933 0.991058 0.375448
0.0595407 0.990997 0.376989
0.0659037 0.990753 0.344289
0.117006 0.976104 0.277134
0.514565 0.923751 0.210544
0.92987 0.903624 0.179843
0.983261 0.890013 0.18764
0.984451 0.877043 0.202396
0.0590219 0.994507 0.368688
0.0574502 0.994247 0.378012
0.0588083 0.994461 0.369543
0.0681163 0.995407 0.330175
0.0928054 0.995758 0.283253
0.293584 0.982223 0.231678
0.82031 0.962081 0.218036
0.981003 0.962722 0.186618
0.980819 0.959243 0.198642
0.0594339 0.994415 0.367041
0.0593729 0.994385 0.367819
0.0616922 0.994904 0.352422
0.076997 0.995727 0.311589
0.099443 0.996002 0.271641
0.213916 0.9897 0.234333
0.733455 0.973785 0.222446
0.944411 0.973831 0.183322
0.981994 0.97496 0.191058
0.145113 0.150881 0.665415
0.156298 0.155322 0.697398
0.224506 0.127901 0.740948
0.586221 0.0511177 0.733379
0.867338 0.0350195 0.701976
0.898787 0.0317235 0.583413
0.904433 0.0312657 0.501259
0.906767 0.0367742 0.480705
0.906752 0.0366827 0.48011
0.115618 0.140581 0.583505
0.136217 0.157855 0.638926
0.210697 0.136004 0.731151
0.58172 0.057557 0.728817
0.869154 0.0384222 0.707393
0.898894 0.0339055 0.599329
0.904814 0.0365148 0.535149
0.906508 0.043595 0.539757
0.905852 0.0467536 0.562249
0.0730602 0.177996 0.512306
0.0738231 0.182956 0.520607
0.145724 0.201862 0.612955
0.536339 0.1196 0.707012
0.867887 0.090013 0.716503
0.906584 0.0622568 0.627085
0.91252 0.0755779 0.578119
0.913863 0.0821088 0.596338
0.914519 0.0909743 0.625971
0.00698863 0.343481 0.579232
0.00587472 0.357397 0.594858
0.0149996 0.35201 0.566384
0.271626 0.328496 0.558236
0.792752 0.278721 0.633783
0.937194 0.246052 0.564752
0.947646 0.257282 0.512963
0.951995 0.273915 0.516381
0.955474 0.287037 0.536507
0.0205081 0.622232 0.680461
0.0193027 0.646693 0.701885
0.0207828 0.656062 0.709743
0.0969711 0.588144 0.615213
0.532494 0.556573 0.517433
0.907164 0.48452 0.444282
0.993606 0.482918 0.4206
0.998917 0.492561 0.409064
0.998932 0.501137 0.420706
0.0484016 0.866728 0.769085
0.0514534 0.878874 0.778973
0.0529793 0.884215 0.783078
0.0541695 0.85919 0.75967
0.208865 0.799985 0.613718
0.82385 0.723003 0.390585
0.976913 0.715129 0.391424
0.996826 0.706035 0.367742
0.996826 0.70605 0.368704
0.0710155 0.949111 0.810086
0.0710155 0.952026 0.815412
0.0709544 0.952438 0.81593
0.0690623 0.947097 0.798398
0.0882887 0.93344 0.694148
0.451072 0.9252 0.447547
0.925353 0.895338 0.40679
0.992828 0.887358 0.428138
0.993027 0.874937 0.412238
0.0732433 0.96611 0.824475
0.0732128 0.966491 0.826383
0.073228 0.966049 0.82417
0.0716564 0.964416 0.806409
0.0639658 0.963165 0.740185
0.225193 0.974929 0.558251
0.786557 0.962966 0.435706
0.979416 0.959945 0.391424
0.98764 0.957488 0.4159
0.0733959 0.96585 0.823178
0.0733959 0.965881 0.823285
0.0736095 0.965026 0.818875
0.0691691 0.965087 0.791424
0.058381 0.9682 0.714626
0.138323 0.980865 0.538338
0.67599 0.979873 0.410788
0.925155 0.976745 0.393606
0.985 0.976684 0.386282
0.230091 0.200855 0.888594
0.243763 0.201602 0.908141
0.314107 0.18265 0.923827
0.671595 0.0903639 0.924727
0.87068 0.0634928 0.912016
0.909392 0.061387 0.914534
0.912413 0.0692912 0.903777
0.916487 0.0885176 0.902998
0.916503 0.0886397 0.903395
0.19646 0.202777 0.822003
0.219562 0.211765 0.870741
0.301213 0.19234 0.920546
0.670283 0.0978866 0.9252
0.873075 0.0659648 0.913756
0.909941 0.0636759 0.918273
0.913359 0.0756695 0.913588
0.916823 0.0919509 0.919356
0.917479 0.0951095 0.923476
0.142565 0.241489 0.716838
0.153002 0.253895 0.749218
0.231281 0.262547 0.860807
0.639185 0.179721 0.929473
0.873365 0.0986954 0.92256
0.920424 0.114137 0.932967
0.926375 0.142824 0.933867
0.930709 0.16669 0.941756
0.933135 0.179126 0.94699
0.0434577 0.378515 0.735286
0.0342107 0.387686 0.728496
0.0499275 0.395621 0.724895
0.375296 0.387579 0.904936
0.80679 0.283513 0.926497
0.958709 0.303181 0.938994
0.974456 0.316121 0.923659
0.981506 0.331945 0.924804
0.987305 0.342916 0.933547
0.0039826 0.661387 0.90985
0.00360113 0.686732 0.917861
0.00675975 0.693507 0.917128
0.133913 0.627146 0.837644
0.46569 0.569329 0.77731
0.893874 0.528283 0.831113
0.985733 0.498527 0.795773
0.997192 0.504219 0.785351
0.996902 0.509361 0.796994
0.0648356 0.878523 0.964065
0.0681773 0.8907 0.974319
0.0692149 0.89395 0.976455
0.0724804 0.85713 0.925261
0.289921 0.770657 0.786709
0.749432 0.774655 0.728099
0.948104 0.737621 0.691386
0.996399 0.736355 0.681407
0.997208 0.735836 0.683665
0.0741588 0.958602 0.936843
0.0763714 0.960845 0.94902
0.076173 0.961044 0.947692
0.0700542 0.953613 0.908675
0.143832 0.928344 0.827649
0.504707 0.920607 0.784436
0.913878 0.906126 0.650446
0.992813 0.89424 0.638254
0.995377 0.886015 0.615732
0.077821 0.977935 0.950515
0.0786603 0.977813 0.955657
0.077348 0.977798 0.947738
0.0720989 0.977722 0.911177
0.0772869 0.96907 0.856626
0.311513 0.962783 0.813825
0.761105 0.968872 0.660197
0.963592 0.961608 0.631662
0.990707 0.962005 0.664195
0.0769818 0.978058 0.945373
0.0769818 0.978058 0.945373
0.0750134 0.978332 0.933196
0.0706798 0.977829 0.896666
0.0721904 0.972274 0.85597
0.206332 0.965835 0.821088
0.631525 0.986206 0.679408
0.904738 0.982651 0.617426
0.987427 0.980743 0.618357
0.322988 0.239765 0.953597
0.327733 0.241062 0.954696
0.409827 0.229099 0.958892
0.720699 0.137316 0.938064
0.882383 0.0965133 0.929091
0.918761 0.105852 0.940963
0.921798 0.118746 0.944045
0.928038 0.152697 0.952148
0.928206 0.153597 0.952361
0.284947 0.237232 0.941497
0.309438 0.249866 0.950515
0.400809 0.240711 0.959197
0.722301 0.144274 0.939361
0.886427 0.102327 0.931533
0.920592 0.114549 0.943114
0.925612 0.139528 0.949203
0.931624 0.172015 0.956954
0.933486 0.180377 0.95874
0.201465 0.281758 0.874174
0.220615 0.292973 0.912627
0.338903 0.302571 0.958251
0.708247 0.235111 0.956771
0.89134 0.153124 0.94435
0.934997 0.189807 0.960616
0.941863 0.217838 0.966751
0.947326 0.241337 0.971817
0.949767 0.251575 0.973953
0.0679179 0.414343 0.812894
0.0614939 0.431327 0.812406
0.0809186 0.452583 0.834073
0.517708 0.44892 0.97464
0.830945 0.327306 0.969543
0.968902 0.334859 0.981903
0.986404 0.347189 0.983902
0.989044 0.363592 0.985199
0.990311 0.374151 0.986542
0.0159609 0.678004 0.935897
0.0137789 0.694438 0.939849
0.0198367 0.69041 0.938064
0.116472 0.638422 0.903181
0.592569 0.593545 0.956558
0.895064 0.521767 0.967254
0.984421 0.533974 0.969482
0.996109 0.545007 0.968688
0.996109 0.551293 0.970291
0.0471351 0.895186 1
0.0547189 0.904768 1
0.0568093 0.906645 1
0.0658427 0.868284 0.985443
0.323537 0.791959 0.905959
0.705943 0.766583 0.916106
0.94638 0.754604 0.925719
0.994049 0.754269 0.9187
0.99588 0.752346 0.918563
0.0933394 0.959976 1
0.0937972 0.96199 1
0.0937667 0.961807 1
0.0945144 0.952911 1
0.199268 0.929931 0.995315
0.53875 0.924483 0.94255
0.891218 0.928084 0.898985
0.986969 0.921431 0.879149
0.996185 0.917372 0.871519
0.0980087 0.975296 1
0.0981003 0.975296 1
0.0979019 0.975143 1
0.0969558 0.974182 1
0.111971 0.966171 1
0.342168 0.965286 0.958755
0.774517 0.978439 0.901656
0.968963 0.975128 0.858564
0.992798 0.972305 0.851301
0.0979019 0.975296 1
0.0979019 0.975296 1
0.0976425 0.975143 1
0.0962997 0.97438 1
0.097322 0.972 1
0.20885 0.972061 0.948119
0.646952 0.986481 0.895796
0.903563 0.992538 0.828275
0.991104 0.991058 0.847501
0.3252 0.241215 0.954269
0.326528 0.241123 0.954604
0.404288 0.229847 0.958801
0.722667 0.147372 0.940398
0.888304 0.114641 0.935149
0.927657 0.154055 0.952529
0.932525 0.176043 0.957809
0.939513 0.207309 0.964508
0.939513 0.207309 0.964508
0.316442 0.256413 0.953384
0.31783 0.25449 0.953521
0.399374 0.24181 0.959533
0.727275 0.152605 0.94107
0.892439 0.119432 0.937179
0.928283 0.156359 0.953124
0.934035 0.182849 0.959274
0.939513 0.207309 0.964508
0.939925 0.209171 0.964904
0.25835 0.319432 0.946166
0.261479 0.326482 0.948852
0.353399 0.31313 0.962127
0.717311 0.245686 0.958755
0.89778 0.176928 0.950317
0.940932 0.216419 0.966308
0.945953 0.236118 0.970657
0.950179 0.252522 0.97409
0.95227 0.257298 0.974746
0.084062 0.463828 0.852735
0.0811475 0.49044 0.850553
0.10193 0.516411 0.870573
0.552651 0.472724 0.980606
0.840391 0.345861 0.974472
0.971222 0.351034 0.984497
0.988235 0.362814 0.987289
0.990784 0.378256 0.988495
0.991699 0.385718 0.989029
0.0296025 0.68043 0.937438
0.0246281 0.69427 0.940703
0.0314488 0.691493 0.940505
0.115984 0.653346 0.928161
0.65919 0.611734 0.981643
0.900404 0.523018 0.988663
0.985092 0.550042 0.992782
0.996002 0.564843 0.992828
0.996002 0.569558 0.992859
0.0449989 0.900847 1
0.0527047 0.909316 1
0.0536507 0.909407 1
0.0817121 0.863584 0.986877
0.330709 0.793332 0.949935
0.762493 0.781964 0.974517
0.948501 0.75993 0.987411
0.994354 0.768429 0.988144
0.996536 0.766918 0.988098
0.0930037 0.96289 1
0.0937209 0.964355 1
0.0935836 0.96405 1
0.092668 0.955154 1
0.225834 0.938643 1
0.585351 0.927092 0.990539
0.892576 0.930526 0.975753
0.987625 0.922972 0.978073
0.996704 0.919051 0.976547
0.0995041 0.97554 1
0.0995041 0.97554 1
0.0993973 0.975402 1
0.0988785 0.974533 1
0.126421 0.966094 1
0.410803 0.968399 1
0.799161 0.978958 0.986419
0.958129 0.978561 0.972457
0.993393 0.978317 0.967041
0.0995041 0.97554 1
0.0995041 0.97554 1
0.0994888 0.97554 1
0.0987564 0.97467 1
0.112413 0.971054 1
0.301152 0.973617 1
0.681392 0.987015 0.995361
0.908553 0.994598 0.976333
0.993835 0.996948 0.973205
0.3252 0.241215 0.954269
0.325505 0.241199 0.954284
0.399344 0.230549 0.958694
0.717845 0.151492 0.941573
0.886366 0.113237 0.934401
0.927352 0.153536 0.952361
0.932448 0.175738 0.957748
0.939513 0.207309 0.964508
0.939513 0.207309 0.964508
0.317128 0.255573 0.95346
0.318212 0.253681 0.953552
0.396841 0.241642 0.959304
0.725368 0.154131 0.941497
0.891981 0.119219 0.937041
0.928283 0.156359 0.953124
0.934112 0.183169 0.959335
0.939651 0.207935 0.96463
0.940139 0.210101 0.965103
0.262745 0.324849 0.948989
0.260899 0.327153 0.948791
0.353933 0.314275 0.962173
0.718624 0.246891 0.958877
0.898512 0.179614 0.950973
0.941344 0.21828 0.966705
0.946441 0.238285 0.971115
0.950881 0.254124 0.974304
0.952972 0.2589 0.974975
0.09308 0.501961 0.862791
0.0877699 0.518364 0.86067
0.102113 0.525246 0.874159
0.553887 0.475349 0.980758
0.841031 0.348852 0.975021
0.971588 0.353994 0.984771
0.988586 0.365728 0.987503
0.991058 0.380529 0.988647
0.991943 0.387671 0.989166
0.0297093 0.67982 0.937285
0.0252232 0.69514 0.940963
0.0347295 0.695506 0.942168
0.118151 0.662318 0.936477
0.658152 0.614481 0.98146
0.900481 0.525139 0.988724
0.985107 0.552071 0.992798
0.996002 0.566201 0.992828
0.996002 0.570565 0.992859
0.0448157 0.900649 1
0.0516823 0.908202 1
0.0505989 0.905608 1
0.0816968 0.854093 0.981918
0.363699 0.804883 0.975769
0.764019 0.782666 0.978622
0.947829 0.759518 0.990295
0.994034 0.768246 0.991135
0.996536 0.766827 0.991089
0.0930037 0.96289 1
0.0937209 0.964355 1
0.0935225 0.963897 1
0.0927291 0.954238 1
0.248447 0.935576 1
0.567117 0.918578 0.995392
0.892744 0.929397 0.984344
0.987961 0.923964 0.987076
0.99704 0.920592 0.987121
0.0995041 0.97554 1
0.0995041 0.97554 1
0.0993973 0.975402 1
0.0987259 0.974243 1
0.127901 0.96582 1
0.44062 0.970474 1
0.813504 0.976669 0.998978
0.961517 0.979843 0.989532
0.996124 0.981933 0.987518
0.0995041 0.97554 1
0.0995041 0.97554 1
0.0994888 0.97554 1
0.0988937 0.974685 1
0.113695 0.971313 1
0.335576 0.976501 1
0.716991 0.988708 1
0.936965 0.997024 0.994263
0.996536 0.998154 0.987716
