web/public/luts/sunset-hour.cube
TITLE "Generated by Resolve"
#LUMIXPHOTOSTYLE VLOG
LUT_3D_SIZE 33
0 0 0
0 0 0
0 0 0
0 0 0
0.0010071 0 0
0.0068513 0 0.000213626
0.0243381 3.0518e-05 0.00190738
0.0597848 1.5259e-05 0.00549325
0.111986 0 0.0125582
0.211841 0 0.0247959
0.358434 0 0.0344549
0.506859 0 0.0422065
0.617411 0 0.0571908
0.713893 0 0.0692454
0.790967 0 0.0776074
0.851652 0 0.087541
0.88922 0 0.0962081
0.904799 0 0.102525
0.909331 0 0.106432
0.910307 0 0.108827
0.910414 0 0.109926
0.910475 0.000289921 0.109987
0.910475 0.000289921 0.109987
0.91046 0.000198367 0.109819
0.91043 0 0.109712
0.91046 0 0.108827
0.910475 0 0.108385
0.910475 0 0.108385
0.910475 0 0.108385
0.910475 0 0.108385
0.910475 0 0.108385
0.910475 0 0.108385
0.910475 0 0.108385
0 0 0
0 0 0
0 0 0
0 0 0
0.000503548 0 0
0.00430304 0.000228885 0.000228885
0.0200198 1.5259e-05 0.00148013
0.0554818 1.5259e-05 0.00503548
0.109178 0 0.0121309
0.206195 0 0.0242008
0.353002 0 0.0342718
0.501991 0 0.0417029
0.612558 0 0.0564889
0.709514 0 0.0686656
0.78732 0 0.0770733
0.849149 0 0.0868849
0.887739 0 0.0957961
0.904509 0 0.102312
0.909178 0 0.106432
0.910155 0 0.108827
0.91043 0 0.109712
0.910475 0.000289921 0.109987
0.910475 0.000289921 0.109987
0.91046 0.000198367 0.109819
0.91043 0 0.109712
0.91046 0 0.108827
0.910475 0 0.108385
0.910475 0 0.108385
0.910475 0 0.108385
0.910475 0 0.108385
0.910475 0 0.108385
0.910475 0 0.108385
0.910475 0 0.108385
0 0 0
0 0 0
0 0 0
0 0 0
0 0 0
0.0037995 0.00047303 0.000656138
0.0144503 1.5259e-05 0.00105287
0.0486458 3.0518e-05 0.00434882
0.1066 0 0.0116884
0.204776 0 0.0240024
0.351522 0 0.0341344
0.500908 0 0.0415808
0.61178 0 0.0565347
0.707805 0 0.0685435
0.785595 0 0.0769055
0.847395 0 0.086656
0.886992 0 0.0955978
0.904372 0 0.102098
0.909194 0 0.106203
0.910155 0 0.108827
0.91043 0 0.109712
0.910475 0.000289921 0.109987
0.910475 0.000289921 0.109987
0.91046 0.000198367 0.109819
0.91043 0 0.109712
0.91046 0 0.108827
0.910475 0 0.108385
0.910475 0 0.108385
0.910475 0 0.108385
0.910475 0 0.108385
0.910475 0 0.108385
0.910475 0 0.108385
0.910475 0 0.108385
0 0 0
0 0 0
0 0 0
0 0 0
0 0 0
0.0010071 0.000228885 0.000228885
0.0180056 1.5259e-05 0.0012665
0.0468757 3.0518e-05 0.00411994
0.104494 1.5259e-05 0.0114595
0.206668 0 0.0242008
0.353765 0 0.0340581
0.498772 0 0.0408942
0.610529 0 0.0562142
0.707332 0 0.0683604
0.785824 0 0.0769055
0.848188 0 0.0866712
0.887144 0 0.0955978
0.904372 0 0.102098
0.909194 0 0.106203
0.910155 0 0.108827
0.91043 0 0.109712
0.910475 0.000289921 0.109987
0.910475 0.000289921 0.109987
0.91046 0.000198367 0.109819
0.91043 0 0.109483
0.91046 0 0.108827
0.910475 0 0.108385
0.910475 0 0.108385
0.910475 0 0.108385
0.910475 0 0.108385
0.910475 0 0.108385
0.910475 0 0.108385
0.910475 0 0.108385
0 0 0
0 0 0
0 0 0
0 0 0
0.000259403 0.000228885 0.000228885
0.000259403 0.000228885 0.000228885
0.0106508 0.000244144 0.000640879
0.0605478 1.5259e-05 0.00593576
0.114321 0 0.0130007
0.213031 0 0.0243534
0.355535 0 0.0336004
0.495827 0 0.0402686
0.606699 0 0.0556497
0.704097 0 0.0679332
0.784329 0 0.0765087
0.848371 0 0.0866712
0.887602 0 0.0955825
0.904662 0 0.102098
0.909178 0 0.106432
0.910307 0 0.108827
0.91043 0 0.109712
0.91046 0.000198367 0.109819
0.91046 0.000198367 0.109819
0.910445 9.15541e-05 0.109651
0.910445 0 0.10927
0.910475 0 0.108171
0.910491 0 0.107942
0.910491 0 0.107942
0.910491 0 0.107942
0.910491 0 0.107942
0.910491 0 0.107942
0.910491 0 0.107942
0.910491 0 0.107729
0 0.00230411 0.0010071
0 0.00207523 0.00077821
0 0.00184634 0.000762951
0 0.00161746 0.000534066
0.000259403 0.00184634 0.000976577
0.000503548 0.00161746 0.000946059
0.00227359 0.00161746 0.000747692
0.0574655 0.00111391 0.00482185
0.143404 0.000427253 0.0162203
0.237491 0.000808728 0.0257572
0.356771 0.000534066 0.0325322
0.488991 0.000137331 0.0394293
0.599588 0 0.05449
0.697353 0 0.0671092
0.78027 0 0.0757763
0.846464 0 0.0858015
0.88716 0 0.0951553
0.904677 0 0.101869
0.909209 0 0.105989
0.910307 0 0.108614
0.91043 0 0.109483
0.91043 0 0.109483
0.910445 0 0.10927
0.910491 9.15541e-05 0.108553
0.910491 0 0.107729
0.910582 9.15541e-05 0.106126
0.910582 9.15541e-05 0.106126
0.910582 9.15541e-05 0.106126
0.910582 9.15541e-05 0.105913
0.910582 9.15541e-05 0.105913
0.910597 9.15541e-05 0.105699
0.910597 9.15541e-05 0.105699
0.910613 0.000198367 0.105638
1.5259e-05 0.00943008 0.00386053
1.5259e-05 0.00828565 0.00355535
1.5259e-05 0.00782788 0.00331121
1.5259e-05 0.00828565 0.00334173
1.5259e-05 0.00920119 0.00341802
3.0518e-05 0.0108034 0.00437934
0.00129702 0.0135348 0.00520333
0.0268254 0.0173342 0.0018616
0.146609 0.00946059 0.0131991
0.276982 0.00582895 0.0244755
0.372747 0.00329595 0.0299229
0.479545 0.00143435 0.0373846
0.586801 0.000564584 0.0517128
0.684321 0.000411994 0.0649271
0.772076 0.000289921 0.0739605
0.841642 0.000198367 0.0840162
0.885573 0 0.0936599
0.904112 0 0.100786
0.909239 0 0.105104
0.910338 0 0.107729
0.910491 9.15541e-05 0.108553
0.910491 9.15541e-05 0.108339
0.910536 0.000198367 0.107622
0.910613 0.000289921 0.106233
0.910643 0.000198367 0.104753
0.910719 0.000289921 0.103166
0.910735 0.000289921 0.102937
0.910735 0.000289921 0.102937
0.910735 0.000289921 0.102724
0.91075 0.000289921 0.102281
0.910765 0.000289921 0.102052
0.910765 0.000289921 0.101839
0.91078 0.000289921 0.101625
0.00030518 0.0377813 0.0153658
0.00030518 0.0370947 0.0151064
0.000289921 0.0368811 0.0148775
0.000289921 0.0366522 0.0148623
0.000320439 0.0384527 0.0156405
0.000350958 0.0397955 0.0161746
0.00062562 0.0429389 0.0170596
0.0128481 0.0501564 0.0140688
0.103441 0.0436255 0.005066
0.264149 0.0247501 0.0168612
0.394064 0.00955215 0.0242313
0.481865 0.00572213 0.0327764
0.571069 0.0037232 0.0438697
0.664424 0.00225834 0.0586252
0.756649 0.00128176 0.0694743
0.83238 0.000869764 0.0795148
0.882078 0.000488289 0.0900893
0.903197 0.000289921 0.0980087
0.909117 0.000488289 0.102632
0.910353 0.000381476 0.105303
0.910689 0.000579843 0.105852
0.910689 0.000488289 0.105028
0.91078 0.000671397 0.103593
0.910903 0.000869764 0.101488
0.91104 0.00115969 0.0993362
0.911131 0.0012665 0.0972915
0.911162 0.00135805 0.0970016
0.911192 0.00144961 0.0967269
0.911223 0.00155642 0.0962234
0.911269 0.00164797 0.0957198
0.911315 0.00184634 0.0953841
0.911345 0.0019379 0.0948806
0.911406 0.00213626 0.094316
0.00149538 0.086183 0.0375525
0.00149538 0.0857557 0.0374762
0.00149538 0.0855573 0.0372015
0.00149538 0.0855573 0.0372015
0.00170901 0.0872053 0.0381476
0.00190738 0.0888533 0.03888
0.00166323 0.0901045 0.0396277
0.0043946 0.0961624 0.0385748
0.040589 0.0967117 0.014313
0.201343 0.06981 0.0104219
0.353826 0.0413672 0.0220188
0.484382 0.0207828 0.0285191
0.566644 0.0129854 0.0348669
0.644663 0.00920119 0.0475013
0.734142 0.00579843 0.0595254
0.816938 0.00332647 0.0699016
0.875563 0.00224308 0.0815137
0.901122 0.00184634 0.0895705
0.908965 0.00164797 0.0957961
0.910689 0.00164797 0.0990463
0.911177 0.00184634 0.0991379
0.911269 0.00202945 0.0977035
0.911437 0.00251774 0.0954147
0.911696 0.00329595 0.0927138
0.911925 0.00396735 0.0896315
0.912154 0.004654 0.0872053
0.9122 0.00483711 0.0866407
0.912276 0.00512703 0.0859998
0.912444 0.00581369 0.0849012
0.912642 0.0065919 0.0837415
0.912825 0.00735485 0.0827955
0.912963 0.00794995 0.0817426
0.913146 0.0087129 0.0807965
0.00364691 0.143694 0.0532387
0.00384527 0.144106 0.0531472
0.00381476 0.145373 0.0532845
0.00381476 0.146014 0.0534676
0.00378424 0.14728 0.0533913
0.0041352 0.149798 0.0535439
0.00428778 0.152117 0.0537728
0.00482185 0.15462 0.0534218
0.01149 0.153399 0.0386664
0.0881056 0.133639 0.00814832
0.294392 0.102007 0.0152438
0.441962 0.0681468 0.026154
0.561227 0.0388342 0.03122
0.642695 0.0250248 0.0413214
0.718822 0.0190738 0.0488746
0.798459 0.0128481 0.0572518
0.862608 0.00906386 0.0678416
0.896895 0.00747692 0.0746319
0.90866 0.00708019 0.0808728
0.91194 0.00726329 0.0844892
0.912657 0.00775158 0.0850385
0.913069 0.0087129 0.0832837
0.913451 0.0101778 0.0800946
0.91397 0.0122988 0.0764477
0.914595 0.0150149 0.0728618
0.915145 0.0174411 0.0701305
0.915404 0.0186007 0.0688945
0.915679 0.019852 0.0678416
0.915953 0.0211185 0.0665446
0.916259 0.0225681 0.0653544
0.916548 0.0238346 0.0640574
0.916793 0.0251469 0.0631266
0.91696 0.026688 0.0624704
0.0096437 0.205325 0.051606
0.00975052 0.20676 0.0515145
0.0099794 0.208804 0.0513619
0.0100557 0.210437 0.0512703
0.0101472 0.211872 0.0511788
0.0103151 0.215152 0.0509957
0.0105135 0.217395 0.0510414
0.010544 0.219638 0.0506142
0.0107424 0.218387 0.0493629
0.0237736 0.203479 0.0312047
0.170459 0.17258 0.00769055
0.396933 0.138506 0.0178683
0.534569 0.105669 0.030396
0.644358 0.0757458 0.0412146
0.732189 0.0547189 0.0467842
0.797436 0.0416266 0.0513924
0.851759 0.0320439 0.0574044
0.88896 0.0261082 0.0592508
0.907362 0.0246281 0.0598764
0.914183 0.0250401 0.0627909
0.916396 0.027039 0.0641947
0.917082 0.029984 0.0639658
0.917678 0.0336156 0.0627451
0.918135 0.0377356 0.0617533
0.918669 0.0426642 0.0608988
0.919081 0.0465553 0.0604105
0.919264 0.0483101 0.0604105
0.919493 0.0504311 0.0601358
0.919722 0.0525368 0.06009
0.919936 0.0546426 0.0600443
0.920485 0.0593271 0.0605478
0.921019 0.0637675 0.0612802
0.921599 0.0687724 0.0618448
0.0130159 0.264591 0.0485542
0.013077 0.266636 0.0484932
0.0131533 0.268467 0.0486
0.0131838 0.270893 0.0487221
0.0132296 0.273152 0.0488441
0.0133211 0.276081 0.0489509
0.0132601 0.279469 0.0490883
0.0133974 0.282612 0.0490425
0.013489 0.283955 0.049012
0.0145876 0.276158 0.0453193
0.0606699 0.248066 0.031342
0.276188 0.219837 0.00894179
0.500603 0.182498 0.0218662
0.627756 0.151339 0.0403143
0.735698 0.122011 0.0493019
0.817426 0.0988785 0.0542458
0.860945 0.0889601 0.0586862
0.889036 0.0803235 0.0587778
0.907469 0.0736553 0.0577554
0.916548 0.0736706 0.0597086
0.921019 0.0775311 0.0620737
0.923033 0.0843824 0.0638437
0.924422 0.0928511 0.0652171
0.925475 0.101946 0.0664683
0.926604 0.111604 0.0677653
0.927565 0.11989 0.0685283
0.928038 0.12401 0.0692302
0.928786 0.128847 0.0702525
0.92961 0.133516 0.0711681
0.93051 0.138766 0.0724041
0.931365 0.143725 0.073579
0.932128 0.148119 0.074464
0.933028 0.153368 0.0756847
0.0131685 0.325689 0.0525826
0.0132753 0.328557 0.0529793
0.0135195 0.331762 0.0534066
0.0137026 0.335225 0.0539712
0.0139467 0.338415 0.0543832
0.0141146 0.341375 0.0547951
0.0143282 0.345846 0.0554665
0.0145724 0.349599 0.0564279
0.0148013 0.352575 0.0569314
0.0149538 0.351003 0.0559548
0.0199741 0.329168 0.0512551
0.135363 0.295521 0.0281529
0.38674 0.266499 0.0125124
0.595651 0.232807 0.0275578
0.722133 0.204471 0.0469673
0.818647 0.181003 0.0590829
0.874815 0.167895 0.0677958
0.904387 0.159548 0.0696574
0.919661 0.157733 0.0714122
0.928191 0.160754 0.0739605
0.932952 0.165896 0.0767071
0.935683 0.172457 0.0792706
0.937255 0.179446 0.0813764
0.938659 0.18674 0.0835431
0.940032 0.194965 0.0854353
0.941787 0.202945 0.0871748
0.94342 0.207721 0.0881056
0.945052 0.212512 0.0890364
0.946761 0.217609 0.090013
0.948394 0.222416 0.0907301
0.949798 0.226612 0.0916152
0.95108 0.230518 0.0924697
0.952392 0.234424 0.0931106
0.0168765 0.392721 0.0673381
0.0171359 0.397147 0.0684672
0.0174868 0.401602 0.0697948
0.0184329 0.406378 0.0709392
0.0191806 0.410605 0.0718853
0.0198978 0.414816 0.0728161
0.0206149 0.419318 0.0737621
0.0213016 0.42356 0.0746929
0.0218051 0.427497 0.075639
0.0225071 0.428931 0.0757763
0.0247349 0.416159 0.0722515
0.0591135 0.38085 0.0573434
0.212238 0.352605 0.0294194
0.480385 0.317968 0.0175784
0.681407 0.287678 0.0324407
0.804746 0.266438 0.0544289
0.878859 0.254597 0.0737774
0.922362 0.246052 0.0832837
0.942412 0.24213 0.087541
0.950805 0.242283 0.0903639
0.954879 0.246342 0.0927901
0.957748 0.25211 0.0949721
0.960174 0.258473 0.096788
0.962478 0.265126 0.0984207
0.964416 0.271489 0.100023
0.966293 0.277531 0.101381
0.968048 0.281804 0.101717
0.970062 0.286687 0.102068
0.971908 0.291279 0.102632
0.973678 0.295552 0.102968
0.975418 0.29984 0.103548
0.976806 0.303197 0.103868
0.978332 0.306859 0.104189
0.0271763 0.46569 0.0837873
0.0277714 0.471229 0.0850996
0.0285039 0.476768 0.086183
0.0292363 0.482612 0.0874952
0.0298009 0.487831 0.0886091
0.0303502 0.49305 0.0897078
0.0309148 0.497673 0.0907607
0.0314336 0.503197 0.0918898
0.0318456 0.506889 0.0926986
0.0322728 0.509056 0.0932021
0.0333715 0.501839 0.0914321
0.0440833 0.471611 0.0827039
0.128298 0.437888 0.0565805
0.290059 0.417395 0.0332036
0.546685 0.377142 0.0234836
0.759884 0.348043 0.0370336
0.867521 0.336248 0.0638285
0.928542 0.327398 0.0869001
0.965438 0.321035 0.0956588
0.977478 0.318456 0.100221
0.981628 0.318547 0.102739
0.983658 0.320531 0.10425
0.985565 0.324544 0.105074
0.987732 0.329763 0.105928
0.990341 0.335302 0.106798
0.992584 0.34049 0.107164
0.994369 0.345373 0.107759
0.99649 0.350271 0.108125
0.998474 0.354849 0.108492
0.998886 0.359228 0.108583
0.998901 0.362997 0.108644
0.998917 0.366445 0.108721
0.998932 0.370214 0.108782
0.0357824 0.544869 0.101305
0.0365301 0.551003 0.102693
0.0373083 0.557778 0.104341
0.0380713 0.564233 0.105989
0.0388647 0.570367 0.107591
0.0394751 0.576165 0.108995
0.040116 0.580697 0.110246
0.040589 0.585855 0.111604
0.0411994 0.589731 0.112383
0.0415198 0.591363 0.112947
0.0419776 0.586618 0.111696
0.0458381 0.56463 0.10544
0.0816205 0.530709 0.0896162
0.204334 0.500496 0.0577707
0.355077 0.484398 0.0442054
0.623682 0.437949 0.0304265
0.824537 0.412207 0.0414435
0.914824 0.404089 0.0712749
0.966873 0.394842 0.0929122
0.988815 0.389258 0.10135
0.996201 0.386511 0.105364
0.998154 0.385794 0.10724
0.998718 0.386496 0.108232
0.999008 0.389059 0.108858
0.999023 0.392203 0.108721
0.999039 0.396277 0.108766
0.998779 0.400656 0.108797
0.99881 0.405371 0.108827
0.99884 0.410086 0.108843
0.998856 0.415106 0.108858
0.998886 0.419501 0.108904
0.998901 0.422965 0.108995
0.998917 0.426734 0.109071
0.0458076 0.627253 0.122438
0.0467994 0.634577 0.124453
0.0478218 0.641932 0.126726
0.0487831 0.649012 0.128862
0.0497597 0.655772 0.130953
0.0505531 0.66183 0.132708
0.0513161 0.66656 0.134035
0.0519417 0.671962 0.135714
0.0525063 0.675013 0.136568
0.0527047 0.676036 0.136934
0.0525826 0.672023 0.135637
0.0538796 0.655192 0.130571
0.0701457 0.623774 0.117708
0.138216 0.591424 0.0935073
0.270069 0.568048 0.0675975
0.427634 0.549905 0.0554665
0.7075 0.496468 0.035935
0.879576 0.471992 0.0505226
0.947372 0.464805 0.076997
0.982406 0.455314 0.095201
0.994156 0.449943 0.103212
0.997604 0.447517 0.106661
0.99852 0.446372 0.108171
0.998749 0.446738 0.108675
0.998749 0.447715 0.108827
0.998764 0.449958 0.108827
0.998764 0.453178 0.108705
0.99855 0.457328 0.108461
0.99855 0.46183 0.108202
0.998566 0.466331 0.108202
0.998581 0.470497 0.107988
0.998581 0.474678 0.107759
0.998596 0.478859 0.107805
0.0581674 0.713863 0.148348
0.0594034 0.72166 0.150866
0.0608835 0.729473 0.153338
0.0624552 0.736599 0.155352
0.0639811 0.743389 0.157076
0.0652628 0.749493 0.158984
0.0664836 0.754574 0.160266
0.0673991 0.758648 0.16144
0.06804 0.761685 0.16228
0.0680858 0.762356 0.162615
0.0676585 0.758999 0.16144
0.067216 0.745357 0.157122
0.0743114 0.717464 0.146807
0.107729 0.681804 0.127626
0.195331 0.652445 0.0995346
0.334524 0.630228 0.0784772
0.498619 0.608133 0.0664225
0.779477 0.552102 0.0415808
0.91136 0.528527 0.0618753
0.964111 0.522255 0.0809644
0.988373 0.51371 0.0964981
0.995422 0.508904 0.103349
0.997589 0.506676 0.106538
0.99823 0.505501 0.10782
0.99823 0.50518 0.107851
0.99823 0.506157 0.108003
0.998245 0.50808 0.10779
0.998245 0.510323 0.10779
0.99826 0.513542 0.107958
0.99826 0.516762 0.107851
0.998062 0.520226 0.108217
0.998062 0.52398 0.108324
0.998062 0.527733 0.108415
0.0771801 0.801587 0.173831
0.0794537 0.80911 0.176532
0.0817121 0.816617 0.178973
0.0839094 0.823789 0.181353
0.0860609 0.83061 0.183658
0.0878462 0.836408 0.185824
0.0895094 0.841505 0.187366
0.0905165 0.845243 0.188724
0.09131 0.847623 0.189334
0.0913252 0.847639 0.189578
0.0903639 0.844236 0.188281
0.0881361 0.833432 0.184558
0.0868849 0.8094 0.175326
0.100725 0.775189 0.160632
0.147295 0.739498 0.138155
0.250538 0.709178 0.107729
0.391928 0.687541 0.0897841
0.566445 0.661494 0.0783093
0.834287 0.605554 0.052018
0.929397 0.582345 0.0807507
0.971893 0.578561 0.0912337
0.989761 0.572274 0.102007
0.995514 0.568063 0.1075
0.997436 0.566064 0.110262
0.997436 0.564797 0.110185
0.997436 0.564492 0.110216
0.997436 0.565118 0.11014
0.997436 0.566384 0.110231
0.997436 0.568292 0.11046
0.997223 0.570474 0.110414
0.997223 0.572381 0.110643
0.997223 0.574594 0.110597
0.997223 0.577142 0.110735
0.102281 0.883589 0.201511
0.105089 0.88954 0.204044
0.107836 0.895125 0.206241
0.110445 0.900999 0.208835
0.112718 0.905699 0.210864
0.114504 0.909514 0.212451
0.116136 0.912749 0.213901
0.117281 0.915099 0.214908
0.117769 0.915984 0.215335
0.117449 0.915679 0.21532
0.11632 0.913329 0.214298
0.113451 0.9066 0.211231
0.108629 0.891188 0.204196
0.109438 0.863188 0.192279
0.126284 0.82739 0.174334
0.182422 0.791333 0.147021
0.299351 0.761654 0.115908
0.450416 0.739834 0.101854
0.635889 0.711147 0.090959
0.878126 0.661982 0.0610208
0.938613 0.639338 0.100221
0.974914 0.634516 0.11165
0.989578 0.630259 0.117891
0.995743 0.626932 0.121767
0.995956 0.624765 0.120928
0.995956 0.623392 0.120455
0.995956 0.623133 0.120409
0.995956 0.623392 0.120455
0.995956 0.623667 0.1205
0.995956 0.624506 0.120882
0.995956 0.625315 0.121019
0.995956 0.625605 0.121294
0.995743 0.626657 0.121721
0.129732 0.941375 0.226261
0.131518 0.945159 0.227863
0.133547 0.948959 0.229389
0.135332 0.952728 0.230991
0.136721 0.955932 0.232486
0.138018 0.958831 0.233661
0.137285 0.960311 0.233524
0.136782 0.961242 0.233661
0.136873 0.96144 0.233539
0.136934 0.961059 0.233722
0.137743 0.959762 0.233463
0.136645 0.955642 0.23241
0.13283 0.94551 0.227893
0.128084 0.927077 0.218997
0.12958 0.901595 0.205386
0.153323 0.868589 0.184451
0.221042 0.834714 0.154772
0.354376 0.806714 0.124849
0.518013 0.785245 0.114382
0.706874 0.75967 0.104005
0.894575 0.721935 0.0767681
0.944549 0.700404 0.112886
0.975982 0.692241 0.130922
0.990005 0.686824 0.138659
0.993408 0.683223 0.140078
0.993622 0.680583 0.139254
0.993622 0.678965 0.138689
0.993622 0.678401 0.138384
0.993622 0.678126 0.138323
0.993622 0.677867 0.138262
0.993835 0.677378 0.138109
0.993835 0.676555 0.137743
0.993835 0.676555 0.137743
0.131853 0.971603 0.23267
0.131167 0.973068 0.232578
0.130327 0.974731 0.232425
0.129671 0.976196 0.23241
0.12903 0.977661 0.23238
0.128573 0.978576 0.232303
0.12813 0.979126 0.232425
0.12813 0.979492 0.232532
0.12813 0.979492 0.232532
0.128252 0.979309 0.232303
0.128573 0.978576 0.232303
0.129229 0.977111 0.232624
0.131121 0.973449 0.232654
0.136675 0.965774 0.232807
0.142214 0.9505 0.228672
0.14931 0.925078 0.213596
0.183291 0.89688 0.189334
0.272755 0.86685 0.158267
0.426612 0.843381 0.135607
0.603494 0.824826 0.126009
0.78172 0.803876 0.113664
0.913909 0.779004 0.0916762
0.952178 0.760815 0.117403
0.977905 0.750011 0.141024
0.990005 0.742443 0.154192
0.990219 0.738247 0.15491
0.990433 0.735225 0.15462
0.990646 0.73312 0.154177
0.990646 0.731792 0.153872
0.990646 0.730465 0.153567
0.99086 0.729152 0.153307
0.99086 0.727291 0.15288
0.991073 0.725994 0.152605
0.125444 0.985336 0.232547
0.125292 0.986252 0.23241
0.124865 0.986801 0.232547
0.124727 0.987335 0.232593
0.12459 0.987884 0.232654
0.124163 0.988434 0.232471
0.124315 0.988617 0.232654
0.124163 0.9888 0.232593
0.124163 0.9888 0.232593
0.1243 0.988617 0.232334
0.1243 0.988251 0.232532
0.12459 0.987518 0.232532
0.125429 0.985702 0.232349
0.127764 0.981704 0.232364
0.134005 0.973922 0.231983
0.150088 0.96202 0.231281
0.170596 0.939971 0.216724
0.222217 0.914565 0.189883
0.34963 0.890486 0.158236
0.522026 0.874098 0.147402
0.693477 0.858198 0.138628
0.837125 0.844678 0.124773
0.924178 0.829664 0.102022
0.959396 0.816358 0.113741
0.981079 0.806821 0.134447
0.986603 0.80061 0.141222
0.986816 0.796063 0.14226
0.98703 0.793027 0.143053
0.987243 0.790005 0.143847
0.987457 0.787579 0.144518
0.987457 0.784558 0.145251
0.987671 0.781552 0.146029
0.987884 0.779736 0.146593
0.122789 0.991699 0.232654
0.12253 0.99205 0.232853
0.122515 0.992416 0.23267
0.122408 0.992599 0.232914
0.122118 0.99295 0.232807
0.121996 0.993133 0.233051
0.122133 0.993317 0.232914
0.122133 0.993317 0.232914
0.122133 0.993317 0.232914
0.122133 0.993317 0.232914
0.122118 0.99295 0.232807
0.122408 0.992599 0.232914
0.122789 0.991699 0.232654
0.123888 0.989532 0.232593
0.126864 0.985016 0.23238
0.135714 0.97734 0.231556
0.157366 0.966567 0.229313
0.198459 0.948684 0.214694
0.292866 0.926146 0.184787
0.454353 0.908858 0.163775
0.625315 0.898054 0.157259
0.771649 0.887358 0.148806
0.878828 0.879362 0.133257
0.935897 0.870298 0.112459
0.966522 0.862699 0.115999
0.983383 0.856184 0.124269
0.983627 0.851926 0.125612
0.983871 0.847654 0.126986
0.9841 0.843702 0.128099
0.984344 0.84036 0.129122
0.98436 0.836728 0.130175
0.984588 0.833082 0.131273
0.984817 0.830045 0.13228
0.12134 0.994385 0.233509
0.121202 0.994568 0.233448
0.12105 0.994751 0.233402
0.121202 0.994934 0.233265
0.12108 0.995117 0.233509
0.12108 0.995117 0.233509
0.12108 0.995117 0.233509
0.12108 0.995117 0.233509
0.12108 0.995117 0.233509
0.12108 0.995117 0.233509
0.12108 0.995117 0.233509
0.121355 0.994751 0.23331
0.121324 0.994385 0.233204
0.122133 0.993317 0.232914
0.123781 0.990814 0.232563
0.128267 0.98616 0.232044
0.141527 0.978851 0.230564
0.17644 0.968612 0.225299
0.254414 0.953948 0.206912
0.398184 0.934081 0.178988
0.56672 0.924331 0.173419
0.71635 0.915785 0.164706
0.831937 0.910674 0.155398
0.905287 0.907225 0.136461
0.949752 0.9037 0.117372
0.974899 0.899184 0.115343
0.981338 0.896147 0.114519
0.981628 0.893278 0.113375
0.981674 0.889525 0.114015
0.981918 0.885527 0.11516
0.982147 0.881529 0.116335
0.982391 0.877241 0.117586
0.982422 0.873594 0.118791
0.120439 0.995621 0.234363
0.120439 0.995621 0.234363
0.120287 0.995804 0.234318
0.120027 0.995789 0.234699
0.120027 0.995789 0.234699
0.120058 0.995789 0.235019
0.120058 0.995789 0.235019
0.120058 0.995789 0.235019
0.120058 0.995789 0.235019
0.120027 0.995789 0.234699
0.120317 0.995804 0.234623
0.120439 0.995621 0.234363
0.120851 0.995468 0.234028
0.121111 0.995102 0.233829
0.121752 0.993851 0.233371
0.124376 0.991196 0.232532
0.132372 0.986481 0.231479
0.156329 0.979324 0.228229
0.219394 0.970047 0.217288
0.346288 0.957275 0.198077
0.512367 0.943633 0.186236
0.665904 0.93576 0.179706
0.78996 0.930098 0.168948
0.873472 0.927916 0.15845
0.929198 0.926131 0.137957
0.961959 0.924361 0.129168
0.980148 0.922591 0.125887
0.980209 0.920699 0.124895
0.98027 0.91812 0.123674
0.980346 0.915282 0.122515
0.980438 0.912459 0.121355
0.980743 0.909133 0.11986
0.980835 0.90631 0.11873
0.119402 0.995941 0.236072
0.119402 0.995941 0.236072
0.119417 0.995926 0.236378
0.11928 0.996109 0.236332
0.11899 0.996109 0.236408
0.119005 0.996094 0.236713
0.119005 0.996094 0.236713
0.11928 0.996109 0.236332
0.11928 0.996109 0.236332
0.119402 0.995941 0.236072
0.119661 0.995956 0.235676
0.119951 0.995956 0.235599
0.119905 0.995972 0.234958
0.120027 0.995789 0.234699
0.120699 0.99527 0.234165
0.122332 0.993866 0.233219
0.126848 0.991073 0.232288
0.142687 0.986557 0.230091
0.191409 0.979492 0.222751
0.296254 0.970642 0.208087
0.462196 0.960616 0.196628
0.619425 0.952636 0.192737
0.749493 0.946242 0.182025
0.844175 0.943114 0.169879
0.905089 0.942458 0.156497
0.947982 0.942306 0.144198
0.974945 0.942199 0.136599
0.979873 0.940948 0.134508
0.979919 0.9393 0.133639
0.97998 0.93695 0.13254
0.980056 0.934356 0.131273
0.979904 0.931304 0.129793
0.97998 0.92871 0.12874
0.118761 0.996078 0.23743
0.118761 0.996078 0.23743
0.118761 0.996078 0.23743
0.118761 0.996078 0.23743
0.118761 0.996078 0.23743
0.118761 0.996078 0.23743
0.118761 0.996078 0.23743
0.119036 0.996094 0.237034
0.119036 0.996094 0.237034
