web/public/luts/teal-flat.cube
TITLE "Generated by Resolve"
#LUMIXPHOTOSTYLE STD
LUT_3D_SIZE 9
0 0.0485847 0.0695506
0.117952 0.048188 0.0588998
0.250065 0.054902 0.0462043
0.367849 0.0649577 0.0336919
0.480674 0.0709544 0.0220951
0.585153 0.0756847 0.0103456
0.688487 0.0810864 0
0.779141 0.0892653 0
0.863569 0.0991226 0
0 0.175814 0.10045
0.156329 0.165866 0.10074
0.282948 0.174166 0.0890211
0.410178 0.183749 0.0740063
0.512032 0.197833 0.0627298
0.641932 0.199481 0.0441291
0.758358 0.201053 0.0322576
0.869459 0.203113 0.0217899
0.977478 0.20621 0.0132906
0 0.310109 0.105272
0.167361 0.302358 0.108415
0.306905 0.31249 0.102403
0.443458 0.318639 0.0786755
0.604349 0.303639 0.07187
0.731441 0.301106 0.0743267
0.833448 0.310109 0.0440681
0.931441 0.320928 0.0163577
1 0.332494 0.0134279
0 0.451072 0.086717
0.139483 0.445335 0.0815137
0.406714 0.431739 0.111696
0.477577 0.459205 0.0997635
0.574029 0.469337 0.076051
0.72108 0.453223 0.0729076
0.865599 0.434318 0.0707408
1 0.428397 0.0791791
1 0.434272 0.0793317
0 0.585428 0.0725567
0.127443 0.577295 0.070222
0.372854 0.588495 0.103441
0.621027 0.551812 0.13753
0.63154 0.595621 0.117357
0.707591 0.607614 0.0992752
0.833173 0.59971 0.0899519
0.977478 0.584939 0.0906386
1 0.570535 0.0952316
0 0.705699 0.0675975
0.127062 0.69955 0.0653544
0.368887 0.713787 0.100023
0.618326 0.701686 0.138796
0.79237 0.669779 0.171298
0.785183 0.720943 0.144686
0.864042 0.731472 0.126848
0.952377 0.738994 0.106447
1 0.727672 0.1093
0 0.824109 0.0662852
0.141711 0.820615 0.0667735
0.376699 0.836713 0.0989242
0.595071 0.84184 0.132998
0.810498 0.812726 0.170123
0.954864 0.787228 0.194827
0.938476 0.842008 0.164782
1 0.851347 0.150256
1 0.870604 0.127474
0 0.940352 0.0708171
0.156222 0.940475 0.0691997
0.37879 0.957259 0.0949722
0.587961 0.969055 0.129259
0.789258 0.957015 0.162005
0.98732 0.921828 0.198672
1 0.903487 0.221759
1 0.959976 0.191943
1 0.973312 0.181079
0 1 0.0752117
0.171283 1 0.0729992
0.385794 1 0.0955062
0.59263 1 0.128588
0.770001 1 0.15967
0.974014 1 0.196201
1 1 0.235019
1 1 0.259678
1 1 0.231067
0 0.0538643 0.148241
0.122759 0.0503395 0.134569
0.255024 0.0572671 0.120989
0.390692 0.0620584 0.103639
0.515007 0.0653391 0.0870985
0.633326 0.0665751 0.0717937
0.745083 0.0687419 0.0580453
0.836851 0.0765545 0.0516365
0.932937 0.0828565 0.0454108
0 0.174807 0.214496
0.130388 0.173953 0.187457
0.279911 0.178424 0.17052
0.414923 0.187533 0.154681
0.535805 0.194583 0.141634
0.672618 0.191989 0.115236
0.790509 0.193835 0.0988022
0.903975 0.196262 0.0848554
1 0.199619 0.0740215
0 0.312215 0.246387
0.124559 0.309957 0.197543
0.289815 0.309957 0.197772
0.452003 0.305791 0.181674
0.587839 0.312184 0.162173
0.697353 0.323842 0.137865
0.809842 0.332097 0.138247
0.919844 0.335103 0.13228
1 0.33817 0.127031
0 0.45922 0.249775
0.089601 0.450019 0.183215
0.325689 0.445075 0.198566
0.458747 0.45597 0.200137
0.583215 0.460182 0.180652
0.729854 0.440711 0.175402
0.868284 0.436744 0.178302
0.969726 0.445853 0.151202
1 0.457206 0.124681
0 0.592233 0.235462
0.0760357 0.579065 0.171603
0.307042 0.584054 0.189883
0.570138 0.570626 0.230762
0.618723 0.600183 0.221195
0.702129 0.61062 0.200565
0.846189 0.594003 0.196017
0.985885 0.575006 0.192447
1 0.570489 0.204013
0 0.711635 0.220951
0.0742657 0.700008 0.164782
0.309453 0.705165 0.18381
0.55288 0.720165 0.2309
0.758114 0.686854 0.266957
0.773404 0.728084 0.248432
0.847517 0.739467 0.225635
0.963653 0.734524 0.210605
1 0.720424 0.210803
0 0.830274 0.20972
0.0893416 0.820523 0.164858
0.316854 0.827359 0.181231
0.542977 0.84831 0.225513
0.755505 0.836545 0.262089
0.927047 0.800473 0.291722
0.92604 0.848966 0.267292
1 0.859159 0.248707
1 0.87039 0.22594
0 0.945632 0.204349
0.103655 0.93959 0.165331
0.318318 0.948089 0.175723
0.542473 0.969284 0.217929
0.731029 0.973388 0.254688
0.937987 0.946471 0.290135
1 0.91426 0.316747
1 0.966842 0.290471
1 0.979156 0.277501
0 1 0.201038
0.119265 1 0.167666
0.326253 1 0.175097
0.543481 1 0.212894
0.724208 1 0.251118
0.91635 1 0.285847
1 1 0.322637
1 1 0.351339
1 1 0.325689
0 0.0505684 0.230777
0.136355 0.0511177 0.206836
0.268406 0.0565042 0.207309
0.403464 0.0614786 0.189532
0.526345 0.0654459 0.172488
0.643595 0.0675517 0.156954
0.754543 0.0704814 0.142184
0.852003 0.0770428 0.132296
0.974517 0.0759594 0.118181
0 0.193332 0.272343
0.154879 0.169741 0.297673
0.296986 0.174243 0.269856
0.4374 0.181109 0.240879
0.575021 0.183597 0.21912
0.720302 0.179461 0.194476
0.848356 0.178271 0.17145
0.965225 0.180407 0.153231
1 0.182635 0.140337
0 0.30779 0.365896
0.118013 0.311864 0.343801
0.274647 0.305303 0.305043
0.435203 0.312779 0.283711
0.580896 0.317556 0.270039
0.711131 0.320317 0.255573
0.835477 0.321447 0.238239
0.952789 0.323537 0.220966
1 0.328161 0.207553
0 0.45449 0.396002
0.0705425 0.456611 0.351339
0.257465 0.447303 0.297856
0.435447 0.448524 0.305943
0.588373 0.440726 0.293294
0.71957 0.446601 0.276967
0.833036 0.459831 0.251209
0.946166 0.470268 0.256764
1 0.475166 0.257099
0 0.592386 0.40058
0.0411231 0.588846 0.338354
0.243076 0.577386 0.286
0.493446 0.580453 0.320424
0.598459 0.594018 0.325185
0.707835 0.59855 0.310216
0.851743 0.577707 0.304234
0.994354 0.575814 0.31133
1 0.585229 0.287922
0 0.714 0.395148
0.030396 0.708537 0.319371
0.244114 0.696498 0.27808
0.484901 0.717174 0.318547
0.709606 0.703716 0.362997
0.759045 0.731533 0.355398
0.837552 0.743069 0.330755
0.977096 0.727703 0.324086
1 0.706752 0.31722
0 0.833478 0.386587
0.0429847 0.827756 0.308904
0.251713 0.81883 0.276005
0.485084 0.84062 0.310811
0.692012 0.8542 0.356466
0.889326 0.819562 0.392264
0.914031 0.855055 0.37554
0.984207 0.866926 0.352636
1 0.864942 0.334417
0 0.948531 0.377783
0.0565194 0.944839 0.302083
0.255573 0.940993 0.273487
0.481437 0.958816 0.300923
0.680522 0.979309 0.347509
0.882109 0.970382 0.386511
1 0.92874 0.417639
1 0.972976 0.396445
1 0.985611 0.378576
0 1 0.369589
0.072343 1 0.299123
0.265736 1 0.274281
0.481498 1 0.295186
0.679088 1 0.339788
0.857527 1 0.379232
1 1 0.417533
1 1 0.447486
1 1 0.42594
0.0254215 0.0437934 0.32221
0.159167 0.0469978 0.290562
0.270909 0.0605631 0.286076
0.415137 0.0610208 0.286442
0.547173 0.0615091 0.272435
0.657389 0.0655528 0.253605
0.76347 0.0706645 0.235386
0.865141 0.0765087 0.221271
1 0.068452 0.204517
0 0.209171 0.343069
0.195163 0.16054 0.408545
0.305303 0.17615 0.36672
0.457237 0.176822 0.354696
0.60238 0.176333 0.33193
0.73518 0.176333 0.306554
0.864805 0.175509 0.279942
0.989181 0.175799 0.257435
1 0.177234 0.238865
0 0.322896 0.44683
0.0475471 0.328756 0.417105
0.309514 0.299657 0.445396
0.467109 0.301305 0.408896
0.611887 0.304829 0.371542
0.747967 0.30724 0.344778
0.878294 0.308309 0.318456
1 0.309514 0.295857
1 0.30985 0.28217
0 0.448783 0.542458
0.0995041 0.448325 0.511528
0.251423 0.447974 0.481468
0.427695 0.433738 0.430732
0.575158 0.444831 0.415763
0.708858 0.452277 0.403647
0.841016 0.457588 0.3897
0.963561 0.459525 0.373266
1 0.46276 0.355871
0 0.582788 0.555093
0.0720073 0.584833 0.515724
0.217517 0.58555 0.472633
0.41648 0.573449 0.420371
0.577905 0.579034 0.437858
0.710719 0.572946 0.428092
0.84831 0.580423 0.418891
0.959365 0.596735 0.389364
1 0.611383 0.395819
0 0.709285 0.555871
0.0474708 0.712291 0.511894
0.200275 0.70515 0.447913
0.414328 0.698344 0.408728
0.639429 0.708721 0.455375
0.737026 0.721141 0.463935
0.842237 0.728252 0.445029
0.982712 0.707988 0.437324
1 0.705409 0.446967
0 0.833326 0.554269
0.040116 0.833692 0.499947
0.198749 0.824384 0.425818
0.410895 0.820859 0.397986
0.63032 0.849012 0.446983
0.839887 0.83537 0.494362
0.900847 0.855985 0.489052
0.972045 0.870893 0.462638
1 0.857114 0.454383
0 0.950851 0.547951
0.0357519 0.951141 0.484276
0.201663 0.944671 0.412451
0.409827 0.942046 0.390463
0.62681 0.970459 0.43595
0.820417 0.98613 0.485847
1 0.947707 0.523827
1 0.977295 0.511238
1 0.99144 0.487633
0 1 0.540185
0.041062 1 0.471092
0.212009 1 0.405478
0.413092 1 0.386877
0.621073 1 0.424231
0.809873 1 0.475151
1 1 0.519631
1 1 0.552728
1 1 0.536004
0.0524147 0.0386664 0.405783
0.185245 0.0438544 0.381003
0.293111 0.0582895 0.370581
0.411902 0.0668956 0.367941
0.549249 0.0648051 0.369894
0.677089 0.0614176 0.361227
0.775265 0.0691386 0.340154
0.882139 0.0735485 0.322332
1 0.063859 0.306889
0 0.205692 0.465675
0.218448 0.155856 0.507942
0.322652 0.165606 0.453407
0.451362 0.182284 0.444144
0.618448 0.172457 0.451682
0.757168 0.169329 0.431907
0.882078 0.170642 0.403632
1 0.17174 0.376761
1 0.174014 0.352529
0 0.342855 0.494652
0 0.337041 0.515526
0.352438 0.288396 0.567468
0.471168 0.30251 0.519661
0.632593 0.297841 0.505577
0.765011 0.301106 0.475517
0.894453 0.303655 0.445228
1 0.304555 0.417151
1 0.30605 0.39205
0 0.462699 0.643
0.0450446 0.466087 0.602625
0.174044 0.462882 0.559014
0.453971 0.430838 0.566964
0.603754 0.432486 0.538064
0.73904 0.437263 0.507301
0.877913 0.440528 0.481605
1 0.44332 0.457496
1 0.444846 0.436103
0 0.577447 0.689845
0.0978256 0.577691 0.662699
0.249134 0.576989 0.634058
0.40444 0.574731 0.599771
0.564233 0.561761 0.556878
0.69749 0.576028 0.549859
0.834775 0.587442 0.542489
0.968475 0.596353 0.532952
1 0.600092 0.519463
0 0.699443 0.699962
0.0845655 0.703395 0.668132
0.231464 0.705013 0.635767
0.380896 0.705425 0.59176
0.56733 0.696345 0.552071
0.712016 0.702617 0.572625
0.842435 0.699947 0.561257
0.980346 0.7066 0.562585
1 0.722637 0.529763
0 0.826673 0.700465
0.0747692 0.831418 0.669154
0.211521 0.832212 0.631479
0.3626 0.824659 0.56466
0.559319 0.822354 0.537942
0.765164 0.836149 0.585946
0.875517 0.842405 0.596658
0.971435 0.855009 0.577661
1 0.836393 0.569726
0 0.948196 0.701167
0.0619821 0.954086 0.665461
0.192782 0.952361 0.616892
0.355215 0.942199 0.540887
0.55201 0.943755 0.524315
0.759869 0.974762 0.580591
0.972244 0.963424 0.626337
1 0.97554 0.624842
1 0.995163 0.599954
0 1 0.699947
0.0547494 1 0.656931
0.186038 1 0.599039
0.356008 1 0.526299
0.550576 1 0.515618
0.753841 1 0.567391
0.955581 1 0.623804
1 1 0.656931
1 1 0.649683
0.0749981 0.0349889 0.484688
0.207813 0.0408637 0.466117
0.308064 0.0513466 0.443168
0.432914 0.0637675 0.451255
0.543282 0.0713054 0.446891
0.663752 0.0703441 0.446555
0.7888 0.0666209 0.438849
0.912856 0.0654612 0.427619
1 0.0614786 0.415091
0 0.198352 0.577859
0.23917 0.150881 0.6047
0.349935 0.159747 0.548592
0.475471 0.177569 0.536614
0.608972 0.178485 0.539956
0.751308 0.172671 0.536187
0.900847 0.164172 0.521508
1 0.166766 0.494652
1 0.171069 0.469581
0 0.357977 0.546471
0.0306249 0.323384 0.671138
0.378485 0.280888 0.680812
0.484688 0.285695 0.611078
0.62237 0.303029 0.60177
0.76907 0.299138 0.592371
0.910414 0.297063 0.567575
1 0.299916 0.537285
1 0.30248 0.509819
0 0.485451 0.691615
0 0.481086 0.652918
0.111849 0.468223 0.653819
0.496864 0.420615 0.690761
0.605295 0.43415 0.642817
0.754437 0.431205 0.631678
0.890364 0.434974 0.602457
1 0.439399 0.575158
1 0.442023 0.550546
0 0.588052 0.798001
0.056611 0.591806 0.766796
0.198703 0.594415 0.727016
0.331868 0.587457 0.678569
0.585321 0.560967 0.682734
0.720165 0.565347 0.659449
0.859602 0.571557 0.634256
0.998688 0.57789 0.61387
1 0.581521 0.595148
0 0.695644 0.824216
0.106004 0.697704 0.801923
0.257771 0.698268 0.77554
0.409216 0.698711 0.747097
0.549294 0.697444 0.714549
0.688258 0.685985 0.676829
0.824933 0.701732 0.67483
0.961913 0.715023 0.669337
1 0.725307 0.661402
0 0.817349 0.834882
0.106859 0.822339 0.807507
0.243076 0.826413 0.780682
0.383536 0.828702 0.749081
0.518822 0.828214 0.706279
0.692256 0.819791 0.671809
0.843442 0.824659 0.695201
0.968536 0.828 0.685039
1 0.830579 0.693919
0 0.941573 0.833173
0.0922408 0.949065 0.810224
0.222522 0.953079 0.782818
0.357916 0.953552 0.74287
0.498619 0.944564 0.678309
0.68423 0.944503 0.660151
0.893263 0.962844 0.71046
1 0.9617 0.723369
1 0.98233 0.70457
0 1 0.836866
0.0834211 1 0.811399
0.208194 1 0.778103
0.337896 1 0.726268
0.493034 1 0.657328
0.675898 1 0.648524
0.89218 1 0.709957
1 1 0.754177
1 1 0.755428
0.0942855 0.0325628 0.558785
0.22742 0.0383459 0.545556
0.328374 0.0474861 0.519722
0.452491 0.0611887 0.528756
0.559884 0.0690929 0.525414
0.65481 0.0784619 0.515618
0.773266 0.0770275 0.515023
0.944366 0.0569772 0.528435
1 0.0583047 0.513878
0 0.193957 0.672282
0.259373 0.147143 0.695201
0.377905 0.158068 0.641993
0.486046 0.166369 0.610468
0.629801 0.173983 0.632197
0.741985 0.179278 0.61886
0.8869 0.171405 0.615763
1 0.162173 0.602975
1 0.167452 0.576715
0 0.369924 0.629053
0.0616617 0.315679 0.791241
0.400336 0.274784 0.788968
0.510552 0.275624 0.712673
0.643977 0.298558 0.699519
0.756207 0.305867 0.679362
0.904585 0.299641 0.671382
1 0.293858 0.650065
1 0.29865 0.620447
0 0.499916 0.740932
0 0.495109 0.716304
0.170779 0.446021 0.815183
0.523629 0.41297 0.804501
0.615763 0.414099 0.730037
0.744228 0.436835 0.723293
0.897475 0.432151 0.714946
1 0.434073 0.68925
1 0.438895 0.661219
0 0.60647 0.84947
0 0.613352 0.814008
0.108339 0.605509 0.77467
0.267277 0.588983 0.762493
0.624735 0.553292 0.800519
0.724575 0.567391 0.758785
0.874647 0.566629 0.750607
1 0.573571 0.724834
1 0.578775 0.700359
0 0.70341 0.927932
0.0831159 0.708949 0.906783
0.223041 0.712444 0.876905
0.365332 0.714076 0.837797
0.490089 0.710628 0.796078
0.714366 0.68513 0.80293
0.845914 0.689952 0.775723
0.985977 0.696895 0.751934
1 0.704173 0.73225
0 0.814359 0.948058
0.126452 0.817624 0.929564
0.267155 0.820294 0.909575
0.411841 0.821729 0.884489
0.547631 0.822385 0.857679
0.674296 0.821073 0.825238
0.814862 0.806699 0.790799
0.946914 0.824552 0.788052
1 0.843275 0.789685
0 0.93341 0.958221
0.122866 0.940322 0.938445
0.253376 0.945754 0.915175
0.388144 0.950469 0.889052
0.517678 0.952453 0.858259
0.64538 0.949508 0.813199
0.8224 0.94403 0.787381
0.982559 0.943709 0.813718
1 0.959258 0.805508
0 1 0.958755
0.111757 1 0.940032
0.237598 1 0.91809
0.365499 1 0.889494
0.492012 1 0.847257
0.62536 1 0.784146
0.815061 1 0.776242
1 1 0.831037
1 1 0.846204
0.111528 0.03122 0.63154
0.245777 0.0363165 0.624155
0.35079 0.044419 0.601465
0.464149 0.0559396 0.598535
0.576135 0.0673533 0.603342
0.66772 0.0776684 0.592386
0.770932 0.0832074 0.588418
0.934386 0.0657969 0.611612
1 0.0568704 0.609689
0 0.186603 0.761746
0.278904 0.143984 0.781781
0.402701 0.155077 0.7337
0.507073 0.156909 0.697505
0.65069 0.168933 0.723522
0.761227 0.174701 0.712154
0.872724 0.179904 0.696712
1 0.172473 0.692912
1 0.164263 0.682139
0 0.373342 0.741482
0.102892 0.30779 0.900038
0.424033 0.268513 0.897124
0.545678 0.272541 0.826841
0.653208 0.282094 0.783276
0.775525 0.301244 0.776196
0.886519 0.308553 0.754803
1 0.300038 0.748455
1 0.293965 0.731075
0 0.513176 0.783764
0 0.502907 0.82211
0.217487 0.436881 0.938949
0.545922 0.406302 0.914168
0.640757 0.40206 0.833341
0.766094 0.431968 0.822232
0.879179 0.440314 0.800717
1 0.434928 0.794522
1 0.433768 0.773709
0 0.623941 0.886442
0 0.624216 0.862913
0.0264897 0.616358 0.833127
0.328145 0.565438 0.921569
0.651987 0.546304 0.91368
0.730968 0.545693 0.841245
0.863249 0.572183 0.840253
1 0.569604 0.836774
1 0.57406 0.812757
0 0.720409 0.993545
0.0245365 0.728557 0.96199
0.159411 0.733837 0.925521
0.27599 0.72285 0.882383
0.41001 0.708232 0.868421
0.74966 0.678645 0.920195
0.850782 0.691142 0.875914
1 0.691722 0.867033
1 0.699672 0.84155
0 0.819944 1
0.114092 0.825315 1
0.248631 0.830259 1
0.385077 0.834989 0.989792
0.510765 0.834363 0.955825
0.636133 0.835035 0.917723
0.835935 0.806027 0.918242
0.966171 0.81297 0.888594
1 0.820905 0.866728
0.00946059 0.930495 1
0.143297 0.935714 1
0.27808 0.939696 1
0.416236 0.943267 1
0.549722 0.944991 0.995254
0.674632 0.945953 0.967498
0.795926 0.943801 0.935271
0.949035 0.925566 0.906554
1 0.943542 0.906813
0.0183871 1 1
0.143099 1 1
0.268711 1 1
0.395773 1 1
0.523445 1 0.997238
0.644297 1 0.966903
0.769009 1 0.917281
0.952911 1 0.903441
1 1 0.933669
0.126955 0.0304417 0.703532
0.262654 0.0346838 0.701778
0.372213 0.0423896 0.684672
0.476616 0.0509804 0.669612
0.590753 0.0659953 0.679973
0.681056 0.076585 0.669398
0.79942 0.0763409 0.680415
0.922927 0.0746319 0.686793
1 0.0699321 0.688304
0.00852979 0.180728 0.845777
0.297612 0.14139 0.86479
0.42504 0.151751 0.824628
0.540475 0.147768 0.808438
0.661494 0.15874 0.805539
0.779614 0.170504 0.805097
0.88954 0.175967 0.790631
0.995682 0.182956 0.772595
1 0.177066 0.768002
0 0.366369 0.882841
0.157885 0.296941 1
0.447822 0.262196 1
0.578546 0.268894 0.940627
0.669505 0.268696 0.874693
0.795804 0.295781 0.872847
0.905211 0.303227 0.85182
1 0.310994 0.830167
1 0.303258 0.824735
0 0.527535 0.848035
0 0.49572 0.959381
0.268467 0.429191 1
0.571191 0.399451 1
0.676478 0.401114 0.950378
0.772946 0.410834 0.904799
0.898009 0.43595 0.898589
1 0.445457 0.87715
1 0.438834 0.87396
0 0.635752 0.934462
0 0.635386 0.909117
0 0.623743 0.938888
0.377722 0.558526 1
0.675624 0.539986 1
0.755474 0.533745 0.945663
0.885924 0.568032 0.939895
0.999374 0.57702 0.921416
1 0.572702 0.919371
0 0.737804 1
0 0.747707 1
0.0777752 0.742489 0.973693
0.184039 0.729076 0.938125
0.453208 0.686961 1
0.775799 0.671519 1
0.853529 0.667109 0.956176
0.988663 0.696132 0.958099
1 0.695033 0.955001
0 0.835828 1
0.0602731 0.843595 1
0.186465 0.849454 1
0.316106 0.855879 1
0.4271 0.845747 1
0.53727 0.827649 0.973037
0.870802 0.800793 1
0.973053 0.813642 0.991211
1 0.815839 0.981414
0.007187 0.935012 1
0.138018 0.941222 1
0.269688 0.946502 1
0.402914 0.952453 1
0.532876 0.956542 1
0.651164 0.9561 1
0.771252 0.954086 1
0.95172 0.926589 1
1 0.935531 1
0.0361181 1 1
0.16495 1 1
0.29395 1 1
0.424857 1 1
0.555215 1 1
0.677378 1 1
0.797162 1 1
0.917296 1 1
1 1 1
