web/public/luts/teal-flat.cube
TITLE "Generated by Resolve"
#LUMIXPHOTOSTYLE STD
LUT_3D_SIZE 5
0 0.0485847 0.0695506
0.250065 0.054902 0.0462043
0.480674 0.0709544 0.0220951
0.688487 0.0810864 0
0.863569 0.0991226 0
0 0.310109 0.105272
0.306905 0.31249 0.102403
0.604349 0.303639 0.07187
0.833448 0.310109 0.0440681
1 0.332494 0.0134279
0 0.585428 0.0725567
0.372854 0.588495 0.103441
0.63154 0.595621 0.117357
0.833173 0.59971 0.0899519
1 0.570535 0.0952316
0 0.824109 0.0662852
0.376699 0.836713 0.0989242
0.810498 0.812726 0.170123
0.938476 0.842008 0.164782
1 0.870604 0.127474
0 1 0.0752117
0.385794 1 0.0955062
0.770001 1 0.15967
1 1 0.235019
1 1 0.231067
0 0.0505684 0.230777
0.268406 0.0565042 0.207309
0.526345 0.0654459 0.172488
0.754543 0.0704814 0.142184
0.974517 0.0759594 0.118181
0 0.30779 0.365896
0.274647 0.305303 0.305043
0.580896 0.317556 0.270039
0.835477 0.321447 0.238239
1 0.328161 0.207553
0 0.592386 0.40058
0.243076 0.577386 0.286
0.598459 0.594018 0.325185
0.851743 0.577707 0.304234
1 0.585229 0.287922
0 0.833478 0.386587
0.251713 0.81883 0.276005
0.692012 0.8542 0.356466
0.914031 0.855055 0.37554
1 0.864942 0.334417
0 1 0.369589
0.265736 1 0.274281
0.679088 1 0.339788
1 1 0.417533
1 1 0.42594
0.0524147 0.0386664 0.405783
0.293111 0.0582895 0.370581
0.549249 0.0648051 0.369894
0.775265 0.0691386 0.340154
1 0.063859 0.306889
0 0.342855 0.494652
0.352438 0.288396 0.567468
0.632593 0.297841 0.505577
0.894453 0.303655 0.445228
1 0.30605 0.39205
0 0.577447 0.689845
0.249134 0.576989 0.634058
0.564233 0.561761 0.556878
0.834775 0.587442 0.542489
1 0.600092 0.519463
0 0.826673 0.700465
0.211521 0.832212 0.631479
0.559319 0.822354 0.537942
0.875517 0.842405 0.596658
1 0.836393 0.569726
0 1 0.699947
0.186038 1 0.599039
0.550576 1 0.515618
0.955581 1 0.623804
1 1 0.649683
0.0942855 0.0325628 0.558785
0.328374 0.0474861 0.519722
0.559884 0.0690929 0.525414
0.773266 0.0770275 0.515023
1 0.0583047 0.513878
0 0.369924 0.629053
0.400336 0.274784 0.788968
0.643977 0.298558 0.699519
0.904585 0.299641 0.671382
1 0.29865 0.620447
0 0.60647 0.84947
0.108339 0.605509 0.77467
0.624735 0.553292 0.800519
0.874647 0.566629 0.750607
1 0.578775 0.700359
0 0.814359 0.948058
0.267155 0.820294 0.909575
0.547631 0.822385 0.857679
0.814862 0.806699 0.790799
1 0.843275 0.789685
0 1 0.958755
0.237598 1 0.91809
0.492012 1 0.847257
0.815061 1 0.776242
1 1 0.846204
0.126955 0.0304417 0.703532
0.372213 0.0423896 0.684672
0.590753 0.0659953 0.679973
0.79942 0.0763409 0.680415
1 0.0699321 0.688304
0 0.366369 0.882841
0.447822 0.262196 1
0.669505 0.268696 0.874693
0.905211 0.303227 0.85182
1 0.303258 0.824735
0 0.635752 0.934462
0 0.623743 0.938888
0.675624 0.539986 1
0.885924 0.568032 0.939895
1 0.572702 0.919371
0 0.835828 1
0.186465 0.849454 1
0.4271 0.845747 1
0.870802 0.800793 1
1 0.815839 0.981414
0.0361181 1 1
0.29395 1 1
0.555215 1 1
0.797162 1 1
1 1 1
