web/public/luts/teal-flat.cube
TITLE "Generated by Resolve"
#LUMIXPHOTOSTYLE STD
LUT_3D_SIZE 33
0 0.0485847 0.0695506
0.0254673 0.0448005 0.0660258
0.0557412 0.0455024 0.0637064
0.0849317 0.047364 0.0614023
0.117952 0.048188 0.0588998
0.151537 0.0491798 0.0556497
0.185306 0.0504311 0.0521248
0.218296 0.052369 0.0488289
0.250065 0.054902 0.0462043
0.278202 0.0585031 0.042237
0.308507 0.0610361 0.0394598
0.338293 0.0630808 0.0365759
0.367849 0.0649577 0.0336919
0.397482 0.0666514 0.0306249
0.426505 0.0679942 0.0274815
0.454139 0.0693675 0.0245518
0.480674 0.0709544 0.0220951
0.506493 0.0722515 0.0196841
0.532662 0.0733806 0.0167239
0.558907 0.0745251 0.0135195
0.585153 0.0756847 0.0103456
0.611276 0.0768444 0.00720226
0.637446 0.0781109 0.00421149
0.663203 0.079469 0.00132753
0.688487 0.0810864 0
0.713039 0.0826429 0
0.736461 0.0844739 0
0.758694 0.0867018 0
0.779141 0.0892653 0
0.798901 0.0919661 0
0.819821 0.0944533 0
0.841291 0.0966659 0
0.863569 0.0991226 0
0 0.077409 0.0825818
0.0330663 0.0724498 0.0722667
0.0603037 0.0735485 0.074342
0.0927901 0.0747539 0.0757305
0.122591 0.0774243 0.074342
0.145464 0.082414 0.06981
0.176165 0.0853285 0.0671397
0.208499 0.0879072 0.0644694
0.24094 0.090013 0.0613107
0.273808 0.0921035 0.0581216
0.306508 0.0941787 0.054902
0.338231 0.0961318 0.0516823
0.36878 0.0979629 0.0484627
0.39971 0.0994888 0.0450446
0.429694 0.100664 0.0415503
0.458518 0.102007 0.0384985
0.485618 0.103227 0.0356756
0.512001 0.10428 0.03299
0.539223 0.105165 0.0301213
0.566567 0.105959 0.0271458
0.593545 0.106783 0.0242924
0.620233 0.107683 0.0215915
0.64622 0.108721 0.0192721
0.671382 0.110124 0.0175479
0.695232 0.111986 0.0166171
0.718273 0.113756 0.0157473
0.741802 0.115358 0.0146944
0.766049 0.116793 0.0133669
0.790402 0.118379 0.0116579
0.816724 0.119265 0.00956741
0.848737 0.118746 0.00511177
0.887449 0.116533 0
0.928054 0.113939 0
0 0.109194 0.090013
0.0295415 0.106355 0.0792554
0.0785687 0.100435 0.0841688
0.0944686 0.106737 0.0831006
0.127214 0.108507 0.0826886
0.162478 0.108415 0.0865187
0.19173 0.111162 0.0853285
0.219043 0.115755 0.0775311
0.247822 0.119768 0.0712444
0.279469 0.123308 0.0679942
0.312718 0.12607 0.0656443
0.345037 0.128344 0.0626688
0.375738 0.130434 0.0596628
0.405798 0.132418 0.0565194
0.434791 0.134081 0.0534218
0.462959 0.135622 0.0504921
0.489998 0.136995 0.047715
0.51635 0.13814 0.0450141
0.542794 0.139071 0.0423285
0.568811 0.140139 0.0399634
0.593957 0.141527 0.0382086
0.618173 0.143099 0.0362707
0.643305 0.144335 0.0344549
0.669291 0.145602 0.0325628
0.695659 0.146578 0.0303349
0.724178 0.147066 0.0272068
0.757336 0.146258 0.0216526
0.796124 0.14403 0.0134127
0.834501 0.141894 0.00549325
0.867353 0.141176 0.000595102
0.896315 0.141527 0
0.922835 0.142519 0
0.948592 0.14345 0
0 0.142611 0.0963912
0.0302892 0.139193 0.0850996
0.0754101 0.135119 0.08748
0.122026 0.130541 0.0959945
0.130846 0.140291 0.0893721
0.162371 0.14255 0.0872511
0.20322 0.141131 0.0878004
0.242222 0.140963 0.0899977
0.272251 0.14374 0.0896162
0.301244 0.147738 0.0811627
0.330068 0.151751 0.0717327
0.35906 0.155596 0.0654765
0.38854 0.159213 0.0620279
0.418418 0.162554 0.0601205
0.446799 0.165576 0.059144
0.472938 0.168093 0.057908
0.497276 0.170214 0.0573434
0.521691 0.17203 0.0565957
0.547158 0.173236 0.055024
0.573816 0.174044 0.052781
0.601083 0.174701 0.0502174
0.630457 0.174853 0.0464027
0.664958 0.174121 0.0402228
0.703136 0.172198 0.0318151
0.739376 0.170626 0.024567
0.771038 0.170153 0.0198978
0.799573 0.170489 0.0171664
0.827359 0.171023 0.014847
0.854612 0.171603 0.0126497
0.881682 0.172213 0.0105287
0.909392 0.172747 0.00839246
0.936538 0.1738 0.00683604
0.962646 0.174655 0.00517281
0 0.175814 0.10045
0.0296025 0.17229 0.0899214
0.0763409 0.168612 0.0908827
0.126711 0.163867 0.0977646
0.156329 0.165866 0.10074
0.168872 0.174609 0.0949111
0.198932 0.1776 0.091249
0.240635 0.176257 0.0904707
0.282948 0.174166 0.0890211
0.32285 0.173983 0.0893721
0.355169 0.17612 0.0889906
0.383581 0.179721 0.0825666
0.410178 0.183749 0.0740063
0.435935 0.187747 0.0667887
0.461585 0.191577 0.0637369
0.486778 0.194797 0.0626688
0.512032 0.197833 0.0627298
0.539406 0.200092 0.0616617
0.571359 0.200717 0.0573892
0.607675 0.200061 0.0502022
0.641932 0.199481 0.0441291
0.672679 0.199481 0.0402228
0.701518 0.199954 0.0375219
0.730053 0.200565 0.0349432
0.758358 0.201053 0.0322576
0.786236 0.201495 0.0295567
0.814115 0.201953 0.0268864
0.841825 0.202457 0.0242618
0.869459 0.203113 0.0217899
0.896635 0.203708 0.0193942
0.924651 0.204379 0.0170291
0.951324 0.205249 0.0150607
0.977478 0.20621 0.0132906
0 0.209598 0.103487
0.0268864 0.206043 0.0937972
0.0755932 0.20238 0.0940871
0.121889 0.199985 0.0988937
0.181155 0.192569 0.108049
0.188281 0.202701 0.103868
0.20856 0.2094 0.0993362
0.235721 0.213443 0.0943313
0.278111 0.212207 0.0927596
0.320302 0.209461 0.0903487
0.361257 0.207843 0.0897383
0.399969 0.207935 0.090959
0.432013 0.2094 0.092134
0.460319 0.212024 0.0901808
0.488563 0.214832 0.0841688
0.518791 0.216785 0.0736858
0.550042 0.218235 0.0615091
0.579232 0.220218 0.0517281
0.605997 0.222416 0.0453956
0.632853 0.22475 0.0416266
0.66038 0.226947 0.0392462
0.688426 0.22887 0.0377508
0.716838 0.230503 0.0367437
0.745098 0.231693 0.0353094
0.773114 0.23267 0.0335699
0.801175 0.2336 0.0316625
0.828855 0.234333 0.0296178
0.856275 0.235035 0.0274815
0.883467 0.235706 0.0254215
0.910536 0.23653 0.0235142
0.938216 0.237339 0.0216678
0.964309 0.238193 0.0200351
0.989837 0.239216 0.0187076
0 0.243442 0.105089
0.0241398 0.239719 0.0956588
0.0741436 0.236149 0.0953078
0.118624 0.234775 0.100114
0.179126 0.229313 0.106874
0.229221 0.224201 0.11632
0.226169 0.238758 0.108934
0.249714 0.243885 0.106096
0.274189 0.249073 0.100618
0.316564 0.247639 0.0983291
0.360861 0.245274 0.095964
0.402701 0.241352 0.0923476
0.448753 0.238911 0.0868391
0.49427 0.237324 0.0832074
0.52874 0.237232 0.0836652
0.555825 0.238865 0.0822156
0.580774 0.24126 0.0772106
0.605066 0.244068 0.0696574
0.630076 0.246738 0.0602426
0.655589 0.24921 0.0505989
0.68162 0.251514 0.0420539
0.708537 0.253971 0.0353246
0.735943 0.256092 0.0301823
0.763592 0.258244 0.0267491
0.791119 0.26041 0.0247807
0.81854 0.262425 0.0238804
0.845609 0.264256 0.023682
0.872267 0.265873 0.0236973
0.898497 0.267399 0.0235142
0.924376 0.268864 0.0231937
0.951034 0.270253 0.022797
0.976394 0.271626 0.0224613
1 0.272908 0.0221408
0 0.276997 0.105165
0.0201267 0.273487 0.0963455
0.0717174 0.269886 0.0957656
0.117906 0.268574 0.101137
0.173556 0.266361 0.108751
0.236973 0.258564 0.119234
0.270863 0.258534 0.124025
0.265782 0.274601 0.113588
0.292302 0.279377 0.105211
0.315343 0.286213 0.0911879
0.360601 0.284001 0.084062
0.406851 0.281254 0.0815137
0.449638 0.277043 0.079057
0.491905 0.272923 0.0768902
0.533639 0.270771 0.0763561
0.571572 0.269413 0.0771496
0.602869 0.269017 0.0793469
0.629496 0.269703 0.0798962
0.655573 0.271199 0.0768749
0.681346 0.273152 0.0703136
0.707164 0.275486 0.0611124
0.733181 0.278126 0.0510262
0.759121 0.280644 0.0411383
0.785153 0.283009 0.0323796
0.811276 0.285313 0.0252537
0.837446 0.287633 0.0200809
0.863432 0.290089 0.0167697
0.889204 0.292592 0.0150607
0.914382 0.295262 0.0149538
0.939757 0.297948 0.0159609
0.965331 0.300313 0.01738
0.989776 0.302586 0.0191958
1 0.304738 0.0208286
0 0.310109 0.105272
0.0185855 0.306111 0.0979019
0.071519 0.302434 0.0979477
0.117906 0.301671 0.102892
0.167361 0.302358 0.108415
0.231403 0.297902 0.111772
0.291493 0.289967 0.117556
0.310872 0.296208 0.113283
0.306905 0.31249 0.102403
0.33669 0.315938 0.0964523
0.357397 0.323323 0.0864881
0.398795 0.321492 0.0813001
0.443458 0.318639 0.0786755
0.488014 0.315282 0.0763256
0.528313 0.309895 0.0736553
0.566903 0.305623 0.071931
0.604349 0.303639 0.07187
0.639811 0.302098 0.0727245
0.67364 0.300755 0.0745098
0.70396 0.300221 0.0755474
0.731441 0.301106 0.0743267
0.757595 0.30277 0.0699168
0.783078 0.304875 0.0628672
0.808469 0.307485 0.0535744
0.833448 0.310109 0.0440681
0.858106 0.312749 0.0349584
0.882551 0.315373 0.0270542
0.906905 0.318029 0.0207523
0.931441 0.320928 0.0163577
0.955932 0.323766 0.0135653
0.980667 0.326589 0.0121309
1 0.329458 0.0121309
1 0.332494 0.0134279
0 0.341665 0.106859
0.016846 0.338567 0.0990616
0.0668345 0.336309 0.0967422
0.107958 0.338323 0.0952621
0.155459 0.341268 0.0948196
0.217884 0.339117 0.100618
0.289952 0.329549 0.110307
0.345724 0.321492 0.117815
0.349432 0.334447 0.110597
0.349416 0.34966 0.100023
0.380926 0.352132 0.0941024
0.399847 0.359945 0.0843824
0.43592 0.359762 0.0784009
0.47985 0.356313 0.0749218
0.523278 0.352987 0.0729381
0.56286 0.348409 0.0709392
0.598535 0.342977 0.0688945
0.633082 0.339055 0.0682841
0.67042 0.336431 0.0688792
0.708278 0.334249 0.0695964
0.743755 0.332586 0.071458
0.77528 0.331594 0.0733654
0.803403 0.331868 0.0734264
0.829755 0.333196 0.0710918
0.854826 0.335134 0.0662394
0.879301 0.33756 0.0591592
0.903349 0.340322 0.0506905
0.92697 0.343221 0.0423285
0.950591 0.346365 0.0345769
0.973968 0.34934 0.0277714
0.997681 0.352163 0.0219272
1 0.355062 0.0176089
1 0.358038 0.014847
0 0.377035 0.102525
0 0.377432 0.0883955
0.0458381 0.376303 0.082536
0.0955215 0.375784 0.0854047
0.150393 0.376364 0.0906539
0.208728 0.376837 0.0969406
0.280705 0.37052 0.103853
0.349523 0.360281 0.112825
0.394949 0.355322 0.116915
0.388785 0.37293 0.107042
0.392691 0.386542 0.0979019
0.424903 0.388022 0.092668
0.442252 0.396063 0.0836347
0.472038 0.397803 0.0765393
0.513695 0.393988 0.0729839
0.554421 0.390509 0.0712291
0.592569 0.387091 0.0703441
0.627741 0.382437 0.0693217
0.662211 0.376394 0.0677501
0.698955 0.371847 0.0673533
0.736904 0.3691 0.0682383
0.774578 0.366842 0.0691997
0.810254 0.364874 0.0707713
0.842863 0.363653 0.0731212
0.871885 0.363516 0.0743267
0.89836 0.364431 0.0736553
0.923232 0.366125 0.0709697
0.947433 0.36849 0.0662852
0.971283 0.371389 0.0599527
0.994278 0.374365 0.0525521
1 0.377447 0.0446937
1 0.380514 0.037583
1 0.383566 0.0312352
0 0.41706 0.0899977
0 0.413275 0.0812848
0.0391241 0.410361 0.0788128
0.0898299 0.409659 0.08159
0.145006 0.410819 0.086244
0.201968 0.412787 0.0924239
0.270253 0.410285 0.0988479
0.344106 0.401465 0.106996
0.407507 0.391089 0.115145
0.439567 0.390997 0.116167
0.428702 0.410849 0.105837
0.435889 0.423072 0.0979934
0.468177 0.423651 0.0934615
0.485252 0.430884 0.0848554
0.508293 0.434821 0.0772869
0.544976 0.431525 0.0734722
0.582513 0.427893 0.0717327
0.619287 0.424613 0.0712749
0.655848 0.420569 0.0710765
0.692103 0.415061 0.0700236
0.727459 0.408988 0.068513
0.763973 0.404608 0.0682689
0.80145 0.401785 0.0691386
0.838926 0.399573 0.0702068
0.875105 0.397635 0.0717784
0.90837 0.396124 0.0740673
0.93817 0.395651 0.0761273
0.96556 0.396429 0.0771191
0.990616 0.39791 0.0764477
1 0.400031 0.0738994
1 0.402579 0.0693675
1 0.405493 0.0635233
1 0.408621 0.0569467
0 0.451072 0.086717
0 0.44715 0.078172
0.0335699 0.44448 0.0754864
0.0842756 0.444068 0.077409
0.139483 0.445335 0.0815137
0.197604 0.447913 0.0877699
0.260471 0.448432 0.0947433
0.334752 0.442359 0.10251
0.406714 0.431739 0.111696
0.463172 0.421653 0.118761
0.482261 0.427604 0.116823
0.469734 0.448234 0.106996
0.477577 0.459205 0.0997635
0.509896 0.4589 0.0957809
0.526558 0.465278 0.0883497
0.544274 0.470619 0.0804761
0.574029 0.469337 0.076051
0.609491 0.465629 0.0740215
0.645853 0.461692 0.0733349
0.683925 0.457969 0.0733959
0.72108 0.453223 0.0729076
0.756542 0.44712 0.0712596
0.791913 0.441184 0.0699016
0.828229 0.436988 0.0697185
0.865599 0.434318 0.0707408
0.902861 0.432227 0.071931
0.938903 0.430335 0.0734264
0.972961 0.428946 0.076112
1 0.428397 0.0791791
1 0.428794 0.081529
1 0.429969 0.0823835
1 0.431846 0.0816815
1 0.434272 0.0793317
0 0.485649 0.082826
0 0.481636 0.0744793
0.0277562 0.479072 0.0716106
0.0793164 0.478401 0.0733501
0.134615 0.479805 0.0773175
0.193851 0.482689 0.0840314
0.25359 0.485008 0.0919203
0.32462 0.482185 0.099855
0.399832 0.473274 0.108904
0.46595 0.462013 0.117632
0.515084 0.453483 0.123232
0.522957 0.464302 0.119188
0.510613 0.48455 0.109773
0.518135 0.495109 0.103014
0.54905 0.493996 0.0993668
0.566186 0.499168 0.0926986
0.580453 0.505318 0.0852979
0.603479 0.507012 0.0799268
0.637079 0.503426 0.0773327
0.673976 0.499214 0.0762493
0.711467 0.495109 0.0757763
0.749294 0.491066 0.075639
0.785763 0.485832 0.0747387
0.82089 0.479606 0.0731365
0.856046 0.473869 0.0716564
0.892302 0.469932 0.0716869
0.929442 0.467384 0.0729229
0.96643 0.465385 0.0745403
1 0.463554 0.0764782
1 0.462119 0.0796826
1 0.461189 0.0835584
1 0.461357 0.0872358
1 0.462486 0.0896162
0 0.519524 0.0787976
0 0.515419 0.0706035
0.0225681 0.512535 0.0680247
0.0753185 0.511772 0.0699626
0.131365 0.512947 0.0742504
0.190753 0.516106 0.0810712
0.250385 0.519448 0.0896773
0.315663 0.519814 0.098085
0.390555 0.514061 0.106874
0.462257 0.503929 0.116503
0.522499 0.492393 0.124437
0.56109 0.486885 0.128557
0.561975 0.500252 0.122683
0.550362 0.519814 0.113329
0.557015 0.529793 0.106416
0.586313 0.528313 0.103136
0.604562 0.532067 0.0978714
0.617777 0.538354 0.0912947
0.635752 0.542321 0.0849012
0.666438 0.53991 0.0813306
0.702327 0.535668 0.0797131
0.739361 0.531518 0.079057
0.776944 0.527871 0.079118
0.813962 0.523705 0.0789349
0.849836 0.518593 0.0781262
0.884428 0.512444 0.0763561
0.919554 0.507469 0.0756085
0.955581 0.503517 0.0758526
0.992172 0.500969 0.0775616
1 0.499031 0.0798199
1 0.497246 0.0826123
1 0.495995 0.0865187
1 0.495354 0.0912642
0 0.552956 0.0751202
0 0.548913 0.0675517
0.0187533 0.545571 0.0652628
0.072343 0.544472 0.0674144
0.129076 0.545419 0.0719005
0.189059 0.548501 0.0790723
0.248783 0.55259 0.087953
0.309438 0.554986 0.0966354
0.381109 0.552499 0.10515
0.454612 0.544701 0.114656
0.521798 0.533516 0.123705
0.574075 0.522316 0.130953
0.603387 0.520134 0.133303
0.60061 0.534768 0.12636
0.589502 0.553277 0.117128
0.594675 0.563165 0.110689
0.621241 0.562341 0.108415
0.641566 0.564355 0.104723
0.655131 0.57055 0.098436
0.670802 0.575509 0.0914015
0.696757 0.575463 0.0867933
0.731319 0.571496 0.0849622
0.767605 0.567483 0.0841688
0.804562 0.563821 0.0841993
0.841611 0.560342 0.0845655
0.878019 0.55642 0.0846418
0.913176 0.551431 0.0838636
0.947387 0.545953 0.0827344
0.982147 0.541054 0.0822461
1 0.537926 0.0836652
1 0.535607 0.0860761
1 0.534066 0.0893568
1 0.53283 0.0928817
0 0.585428 0.0725567
0 0.581582 0.0654154
0.0162051 0.577981 0.063386
0.0704662 0.576562 0.0657206
0.127443 0.577295 0.070222
0.187823 0.58024 0.0774701
0.247868 0.584619 0.0862898
0.306783 0.588235 0.0950484
0.372854 0.588495 0.103441
0.445396 0.583291 0.112291
0.516518 0.573816 0.121935
0.576104 0.561975 0.130755
0.621027 0.551812 0.13753
0.643015 0.552651 0.138842
0.638224 0.567758 0.131655
0.628305 0.585321 0.123095
0.63154 0.595621 0.117357
0.654551 0.596567 0.115389
0.67892 0.596582 0.112551
0.693538 0.601923 0.106355
0.707591 0.607614 0.0992752
0.729198 0.609781 0.0937972
0.761044 0.606989 0.0910353
0.796765 0.60322 0.0901656
0.833173 0.59971 0.0899519
0.870222 0.59675 0.090547
0.906981 0.593713 0.0911421
0.942763 0.589883 0.0912947
0.977478 0.584939 0.0906386
1 0.579904 0.0901198
1 0.575448 0.0905623
1 0.572473 0.0924544
1 0.570535 0.0952316
0 0.61648 0.0707103
0 0.61297 0.0640726
0.0151522 0.609567 0.0621958
0.0695811 0.607874 0.0645914
0.126833 0.60856 0.0690471
0.187045 0.611368 0.0758679
0.247059 0.615869 0.0845808
0.306508 0.620005 0.0935836
0.367498 0.622202 0.102159
0.437263 0.619486 0.110811
0.509071 0.612009 0.120409
0.573632 0.601236 0.130465
0.625284 0.58996 0.139162
0.665324 0.580941 0.145892
0.68217 0.584421 0.146212
0.676448 0.599588 0.139178
0.667506 0.616358 0.131487
0.668971 0.627543 0.125582
0.689052 0.629877 0.122499
0.716442 0.628458 0.120012
0.732341 0.633158 0.114214
0.746105 0.639292 0.10724
0.764157 0.643244 0.100847
0.792233 0.642512 0.0971084
0.826871 0.639246 0.0957351
0.863111 0.636133 0.0953994
0.899458 0.633097 0.0954604
0.936278 0.630442 0.0962539
0.972625 0.627314 0.0968185
1 0.623362 0.0970932
1 0.618387 0.0968643
1 0.613428 0.0968795
1 0.609277 0.0978103
0 0.64625 0.0695659
0 0.642863 0.063035
0.0150759 0.639582 0.0612802
0.0695354 0.638178 0.0634623
0.126802 0.638621 0.0678721
0.18674 0.641291 0.0741894
0.246906 0.64567 0.0826276
0.306889 0.650034 0.0919356
0.365743 0.6533 0.101122
0.431098 0.652781 0.109987
0.501762 0.647883 0.11957
0.568902 0.639017 0.13051
0.625513 0.628183 0.140444
0.672068 0.61735 0.14902
0.708583 0.610224 0.155245
0.721172 0.615518 0.154299
0.715938 0.630381 0.147768
0.707271 0.646922 0.139864
0.70721 0.658686 0.132662
0.725429 0.661967 0.128603
0.754192 0.660212 0.126619
0.771801 0.664164 0.121355
0.785428 0.670039 0.114275
0.801251 0.674998 0.107378
0.825284 0.676417 0.102602
0.858213 0.674067 0.100572
0.893309 0.670924 0.0996109
0.92929 0.668009 0.099443
0.965469 0.665293 0.0998245
1 0.662623 0.100816
1 0.659342 0.101701
1 0.655482 0.10248
1 0.65098 0.102968
0 0.675975 0.0686198
0 0.672969 0.0621195
0.0151217 0.66981 0.0603647
0.0694591 0.668574 0.0622873
0.126711 0.669001 0.0665141
0.186862 0.671489 0.0729076
0.247501 0.675639 0.0814374
0.307958 0.680018 0.0907759
0.366934 0.683574 0.100496
0.427649 0.684459 0.109651
0.495521 0.681376 0.118944
0.562875 0.674449 0.129366
0.622889 0.665171 0.140032
0.674205 0.654887 0.150011
0.717739 0.645106 0.158083
0.750774 0.640116 0.163775
0.761501 0.646555 0.162509
0.756725 0.660517 0.155734
0.747265 0.677165 0.146731
0.746303 0.689769 0.138933
0.762432 0.694133 0.134401
0.791806 0.692241 0.132616
0.811246 0.695155 0.127779
0.825086 0.701045 0.120989
0.839323 0.706722 0.113802
0.859617 0.70956 0.107851
0.888823 0.708202 0.104463
0.923003 0.70515 0.10309
0.958267 0.702007 0.102663
0.994247 0.69897 0.102831
1 0.696132 0.103929
1 0.693507 0.105486
1 0.690547 0.107134
0 0.705699 0.0675975
0 0.703014 0.0611887
0.0156252 0.700191 0.0594797
0.0698711 0.699001 0.0611124
0.127062 0.69955 0.0653544
0.187442 0.701717 0.0718395
0.248478 0.705638 0.0802472
0.309743 0.710231 0.0901961
0.368887 0.713787 0.100023
0.426246 0.715663 0.109453
0.490364 0.714534 0.118624
0.556374 0.709499 0.128176
0.618326 0.701686 0.138796
0.673136 0.692149 0.149371
0.721752 0.681743 0.158556
0.763012 0.673182 0.166491
0.79237 0.669779 0.171298
0.802152 0.676463 0.169741
0.797009 0.690974 0.162432
0.787076 0.708064 0.152865
0.785183 0.720943 0.144686
0.799146 0.726131 0.139483
0.828077 0.724178 0.137438
0.849683 0.725811 0.133242
0.864042 0.731472 0.126848
0.877638 0.737179 0.119493
0.894591 0.741268 0.112734
0.919631 0.741665 0.108248
0.952377 0.738994 0.106447
0.987289 0.735805 0.105776
1 0.732738 0.106142
1 0.730053 0.107317
1 0.727672 0.1093
0 0.735348 0.0666361
0 0.732921 0.0603952
0.0168612 0.730282 0.0587472
0.0714275 0.729305 0.0604105
0.128359 0.729778 0.0644846
0.188891 0.731762 0.0710307
0.250309 0.735546 0.07953
0.311894 0.74023 0.0897841
0.371099 0.744167 0.099855
0.427497 0.746838 0.109422
0.487022 0.747463 0.118471
0.550622 0.744289 0.127459
0.612558 0.738064 0.137438
0.669413 0.729595 0.147967
0.721996 0.719707 0.157977
0.767697 0.709926 0.166567
0.805676 0.702235 0.173709
0.833371 0.699733 0.178164
0.842405 0.706752 0.175952
0.836378 0.721508 0.167803
0.8262 0.738476 0.158068
0.823468 0.751614 0.149737
0.835706 0.757534 0.144121
0.863661 0.756039 0.142
0.887373 0.75668 0.138476
0.902449 0.761456 0.132235
0.915557 0.767239 0.125093
0.930587 0.772244 0.118105
0.95227 0.774319 0.112932
0.98204 0.772686 0.110277
1 0.76968 0.10959
1 0.766812 0.110079
1 0.763989 0.111208
0 0.765057 0.0659037
0 0.762737 0.0600748
0.019379 0.760128 0.0585489
0.0742046 0.759289 0.0602579
0.131441 0.759915 0.0644236
0.192065 0.762081 0.0711986
0.253513 0.766125 0.0799878
0.314565 0.770779 0.0898299
0.37348 0.775128 0.0999008
0.429862 0.778271 0.109499
0.48571 0.77995 0.118349
0.546029 0.778515 0.127062
0.606455 0.77377 0.135882
0.664027 0.766476 0.14612
0.719265 0.757519 0.156359
0.768597 0.747509 0.165484
0.810758 0.738277 0.173312
0.847105 0.73109 0.180117
0.873838 0.729061 0.183932
0.881621 0.73666 0.180804
0.875105 0.751507 0.172549
0.864988 0.768292 0.162814
0.86186 0.781964 0.154559
0.872267 0.788739 0.148714
0.898253 0.788037 0.146212
0.924071 0.787381 0.143343
0.940566 0.79147 0.137728
0.953964 0.797253 0.131106
0.967727 0.802747 0.124147
0.986313 0.806027 0.118395
1 0.805951 0.114855
1 0.803555 0.114229
1 0.80058 0.114549
0 0.794507 0.0657359
0 0.792432 0.0604105
0.0238804 0.790112 0.0594339
0.0791791 0.78938 0.0612039
0.136233 0.79028 0.0654002
0.196185 0.792706 0.0719463
0.256809 0.796811 0.0803998
0.317037 0.801633 0.0898146
0.375402 0.806119 0.0996414
0.431693 0.809552 0.109148
0.485893 0.811795 0.117845
0.542046 0.811658 0.126101
0.600397 0.808408 0.134386
0.657908 0.802274 0.143816
0.714107 0.794476 0.154086
0.766308 0.784909 0.163561
0.812131 0.775387 0.172122
0.852262 0.766552 0.179461
0.88896 0.759335 0.186206
0.914473 0.758068 0.189288
0.920836 0.766491 0.185763
0.913939 0.781445 0.177386
0.90396 0.798276 0.167865
0.90013 0.81207 0.159548
0.908843 0.819638 0.153506
0.932357 0.819913 0.150439
0.960403 0.81828 0.148486
0.978897 0.821378 0.143709
0.992508 0.826841 0.137438
1 0.832502 0.130831
1 0.837278 0.124849
1 0.838804 0.120775
1 0.837125 0.119234
0 0.824109 0.0662852
0 0.822141 0.0615396
0.0298619 0.819883 0.0609445
0.0851301 0.819364 0.0627451
0.141711 0.820615 0.0667735
0.200092 0.823178 0.0727398
0.259754 0.82742 0.0806744
0.318776 0.832181 0.0896162
0.376699 0.836713 0.0989242
0.432486 0.840345 0.108095
0.486915 0.843 0.116869
0.53933 0.843809 0.125017
0.595071 0.84184 0.132998
0.651499 0.837095 0.141665
0.707774 0.830396 0.151507
0.761746 0.82182 0.161135
0.810498 0.812726 0.170123
0.85417 0.803418 0.178256
0.894835 0.794369 0.185702
0.931716 0.78732 0.19237
0.954864 0.787228 0.194827
0.960159 0.796185 0.190906
0.953079 0.811383 0.182727
0.942992 0.828061 0.17319
0.938476 0.842008 0.164782
0.945663 0.850202 0.158618
0.966918 0.851591 0.155383
0.996078 0.849363 0.153933
1 0.851347 0.150256
1 0.856779 0.144732
1 0.862684 0.138308
1 0.867796 0.132204
1 0.870604 0.127474
0 0.853544 0.0674296
0 0.851728 0.0631571
0.0361334 0.849638 0.0625925
0.0906081 0.849515 0.0641947
0.145983 0.850752 0.0675975
0.203311 0.853513 0.0731518
0.261524 0.857649 0.0803998
0.319539 0.86244 0.0886549
0.377218 0.867201 0.0978408
0.432959 0.870985 0.106813
0.487404 0.873793 0.115557
0.538369 0.875334 0.123949
0.591028 0.874495 0.131762
0.645838 0.871183 0.140124
0.70132 0.865538 0.149142
0.756085 0.858015 0.158846
0.806836 0.849683 0.168185
0.853391 0.84065 0.176852
0.897459 0.830961 0.184863
0.938216 0.821683 0.192187
0.974243 0.815122 0.198703
0.995499 0.816388 0.200732
0.999512 0.82591 0.196521
0.991974 0.840955 0.188174
0.981903 0.857481 0.178805
0.976944 0.871672 0.17052
0.982803 0.880568 0.164385
1 0.882902 0.160861
1 0.880507 0.15996
1 0.881712 0.157305
1 0.886519 0.152132
1 0.89218 0.146151
1 0.897795 0.140246
0 0.882765 0.0688487
0 0.881102 0.0646372
0.0414282 0.879118 0.0637369
0.0951858 0.879225 0.0651408
0.149935 0.880796 0.0682994
0.206012 0.883711 0.0733349
0.262913 0.887785 0.0800488
0.32018 0.892622 0.0877241
0.377493 0.897337 0.0965133
0.433158 0.90132 0.10544
0.487724 0.904433 0.11426
0.538735 0.906294 0.122774
0.588281 0.906584 0.130709
0.640818 0.904448 0.138796
0.694987 0.899962 0.147219
0.749691 0.893553 0.156481
0.801556 0.886183 0.165972
0.850156 0.877806 0.174945
0.897231 0.868223 0.183749
0.94168 0.857862 0.191745
0.981628 0.849104 0.199039
1 0.843351 0.205722
1 0.845502 0.207324
1 0.85536 0.202747
1 0.870451 0.194476
1 0.886931 0.185214
1 0.901213 0.176944
1 0.910643 0.170764
1 0.91397 0.167239
1 0.912123 0.166857
1 0.912139 0.164767
1 0.916197 0.160388
1 0.921736 0.154788
0 0.911604 0.0699168
0 0.910262 0.0657206
0.0462348 0.908583 0.0648203
0.0990616 0.908797 0.0658274
0.153094 0.910552 0.0686656
0.208179 0.913558 0.0732128
0.264332 0.917617 0.0796063
0.320974 0.922469 0.0870527
0.377752 0.927306 0.0954604
